; generated by PrusaSlicer 2.6.0-alpha6+linux-x64-GTK3 on 2023-04-23 at 17:04:47 UTC


;
;

;
;
; 

; external perimeters extrusion width = 0.45mm
; perimeters extrusion width = 0.45mm
; infill extrusion width = 0.45mm
; solid infill extrusion width = 0.45mm
; top infill extrusion width = 0.40mm
; first layer extrusion width = 0.42mm

M73 P0 R75
;TYPE:Custom
G90 ; use absolute coordinates
M82 ; extruder absolute mode

M204 S1250 T1250
M104 S210 ; set extruder temp
M140 S60 ; set bed temp
G28 ; home all

G1 Y1.0 Z0.3 F1000 ; move print head up

M190 S60 ; wait for bed temp
M109 S210 ; wait for extruder temp
G92 E0.0

; initial load
G1 X205.0 E19 F1000
G1 Y1.6
G1 X5.0 E19 F1000
G92 E0.0

; intro line
G1 Y2.0 Z0.2 F1000
G1 X65.0 E9.0 F1000
G1 X105.0 E12.5 F1000
G92 E0.0
G21 ; set units to millimeters
G90 ; use absolute coordinates
M82 ; use absolute distances for extrusion
G92 E0
; Filament gcode
M107
;LAYER_CHANGE
;Z:0.2
;HEIGHT:0.2
;BEFORE_LAYER_CHANGE
; G92 E0.0
;0.2
G1 E-4 F1800
G92 E0
G1 Z.075 F9000
G1 Z.2
;AFTER_LAYER_CHANGE
;0.2
G1 Z.275
G1 X36.143 Y61.266
G1 Z.2
G1 E4 F1800
;TYPE:Skirt/Brim
;WIDTH:0.42
G1 F3000
G1 X36.964 Y60.781 E4.0299
G1 X37.953 Y60.568 E4.06162
G1 X75.955 Y55.818 E5.26242
G1 X94.991 Y53.564 E5.86345
G1 X113.257 Y53.564 E6.43617
G1 X172.019 Y60.573 E8.29167
G1 X173.036 Y60.789 E8.32427
G1 X175.433 Y62.176 E8.4111
G1 X175.613 Y62.356 E8.41908
G1 X177.002 Y64.754 E8.50597
G1 X177.257 Y66.412 E8.55857
G1 X177.257 Y125.372 E10.40722
G1 X177.097 Y126.905 E10.45555
G1 X176.665 Y128.543 E10.50866
G1 X175.828 Y130.349 E10.57107
G1 X162.591 Y153.389 E11.40421
G1 X161.416 Y154.802 E11.46183
G1 X161.05 Y155.114 E11.47691
G1 X158.474 Y156.321 E11.56611
G1 X158.038 Y156.396 E11.57998
G1 X155.851 Y156.32 E11.64859
G1 X37.215 Y127.348 E15.47765
G1 X36.963 Y127.28 E15.48583
M73 P0 R74
G1 X34.563 Y125.89 E15.57279
G1 X34.39 Y125.716 E15.58048
G1 X33.026 Y123.4 E15.66475
G1 X32.743 Y121.658 E15.72009
G1 X32.743 Y66.404 E17.45254
G1 X32.995 Y64.757 E17.50478
G1 X34.321 Y62.421 E17.589
G1 X34.503 Y62.234 E17.59718
G1 X36.092 Y61.296 E17.65503
; printing object base_plate_flat.stl id:0 copy 0
G1 E15.25503 F1800
;WIPE_START
G1 F7200
G1 X36.964 Y60.781 E15.01451
G1 X37.953 Y60.568 E14.77424
G1 X42.629 Y59.984 E13.65503
;WIPE_END
G92 E0
G1 Z.275 F9000
G1 X97.802 Y120.529
G1 Z.2
G1 E4 F1800
;TYPE:Perimeter
G1 F3000
G1 X97.985 Y119.855 E4.0219
G1 X98.147 Y119.505 E4.03399
G1 X98.617 Y119.036 E4.05481
G1 X98.935 Y118.807 E4.0671
G1 X99.868 Y118.555 E4.0974
G1 X100.654 Y118.767 E4.12293
G1 X101.006 Y118.923 E4.135
G1 X101.476 Y119.393 E4.15584
G1 X101.711 Y119.708 E4.16816
G1 X101.966 Y120.653 E4.19885
G1 X101.75 Y121.452 E4.2248
G1 X101.588 Y121.801 E4.23686
G1 X101.118 Y122.271 E4.2577
G1 X100.8 Y122.5 E4.26999
G1 X99.868 Y122.752 E4.30026
G1 X99.069 Y122.536 E4.32621
G1 X98.72 Y122.374 E4.33827
G1 X98.25 Y121.904 E4.35911
G1 X98.021 Y121.586 E4.3714
G1 X97.769 Y120.653 E4.4017
G1 X97.786 Y120.587 E4.40384
G1 X98.176 Y120.591 F9000
G1 F3000
G1 X98.34 Y119.984 E4.42355
G1 X98.461 Y119.725 E4.43251
G1 X98.862 Y119.324 E4.45029
G1 X99.1 Y119.153 E4.45948
G1 X99.868 Y118.945 E4.48443
G1 X100.528 Y119.124 E4.50587
G1 X100.789 Y119.239 E4.51481
G1 X101.19 Y119.64 E4.53259
G1 X101.365 Y119.876 E4.5418
G1 X101.576 Y120.653 E4.56704
G1 X101.395 Y121.322 E4.58877
G1 X101.274 Y121.582 E4.59776
G1 X100.873 Y121.983 E4.61554
G1 X100.635 Y122.154 E4.62473
G1 X99.868 Y122.361 E4.64964
G1 X99.199 Y122.181 E4.67136
G1 X98.939 Y122.06 E4.68035
G1 X98.538 Y121.659 E4.69813
G1 X98.367 Y121.421 E4.70732
G1 X98.16 Y120.649 E4.73238
G1 X98.55 Y120.653 F9000
;TYPE:External perimeter
G1 F3000
G1 X98.696 Y120.114 E4.74989
G1 X98.774 Y119.944 E4.75575
G1 X99.107 Y119.612 E4.77049
G1 X99.264 Y119.499 E4.77656
G1 X99.868 Y119.336 E4.79618
G1 X100.401 Y119.48 E4.81349
G1 X100.572 Y119.556 E4.81936
G1 X100.904 Y119.888 E4.83408
G1 X101.02 Y120.044 E4.84018
G1 X101.185 Y120.653 E4.85996
G1 X101.039 Y121.193 E4.8775
G1 X100.961 Y121.363 E4.88336
G1 X100.629 Y121.694 E4.89806
G1 X100.471 Y121.808 E4.90417
G1 X99.868 Y121.971 E4.92376
G1 X99.328 Y121.825 E4.9413
G1 X99.158 Y121.746 E4.94718
G1 X98.826 Y121.414 E4.9619
G1 X98.713 Y121.257 E4.96797
G1 X98.565 Y120.711 E4.98571
G1 X98.216 Y120.433 F9000
G1 E2.58571 F1800
;WIPE_START
G1 F7200
G1 X98.696 Y120.114 E2.44055
G1 X98.774 Y119.944 E2.39613
G1 X99.107 Y119.612 E2.28445
G1 X99.264 Y119.499 E2.23851
G1 X99.868 Y119.336 E2.08993
G1 X100.401 Y119.48 E1.9588
G1 X100.572 Y119.556 E1.91436
G1 X100.904 Y119.888 E1.80285
G1 X101.02 Y120.044 E1.75668
G1 X101.185 Y120.653 E1.60683
G1 X101.039 Y121.193 E1.47398
G1 X100.961 Y121.363 E1.42956
G1 X100.629 Y121.694 E1.31822
G1 X100.471 Y121.808 E1.27195
G1 X99.868 Y121.971 E1.1236
G1 X99.328 Y121.825 E.99075
G1 X99.309 Y121.816 E.98571
;WIPE_END
G92 E0
G1 Z.275 F9000
G1 X144.322 Y128.284
G1 Z.2
G1 E4 F1800
;TYPE:Perimeter
G1 F3000
G1 X144.483 Y127.689 E4.01933
G1 X144.695 Y127.231 E4.03515
G1 X145.074 Y126.852 E4.05196
G1 X145.495 Y126.551 E4.06819
G1 X146.348 Y126.32 E4.0959
G1 X147.093 Y126.497 E4.11991
G1 X147.564 Y126.716 E4.1362
G1 X148.005 Y127.157 E4.15575
G1 X148.234 Y127.476 E4.16806
G1 X148.486 Y128.408 E4.19833
G1 X148.27 Y129.207 E4.22428
G1 X148.108 Y129.556 E4.23634
G1 X147.638 Y130.026 E4.25718
G1 X147.32 Y130.255 E4.26947
G1 X146.388 Y130.507 E4.29974
G1 X145.589 Y130.291 E4.32569
G1 X145.24 Y130.129 E4.33775
G1 X144.772 Y129.661 E4.3585
G1 X144.524 Y129.277 E4.37283
G1 X144.289 Y128.408 E4.40106
G1 X144.306 Y128.342 E4.4032
G1 X144.696 Y128.346 F9000
G1 F3000
G1 X144.839 Y127.818 E4.42035
G1 X145.009 Y127.451 E4.43303
G1 X145.319 Y127.141 E4.44678
G1 X145.659 Y126.897 E4.4599
G1 X146.354 Y126.709 E4.48247
G1 X146.969 Y126.855 E4.50229
G1 X147.344 Y127.03 E4.51527
G1 X147.717 Y127.402 E4.53179
G1 X147.888 Y127.64 E4.54098
G1 X148.096 Y128.408 E4.56593
G1 X147.915 Y129.077 E4.58766
G1 X147.794 Y129.336 E4.59662
G1 X147.394 Y129.737 E4.61438
G1 X147.155 Y129.908 E4.62359
G1 X146.388 Y130.116 E4.64851
G1 X145.719 Y129.935 E4.67024
G1 X145.459 Y129.815 E4.67922
G1 X145.067 Y129.422 E4.69662
G1 X144.872 Y129.122 E4.70784
G1 X144.68 Y128.404 E4.73114
G1 X145.07 Y128.408 F9000
;TYPE:External perimeter
G1 F3000
G1 X145.194 Y127.948 E4.74608
G1 X145.323 Y127.67 E4.75569
G1 X145.564 Y127.429 E4.76638
G1 X145.823 Y127.243 E4.77638
G1 X146.359 Y127.098 E4.79379
G1 X146.845 Y127.214 E4.80946
G1 X147.125 Y127.343 E4.81913
G1 X147.429 Y127.647 E4.83261
G1 X147.542 Y127.805 E4.8387
G1 X147.705 Y128.408 E4.85829
G1 X147.559 Y128.947 E4.8758
G1 X147.48 Y129.117 E4.88168
G1 X147.149 Y129.449 E4.89638
G1 X146.991 Y129.562 E4.90247
G1 X146.388 Y129.725 E4.92206
G1 X145.848 Y129.58 E4.93959
G1 X145.678 Y129.501 E4.94547
G1 X145.361 Y129.184 E4.95953
G1 X145.221 Y128.967 E4.96763
G1 X145.085 Y128.466 E4.98391
G1 X144.735 Y128.189 F9000
G1 E2.58391 F1800
;WIPE_START
G1 F7200
G1 X145.194 Y127.948 E2.45819
G1 X145.323 Y127.67 E2.3854
G1 X145.564 Y127.429 E2.30445
G1 X145.823 Y127.243 E2.22872
G1 X146.359 Y127.098 E2.09684
G1 X146.845 Y127.214 E1.97817
G1 X147.125 Y127.343 E1.90495
G1 X147.429 Y127.647 E1.80284
G1 X147.542 Y127.805 E1.75671
G1 X147.705 Y128.408 E1.60836
G1 X147.559 Y128.947 E1.47573
G1 X147.48 Y129.117 E1.43121
G1 X147.149 Y129.449 E1.31987
G1 X146.991 Y129.562 E1.27374
G1 X146.388 Y129.725 E1.12539
G1 X145.848 Y129.58 E.9926
G1 X145.815 Y129.565 E.98391
;WIPE_END
G92 E0
G1 Z.275 F9000
G1 X164.201 Y119.369
G1 Z.2
G1 E4 F1800
;TYPE:Perimeter
G1 F3000
G1 X163.866 Y119.512 E4.01142
G1 X163.279 Y119.624 E4.03016
G1 X162.75 Y119.595 E4.04677
G1 X162.369 Y119.508 E4.05902
G1 X162.042 Y119.378 E4.07005
G1 X161.57 Y119.079 E4.08757
G1 X161.3 Y118.825 E4.09919
M73 P1 R74
G1 X160.954 Y118.349 E4.11764
G1 X160.737 Y117.801 E4.13612
G1 X160.668 Y117.437 E4.14774
G1 X160.668 Y116.866 E4.16564
G1 X160.757 Y116.454 E4.17886
G1 X160.956 Y115.963 E4.19547
G1 X161.315 Y115.469 E4.21462
G1 X161.72 Y115.128 E4.23122
G1 X162.085 Y114.916 E4.24445
G1 X162.628 Y114.739 E4.26236
G1 X162.991 Y114.693 E4.27383
G1 X163.489 Y114.72 E4.28947
G1 X163.871 Y114.808 E4.30176
G1 X164.198 Y114.938 E4.31279
G1 X164.695 Y115.253 E4.33124
G1 X165.099 Y115.683 E4.34974
G1 X165.297 Y115.996 E4.36135
G1 X165.503 Y116.515 E4.37886
G1 X165.566 Y116.849 E4.38952
G1 X165.588 Y117.188 E4.40017
G1 X165.518 Y117.742 E4.41768
G1 X165.403 Y118.095 E4.42932
G1 X165.12 Y118.611 E4.44777
G1 X164.698 Y119.059 E4.46707
G1 X164.256 Y119.345 E4.48358
G1 X164.05 Y119.024 F9000
G1 F3000
G1 X163.755 Y119.149 E4.49363
G1 X163.254 Y119.245 E4.50962
G1 X162.803 Y119.221 E4.52378
G1 X162.481 Y119.147 E4.53414
G1 X162.213 Y119.04 E4.54319
G1 X161.802 Y118.78 E4.55844
G1 X161.584 Y118.575 E4.56782
G1 X161.287 Y118.166 E4.58367
G1 X161.101 Y117.695 E4.59955
G1 X161.045 Y117.401 E4.60893
G1 X161.045 Y116.907 E4.62442
G1 X161.119 Y116.566 E4.63536
G1 X161.288 Y116.148 E4.6495
G1 X161.593 Y115.728 E4.66577
G1 X161.939 Y115.437 E4.67995
G1 X162.24 Y115.262 E4.69087
G1 X162.71 Y115.109 E4.70637
G1 X163.005 Y115.072 E4.71569
G1 X163.436 Y115.095 E4.72922
G1 X163.758 Y115.169 E4.73958
G1 X164.026 Y115.275 E4.74862
G1 X164.453 Y115.546 E4.76448
G1 X164.799 Y115.915 E4.78034
G1 X164.96 Y116.167 E4.78972
G1 X165.139 Y116.62 E4.80499
G1 X165.192 Y116.896 E4.8138
G1 X165.209 Y117.176 E4.8226
G1 X165.148 Y117.659 E4.83786
G1 X165.056 Y117.944 E4.84725
G1 X164.812 Y118.387 E4.86311
G1 X164.455 Y118.768 E4.87948
G1 X164.103 Y118.996 E4.89263
G1 X163.899 Y118.679 F9000
;TYPE:External perimeter
G1 F3000
G1 X163.645 Y118.786 E4.90127
G1 X163.228 Y118.866 E4.91458
G1 X162.856 Y118.846 E4.92626
G1 X162.594 Y118.785 E4.93469
G1 X162.385 Y118.703 E4.94173
G1 X162.034 Y118.48 E4.95477
G1 X161.868 Y118.324 E4.96191
G1 X161.62 Y117.982 E4.97516
G1 X161.464 Y117.59 E4.98839
G1 X161.422 Y117.366 E4.99554
G1 X161.422 Y116.947 E5.00868
G1 X161.48 Y116.678 E5.01731
G1 X161.62 Y116.332 E5.02901
G1 X161.872 Y115.987 E5.04241
G1 X162.157 Y115.747 E5.05409
G1 X162.395 Y115.608 E5.06273
G1 X162.793 Y115.479 E5.07585
G1 X163.018 Y115.45 E5.08296
G1 X163.384 Y115.47 E5.09445
G1 X163.646 Y115.53 E5.10288
G1 X163.854 Y115.613 E5.1099
G1 X164.211 Y115.839 E5.12315
G1 X164.5 Y116.147 E5.13639
G1 X164.622 Y116.339 E5.14352
G1 X164.775 Y116.726 E5.15657
G1 X164.817 Y116.943 E5.1635
G1 X164.831 Y117.164 E5.17044
G1 X164.779 Y117.577 E5.18349
G1 X164.708 Y117.794 E5.19065
G1 X164.505 Y118.164 E5.20388
G1 X164.212 Y118.476 E5.2173
G1 X163.949 Y118.646 E5.22712
G1 X163.893 Y118.954 F9000
G1 E2.82712 F1800
;WIPE_START
G1 F7200
G1 X163.645 Y118.786 E2.74763
G1 X163.228 Y118.866 E2.64679
G1 X162.856 Y118.846 E2.55831
G1 X162.594 Y118.785 E2.49442
G1 X162.385 Y118.703 E2.4411
G1 X162.034 Y118.48 E2.34234
G1 X161.868 Y118.324 E2.28824
G1 X161.62 Y117.982 E2.18791
G1 X161.464 Y117.59 E2.08771
G1 X161.422 Y117.366 E2.03358
G1 X161.422 Y116.947 E1.93407
G1 X161.48 Y116.678 E1.86871
G1 X161.62 Y116.332 E1.78006
G1 X161.872 Y115.987 E1.67859
G1 X162.157 Y115.747 E1.5901
G1 X162.395 Y115.608 E1.52464
G1 X162.793 Y115.479 E1.42527
G1 X163.018 Y115.45 E1.37139
G1 X163.384 Y115.47 E1.28434
G1 X163.619 Y115.524 E1.22712
;WIPE_END
G92 E0
G1 Z.275 F9000
G1 X160.745 Y76.51
G1 Z.2
G1 E4 F1800
;TYPE:Perimeter
G1 F3000
G1 X160.956 Y75.963 E4.01838
G1 X161.315 Y75.469 E4.03753
G1 X161.72 Y75.128 E4.05413
G1 X162.085 Y74.916 E4.06736
G1 X162.628 Y74.739 E4.08527
G1 X162.991 Y74.693 E4.09674
G1 X163.489 Y74.72 E4.11238
G1 X163.9 Y74.815 E4.12561
G1 X164.417 Y75.058 E4.14352
G1 X164.716 Y75.276 E4.15512
G1 X165.099 Y75.683 E4.17264
G1 X165.281 Y75.97 E4.1833
G1 X165.426 Y76.278 E4.19397
G1 X165.565 Y76.818 E4.21145
G1 X165.588 Y77.188 E4.22307
G1 X165.518 Y77.742 E4.24058
G1 X165.403 Y78.095 E4.25222
G1 X165.12 Y78.611 E4.27067
G1 X164.716 Y79.04 E4.28915
G1 X164.417 Y79.258 E4.30075
G1 X163.884 Y79.509 E4.31922
G1 X163.275 Y79.625 E4.33866
G1 X162.687 Y79.588 E4.35713
G1 X162.328 Y79.496 E4.36875
G1 X161.823 Y79.258 E4.38625
G1 X161.548 Y79.058 E4.39691
G1 X161.3 Y78.825 E4.40758
G1 X160.954 Y78.349 E4.42603
G1 X160.737 Y77.801 E4.44451
G1 X160.668 Y77.437 E4.45613
G1 X160.668 Y76.866 E4.47403
G1 X160.732 Y76.569 E4.48356
G1 X161.112 Y76.594 F9000
G1 F3000
G1 X161.288 Y76.148 E4.49859
G1 X161.593 Y75.728 E4.51486
G1 X161.939 Y75.437 E4.52904
G1 X162.24 Y75.262 E4.53996
G1 X162.71 Y75.109 E4.55546
G1 X163.005 Y75.072 E4.56478
G1 X163.436 Y75.095 E4.57831
G1 X163.776 Y75.173 E4.58925
G1 X164.224 Y75.384 E4.60478
G1 X164.466 Y75.56 E4.61416
G1 X164.799 Y75.915 E4.62942
G1 X164.95 Y76.152 E4.63823
G1 X165.069 Y76.406 E4.64702
G1 X165.19 Y76.878 E4.6623
G1 X165.209 Y77.176 E4.67166
G1 X165.148 Y77.659 E4.68692
G1 X165.056 Y77.944 E4.69631
G1 X164.812 Y78.387 E4.71217
G1 X164.466 Y78.756 E4.72803
G1 X164.224 Y78.932 E4.73741
G1 X163.766 Y79.147 E4.75327
G1 X163.251 Y79.245 E4.76971
G1 X162.747 Y79.214 E4.78554
G1 X162.457 Y79.139 E4.79493
G1 X162.016 Y78.932 E4.8102
G1 X161.789 Y78.767 E4.819
G1 X161.584 Y78.575 E4.82781
G1 X161.287 Y78.166 E4.84366
G1 X161.101 Y77.695 E4.85954
G1 X161.045 Y77.401 E4.86892
G1 X161.045 Y76.907 E4.88441
G1 X161.1 Y76.652 E4.89259
G1 X161.48 Y76.678 F9000
;TYPE:External perimeter
G1 F3000
G1 X161.62 Y76.332 E4.90429
G1 X161.872 Y75.987 E4.91769
G1 X162.157 Y75.747 E4.92937
G1 X162.395 Y75.608 E4.93801
G1 X162.793 Y75.479 E4.95113
G1 X163.018 Y75.45 E4.95824
G1 X163.384 Y75.47 E4.96973
G1 X163.652 Y75.532 E4.97835
G1 X164.031 Y75.71 E4.99148
G1 X164.215 Y75.844 E4.99862
G1 X164.5 Y76.147 E5.01166
G1 X164.619 Y76.334 E5.01861
G1 X164.713 Y76.534 E5.02554
G1 X164.816 Y76.937 E5.03858
G1 X164.831 Y77.164 E5.04571
G1 X164.779 Y77.577 E5.05876
G1 X164.708 Y77.794 E5.06592
G1 X164.505 Y78.164 E5.07915
G1 X164.215 Y78.472 E5.09241
G1 X164.031 Y78.606 E5.09955
G1 X163.649 Y78.786 E5.11279
G1 X163.227 Y78.866 E5.12626
G1 X162.806 Y78.84 E5.13949
G1 X162.585 Y78.783 E5.14665
G1 X162.209 Y78.606 E5.15968
G1 X162.03 Y78.476 E5.16662
G1 X161.868 Y78.324 E5.17359
G1 X161.62 Y77.982 E5.18684
G1 X161.464 Y77.59 E5.20007
G1 X161.422 Y77.366 E5.20722
G1 X161.422 Y76.947 E5.22036
G1 X161.467 Y76.736 E5.22712
G1 X161.223 Y76.408 F9000
G1 E2.82712 F1800
;WIPE_START
G1 F7200
G1 X161.62 Y76.332 E2.72452
G1 X161.872 Y75.987 E2.62305
G1 X162.157 Y75.747 E2.53456
G1 X162.395 Y75.608 E2.4691
G1 X162.793 Y75.479 E2.36973
G1 X163.018 Y75.45 E2.31585
G1 X163.384 Y75.47 E2.2288
G1 X163.652 Y75.532 E2.16347
G1 X164.031 Y75.71 E2.06402
G1 X164.215 Y75.844 E2.00996
G1 X164.5 Y76.147 E1.91117
G1 X164.619 Y76.334 E1.85853
G1 X164.713 Y76.534 E1.80605
G1 X164.816 Y76.937 E1.70726
G1 X164.831 Y77.164 E1.65323
G1 X164.779 Y77.577 E1.55437
G1 X164.708 Y77.794 E1.50014
G1 X164.505 Y78.164 E1.39991
G1 X164.215 Y78.472 E1.29944
G1 X164.031 Y78.606 E1.24538
G1 X163.961 Y78.639 E1.22712
;WIPE_END
G92 E0
G1 Z.275 F9000
G1 X132.521 Y78.841
G1 Z.2
G1 E4 F1800
;TYPE:Perimeter
G1 F3000
G1 X132.646 Y78.807 E4.00406
G1 X133.444 Y79.023 E4.02998
G1 X133.794 Y79.185 E4.04207
G1 X134.264 Y79.655 E4.06291
G1 X134.492 Y79.974 E4.0752
G1 X134.745 Y80.906 E4.10548
G1 X134.529 Y81.705 E4.13143
G1 X134.366 Y82.054 E4.14351
G1 X133.896 Y82.524 E4.16435
G1 X133.578 Y82.753 E4.17664
G1 X132.646 Y83.005 E4.20691
G1 X131.86 Y82.792 E4.23244
G1 X131.508 Y82.637 E4.2445
G1 X131.038 Y82.167 E4.26534
G1 X130.803 Y81.852 E4.27766
G1 X130.547 Y80.906 E4.30839
G1 X130.763 Y80.108 E4.33431
G1 X130.925 Y79.758 E4.3464
G1 X131.395 Y79.288 E4.36724
G1 X131.713 Y79.059 E4.37953
G1 X132.464 Y78.856 E4.40392
G1 X132.584 Y79.215 F9000
G1 F3000
G1 X132.646 Y79.198 E4.40594
G1 X133.315 Y79.379 E4.42767
G1 X133.574 Y79.499 E4.43662
G1 X133.975 Y79.9 E4.4544
G1 X134.146 Y80.138 E4.46359
G1 X134.354 Y80.906 E4.48854
G1 X134.173 Y81.575 E4.51027
G1 X134.053 Y81.835 E4.51925
G1 X133.651 Y82.236 E4.53705
G1 X133.413 Y82.407 E4.54624
G1 X132.646 Y82.614 E4.57115
G1 X131.986 Y82.436 E4.59258
G1 X131.725 Y82.32 E4.60154
G1 X131.324 Y81.919 E4.61932
G1 X131.148 Y81.684 E4.62853
G1 X130.938 Y80.906 E4.6538
G1 X131.118 Y80.237 E4.67552
G1 X131.239 Y79.978 E4.68448
G1 X131.64 Y79.577 E4.70226
G1 X131.878 Y79.405 E4.71147
