; generated by PrusaSlicer 2.6.0-alpha6+linux-x64-GTK3 on 2023-04-15 at 20:59:47 UTC


;
;

;
;
; 

; external perimeters extrusion width = 0.45mm
; perimeters extrusion width = 0.45mm
; infill extrusion width = 0.45mm
; solid infill extrusion width = 0.45mm
; top infill extrusion width = 0.40mm
; first layer extrusion width = 0.42mm

M73 P0 R78
;TYPE:Custom
G90 ; use absolute coordinates
M82 ; extruder absolute mode

M204 S1250 T1250
M104 S210 ; set extruder temp
M140 S60 ; set bed temp
G28 ; home all

G1 Y1.0 Z0.3 F1000 ; move print head up

M190 S60 ; wait for bed temp
M109 S210 ; wait for extruder temp
G92 E0.0

; initial load
G1 X205.0 E19 F1000
G1 Y1.6
M73 P0 R77
G1 X5.0 E19 F1000
G92 E0.0

; intro line
G1 Y2.0 Z0.2 F1000
G1 X65.0 E9.0 F1000
G1 X105.0 E12.5 F1000
G92 E0.0
G21 ; set units to millimeters
G90 ; use absolute coordinates
M82 ; use absolute distances for extrusion
G92 E0
; Filament gcode
M107
;LAYER_CHANGE
;Z:0.2
;HEIGHT:0.2
;BEFORE_LAYER_CHANGE
; G92 E0.0
;0.2
G1 E-4 F1800
G92 E0
G1 Z.075 F9000
G1 Z.2
;AFTER_LAYER_CHANGE
;0.2
G1 Z.275
G1 X55.618 Y60.343
G1 Z.2
G1 E4 F1800
;TYPE:Skirt/Brim
;WIDTH:0.42
G1 X57.97 Y58.967 E4.08544
G1 X58.964 Y58.689 E4.1178
G1 X77.805 Y56.021 E4.71444
G1 X96.806 Y53.771 E5.31437
G1 X114.107 Y53.775 E5.85683
G1 X170.111 Y60.776 E7.62646
G1 X171.502 Y61.143 E7.67157
G1 X172.916 Y61.729 E7.71956
G1 X174.636 Y62.871 E7.78429
G1 X175.826 Y64.639 E7.85111
G1 X176.412 Y66.053 E7.8991
G1 X176.821 Y68.111 E7.96489
G1 X176.821 Y120.365 E9.60328
G1 X176.638 Y121.757 E9.6473
G1 X176.37 Y122.757 E9.67976
G1 X174.978 Y125.167 E9.76702
G1 X174.246 Y125.899 E9.79948
G1 X171.836 Y127.291 E9.88674
G1 X170.721 Y127.588 E9.92292
G1 X54.053 Y156.113 E13.68871
G1 X51.376 Y156.081 E13.77265
G1 X50.376 Y155.811 E13.80513
G1 X47.967 Y154.415 E13.89243
G1 X47.252 Y153.697 E13.9242
G1 X46.427 Y152.63 E13.96649
G1 X34.091 Y131.175 E14.74247
G1 X33.422 Y129.191 E14.80812
G1 X33.224 Y127.676 E14.85603
G1 X33.441 Y125.322 E14.93015
G1 X53.589 Y63.202 E16.97776
G1 X54.902 Y61.059 E17.05656
G1 X55.575 Y60.385 E17.08642
; printing object cherryplate(1).stl id:0 copy 0
G1 E14.68642
;WIPE_START
G1 F7200
G1 X57.97 Y58.967 E14.02539
G1 X58.964 Y58.689 E13.78026
G1 X61.857 Y58.279 E13.08642
;WIPE_END
G92 E0
G1 Z.275 F9000
G1 X97.43 Y114.118
G1 Z.2
G1 E4 F1800
;TYPE:Perimeter
G1 X97.43 Y98.09 E4.50255
G1 X113.458 Y98.09 E5.0051
M73 P1 R77
G1 X113.458 Y114.118 E5.50765
G1 X97.49 Y114.118 E6.00832
G1 X97.807 Y113.741 F9000
G1 F1800
G1 X97.807 Y98.467 E6.48723
G1 X113.081 Y98.467 E6.96614
G1 X113.081 Y113.741 E7.44505
G1 X97.867 Y113.741 E7.92207
G1 X98.184 Y113.364 F9000
;TYPE:External perimeter
G1 F1800
G1 X98.184 Y98.844 E8.37733
G1 X112.704 Y98.844 E8.83259
G1 X112.704 Y113.364 E9.28785
G1 X98.244 Y113.364 E9.74123
G1 X97.798 Y113.468 F9000
G1 E7.34123 F1800
;WIPE_START
G1 F7200
G1 X98.216 Y106.627 E5.74123
;WIPE_END
G92 E0
G1 Z.275 F9000
G1 X97.43 Y95.117
G1 Z.2
G1 E4 F1800
;TYPE:Perimeter
G1 X97.43 Y79.089 E4.50255
G1 X113.458 Y79.089 E5.0051
G1 X113.458 Y95.117 E5.50765
G1 X97.49 Y95.117 E6.00832
G1 X97.807 Y94.74 F9000
G1 F1800
G1 X97.807 Y79.466 E6.48723
G1 X113.081 Y79.466 E6.96614
G1 X113.081 Y94.74 E7.44505
G1 X97.867 Y94.74 E7.92207
G1 X98.184 Y94.363 F9000
;TYPE:External perimeter
G1 F1800
G1 X98.184 Y79.843 E8.37733
G1 X112.704 Y79.843 E8.83259
G1 X112.704 Y94.363 E9.28785
G1 X98.244 Y94.363 E9.74123
G1 X97.798 Y94.466 F9000
G1 E7.34123 F1800
;WIPE_START
G1 F7200
G1 X98.216 Y87.626 E5.74123
;WIPE_END
G92 E0
G1 Z.275 F9000
G1 X116.431 Y97.492
G1 Z.2
G1 E4 F1800
;TYPE:Perimeter
G1 X116.431 Y81.464 E4.50255
G1 X132.46 Y81.464 E5.00513
G1 X132.46 Y97.492 E5.50768
G1 X116.491 Y97.492 E6.00838
G1 X116.809 Y97.115 F9000
G1 F1800
G1 X116.809 Y81.841 E6.48729
G1 X132.083 Y81.841 E6.9662
G1 X132.083 Y97.115 E7.44511
G1 X116.869 Y97.115 E7.92213
G1 X117.186 Y96.738 F9000
;TYPE:External perimeter
G1 F1800
G1 X117.186 Y82.218 E8.37739
G1 X131.706 Y82.218 E8.83265
G1 X131.706 Y96.738 E9.28791
G1 X117.246 Y96.738 E9.74129
G1 X116.799 Y96.842 F9000
G1 E7.34129 F1800
;WIPE_START
G1 F7200
G1 X117.218 Y90.001 E5.74129
;WIPE_END
G92 E0
G1 Z.275 F9000
G1 X116.431 Y101.219
G1 Z.2
G1 E4 F1800
;TYPE:Perimeter
G1 X116.431 Y100.465 E4.02364
G1 X132.46 Y100.465 E4.52622
G1 X132.46 Y116.494 E5.0288
G1 X116.431 Y116.494 E5.53138
G1 X116.431 Y101.279 E6.00844
M73 P1 R76
G1 X116.809 Y101.219 F9000
G1 F1800
G1 X116.809 Y100.842 E6.02026
G1 X132.083 Y100.842 E6.49917
G1 X132.083 Y116.116 E6.97808
G1 X116.809 Y116.116 E7.45699
G1 X116.809 Y101.279 E7.92219
G1 X117.186 Y101.219 F9000
;TYPE:External perimeter
G1 F1800
G1 X131.706 Y101.219 E8.37745
G1 X131.706 Y115.739 E8.83271
G1 X117.186 Y115.739 E9.28797
G1 X117.186 Y101.279 E9.74135
G1 X117.082 Y100.833 F9000
G1 E7.34135 F1800
;WIPE_START
G1 F7200
G1 X123.923 Y101.251 E5.74135
;WIPE_END
G92 E0
G1 Z.275 F9000
G1 X110.063 Y117.409
G1 Z.2
G1 E4 F1800
;TYPE:Perimeter
G1 X110.195 Y117.39 E4.00418
G1 X111.992 Y118.21 E4.06611
G1 X113.059 Y119.872 E4.12804
G1 X113.059 Y121.847 E4.18996
G1 X112.884 Y122.12 E4.20013
G1 X111.992 Y123.508 E4.25186
G1 X110.195 Y124.329 E4.31381
G1 X108.24 Y124.048 E4.37574
G1 X106.748 Y122.754 E4.43766
G1 X106.191 Y120.859 E4.49959
G1 X106.748 Y118.964 E4.56152
G1 X108.24 Y117.671 E4.62342
G1 X110.004 Y117.418 E4.67929
G1 X110.073 Y117.788 F9000
G1 F1800
G1 X110.139 Y117.779 E4.68138
G1 X111.734 Y118.507 E4.73635
G1 X112.682 Y119.983 E4.79135
G1 X112.682 Y121.736 E4.84631
G1 X112.567 Y121.916 E4.85301
G1 X111.734 Y123.211 E4.90129
G1 X110.139 Y123.94 E4.95628
G1 X108.403 Y123.69 E5.01127
G1 X107.078 Y122.542 E5.06624
G1 X106.584 Y120.859 E5.12124
G1 X107.078 Y119.177 E5.17621
G1 X108.403 Y118.029 E5.23118
G1 X110.014 Y117.797 E5.28221
G1 X110.083 Y118.168 F9000
;TYPE:External perimeter
G1 F1800
G1 X111.477 Y118.804 E5.33025
G1 X112.305 Y120.093 E5.37829
G1 X112.305 Y121.626 E5.42636
G1 X112.25 Y121.712 E5.42956
G1 X111.477 Y122.914 E5.47437
G1 X110.083 Y123.551 E5.52243
G1 X108.567 Y123.333 E5.57045
G1 X107.409 Y122.33 E5.61848
G1 X106.977 Y120.859 E5.66655
G1 X107.409 Y119.389 E5.71459
G1 X108.567 Y118.386 E5.76262
G1 X110.024 Y118.177 E5.80877
G1 X110.331 Y117.854 F9000
G1 E3.40877 F1800
;WIPE_START
G1 F7200
G1 X111.477 Y118.804 E3.03292
G1 X112.305 Y120.093 E2.66906
G1 X112.305 Y121.626 E2.30497
G1 X112.25 Y121.712 E2.28073
G1 X111.477 Y122.914 E1.94132
G1 X110.969 Y123.146 E1.80877
;WIPE_END
G92 E0
G1 Z.275 F9000
G1 X103.958 Y120.092
G1 Z.2
G1 E4 F1800
;TYPE:Perimeter
G1 X103.958 Y136.12 E4.50255
G1 X87.929 Y136.12 E5.00513
G1 X87.929 Y120.092 E5.50768
G1 X103.898 Y120.092 E6.00838
G1 X103.581 Y120.469 F9000
G1 F1800
G1 X103.581 Y135.743 E6.48729
G1 X88.307 Y135.743 E6.9662
G1 X88.307 Y120.469 E7.44511
G1 X103.521 Y120.469 E7.92213
G1 X103.204 Y120.846 F9000
;TYPE:External perimeter
G1 F1800
G1 X103.204 Y135.366 E8.37739
G1 X88.684 Y135.366 E8.83265
G1 X88.684 Y120.846 E9.28791
G1 X103.144 Y120.846 E9.74129
G1 X103.59 Y120.742 F9000
G1 E7.34129 F1800
;WIPE_START
G1 F7200
G1 X103.172 Y127.583 E5.74129
;WIPE_END
G92 E0
G1 Z.275 F9000
G1 X80.611 Y121.047
G1 Z.2
G1 E4 F1800
;TYPE:Perimeter
G1 X84.744 Y136.534 E4.50258
G1 X69.257 Y140.666 E5.00515
G1 X66.374 Y129.859 E5.35585
G1 X65.471 Y131.263 E5.40819
G1 X63.675 Y132.084 E5.47011
G1 X61.72 Y131.802 E5.53204
G1 X60.228 Y130.509 E5.59394
G1 X59.671 Y128.614 E5.65587
G1 X60.228 Y126.719 E5.7178
G1 X61.72 Y125.426 E5.7797
G1 X63.675 Y125.145 E5.84163
G1 X65.315 Y125.894 E5.89816
G1 X65.125 Y125.18 E5.92133
G1 X80.553 Y121.063 E6.42199
G1 X80.344 Y121.509 F9000
G1 F1800
G1 X84.282 Y136.267 E6.90091
G1 X69.525 Y140.205 E7.3798
G1 X65.586 Y125.447 E7.85873
G1 X80.286 Y121.524 E8.33577
G1 X80.077 Y121.97 F9000
;TYPE:External perimeter
G1 F1800
G1 X83.821 Y135.999 E8.79103
G1 X69.792 Y139.743 E9.24629
G1 X66.048 Y125.714 E9.70155
G1 X80.019 Y121.986 E10.15493
G1 X80.424 Y121.771 F9000
G1 E7.75493 F1800
;WIPE_START
G1 F7200
G1 X81.783 Y128.488 E6.15493
;WIPE_END
G92 E0
G1 Z.275 F9000
G1 X66.126 Y127.681
G1 Z.2
G1 E4 F1800
;TYPE:Perimeter
G1 X66.162 Y127.737 E4.00209
G1 X66.162 Y129.491 E4.05709
G1 X65.214 Y130.966 E4.11207
G1 X63.619 Y131.695 E4.16706
G1 X61.883 Y131.445 E4.22205
G1 X60.558 Y130.297 E4.27702
G1 X60.064 Y128.614 E4.33202
G1 X60.558 Y126.932 E4.38699
G1 X61.883 Y125.783 E4.44198
G1 X63.619 Y125.534 E4.49697
G1 X65.214 Y126.262 E4.55194
G1 X66.094 Y127.631 E4.60297
G1 X65.785 Y127.848 F9000
;TYPE:External perimeter
G1 F1800
G1 X65.785 Y129.38 E4.651
G1 X64.957 Y130.669 E4.69904
G1 X63.563 Y131.306 E4.7471
G1 X62.047 Y131.087 E4.79513
G1 X60.889 Y130.084 E4.84316
G1 X60.457 Y128.614 E4.8912
G1 X60.889 Y127.144 E4.93924
G1 X62.047 Y126.141 E4.98727
G1 X63.563 Y125.923 E5.03529
G1 X64.957 Y126.559 E5.08333
G1 X65.753 Y127.798 E5.1295
G1 X66.174 Y127.942 F9000
G1 E2.7295 F1800
;WIPE_START
G1 F7200
G1 X65.785 Y129.38 E2.3537
G1 X64.957 Y130.669 E1.98984
G1 X63.563 Y131.306 E1.62584
G1 X62.047 Y131.087 E1.26205
G1 X61.625 Y130.722 E1.1295
;WIPE_END
G92 E0
G1 Z.275 F9000
G1 X78.429 Y116.494
G1 Z.2
M73 P2 R76
G1 E4 F1800
;TYPE:Perimeter
G1 X78.429 Y100.465 E4.50258
G1 X94.457 Y100.465 E5.00513
G1 X94.457 Y116.494 E5.50771
G1 X78.489 Y116.494 E6.00838
G1 X78.806 Y116.116 F9000
G1 F1800
G1 X78.806 Y100.842 E6.48729
G1 X94.08 Y100.842 E6.9662
G1 X94.08 Y116.116 E7.44511
G1 X78.866 Y116.116 E7.92213
G1 X79.183 Y115.739 F9000
;TYPE:External perimeter
G1 F1800
G1 X79.183 Y101.219 E8.37739
G1 X93.703 Y101.219 E8.83265
G1 X93.703 Y115.739 E9.28791
G1 X79.243 Y115.739 E9.74129
G1 X78.797 Y115.843 F9000
G1 E7.34129 F1800
;WIPE_START
G1 F7200
G1 X79.215 Y109.002 E5.74129
;WIPE_END
G92 E0
G1 Z.275 F9000
G1 X75.456 Y118.869
G1 Z.2
G1 E4 F1800
;TYPE:Perimeter
G1 X59.427 Y118.869 E4.50258
G1 X59.427 Y102.84 E5.00516
G1 X75.456 Y102.84 E5.50774
G1 X75.456 Y118.809 E6.00844
G1 X75.079 Y118.492 F9000
G1 F1800
G1 X59.805 Y118.492 E6.48735
G1 X59.805 Y103.218 E6.96626
G1 X75.079 Y103.218 E7.44517
G1 X75.079 Y118.432 E7.92219
G1 X74.702 Y118.115 F9000
;TYPE:External perimeter
G1 F1800
G1 X60.182 Y118.115 E8.37745
G1 X60.182 Y103.595 E8.83271
G1 X74.702 Y103.595 E9.28797
G1 X74.702 Y118.055 E9.74135
G1 X74.805 Y118.501 F9000
G1 E7.34135 F1800
;WIPE_START
G1 F7200
G1 X67.965 Y118.083 E5.74135
;WIPE_END
G92 E0
G1 Z.275 F9000
G1 X63.632 Y137.541
G1 Z.2
G1 E4 F1800
;TYPE:Perimeter
G1 X49.745 Y145.546 E4.50258
G1 X41.74 Y131.659 E5.00516
G1 X55.627 Y123.655 E5.50772
G1 X63.602 Y137.489 E6.00839
G1 X63.117 Y137.403 F9000
G1 F1800
G1 X49.883 Y145.031 E6.48733
G1 X42.255 Y131.798 E6.96624
G1 X55.488 Y124.17 E7.44515
G1 X63.087 Y137.351 E7.92219
G1 X62.602 Y137.264 F9000
;TYPE:External perimeter
G1 F1800
G1 X50.022 Y144.516 E8.37747
G1 X42.77 Y131.936 E8.83275
G1 X55.35 Y124.685 E9.28802
G1 X62.572 Y137.212 E9.74139
G1 X62.884 Y137.547 F9000
G1 E7.34139 F1800
;WIPE_START
G1 F7200
G1 X56.749 Y140.601 E5.74139
;WIPE_END
G92 E0
G1 Z.275 F9000
G1 X113.458 Y60.27
G1 Z.2
G1 E4 F1800
;TYPE:Perimeter
G1 X113.476 Y60.31 E4.00138
G1 X113.476 Y60.488 E4.00696
G1 X113.709 Y61.36 E4.03526
G1 X114.441 Y62.091 E4.0677
G1 X115.313 Y62.325 E4.09601
G1 X131.314 Y62.325 E4.59771
G1 X131.828 Y62.463 E4.6144
G1 X116.431 Y62.463 E5.09716
G1 X116.431 Y78.491 E5.59971
G1 X132.46 Y78.491 E6.10229
G1 X132.46 Y63.423 E6.57474
G1 X132.477 Y63.488 E6.57685
G1 X132.477 Y64.238 E6.60037
G1 X132.845 Y65.61 E6.64491
G1 X133.942 Y66.708 E6.69357
G1 X135.314 Y67.075 E6.7381
G1 X169.252 Y67.075 E7.8022
G1 X169.584 Y67.213 E7.81347
G1 X154.435 Y67.213 E8.28846
G1 X154.435 Y81.72 E8.74332
G1 X153.439 Y81.265 E8.77765
G1 X151.484 Y81.546 E8.83958
G1 X151.461 Y81.566 E8.84054
G1 X151.461 Y67.213 E9.29057
G1 X135.433 Y67.213 E9.79312
G1 X135.433 Y83.241 E10.29567
G1 X149.873 Y83.241 E10.74843
G1 X149.435 Y84.735 E10.79724
G1 X149.869 Y86.214 E10.84557
G1 X135.433 Y86.214 E11.2982
G1 X135.433 Y102.243 E11.80078
G1 X149.886 Y102.243 E12.25394
G1 X149.444 Y103.75 E12.30318
G1 X149.874 Y105.216 E12.35108
G1 X135.433 Y105.216 E12.80387
G1 X135.433 Y121.244 E13.30642
G1 X151.461 Y121.244 E13.80897
G1 X151.461 Y106.911 E14.25837
G1 X151.493 Y106.938 E14.25968
G1 X153.447 Y107.219 E14.32158
G1 X154.435 Y106.768 E14.35563
G1 X154.435 Y121.244 E14.80951
G1 X169.903 Y121.244 E15.2945
G1 X169.317 Y121.401 E15.31352
G1 X116.596 Y121.401 E16.96655
G1 X115.354 Y121.698 E17.00659
M73 P2 R75
G1 X114.382 Y122.526 E17.04663
G1 X104.73 Y135.754 E17.56006
G1 X104.363 Y136.091 E17.57568
G1 X103.894 Y136.26 E17.59131
G1 X67.875 Y141.614 E18.73307
G1 X67.38 Y141.736 E18.74905
G1 X66.916 Y141.948 E18.76504
G1 X53.406 Y149.724 E19.25379
G1 X52.778 Y149.891 E19.27416
G1 X52.277 Y149.756 E19.29043
G1 X51.818 Y149.295 E19.31083
G1 X39.685 Y128.182 E20.07434
G1 X39.564 Y127.251 E20.10378
G1 X40.135 Y126.507 E20.13319
G1 X58.031 Y116.153 E20.78145
G1 X59.034 Y115.149 E20.82595
G1 X59.401 Y113.778 E20.87045
G1 X59.4 Y65.988 E22.36887
G1 X59.427 Y65.886 E22.37218
G1 X59.427 Y80.866 E22.84187
G1 X73.485 Y80.866 E23.28265
G1 X73.413 Y81.112 E23.29069
G1 X73.969 Y83.007 E23.35261
G1 X74.929 Y83.839 E23.39244
G1 X59.427 Y83.839 E23.87849
G1 X59.427 Y99.867 E24.38104
G1 X75.456 Y99.867 E24.88362
G1 X75.456 Y84.295 E25.37187
G1 X77.417 Y84.582 E25.43401
G1 X78.429 Y84.119 E25.4689
G1 X78.429 Y97.492 E25.8882
G1 X94.457 Y97.492 E26.39075
G1 X94.457 Y81.464 E26.8933
G1 X80.281 Y81.464 E27.33778
G1 X80.281 Y80.125 E27.37976
M73 P3 R75
G1 X79.231 Y78.491 E27.44066
G1 X94.457 Y78.491 E27.91806
G1 X94.457 Y62.463 E28.42061
G1 X78.429 Y62.463 E28.92316
G1 X78.429 Y78.105 E29.4136
G1 X77.417 Y77.643 E29.44848
G1 X75.456 Y77.929 E29.51062
G1 X75.456 Y64.838 E29.92108
G1 X60.516 Y64.838 E30.38951
G1 X76.564 Y64.825 E30.89268
G1 X77.436 Y64.591 E30.92099
G1 X78.168 Y63.86 E30.95343
G1 X78.401 Y62.988 E30.98173
G1 X78.401 Y62.488 E30.99741
G1 X78.436 Y62.36 E31.00157
G1 X78.564 Y62.325 E31.00573
G1 X95.63 Y62.325 E31.54082
G1 X96.884 Y61.806 E31.58337
G1 X97.403 Y60.553 E31.62589
G1 X97.403 Y60.238 E31.63577
G1 X97.43 Y60.135 E31.63911
G1 X97.43 Y76.116 E32.14018
G1 X113.458 Y76.116 E32.64273
G1 X113.458 Y60.33 E33.13769
G1 X113.081 Y60.464 F9000
G1 F1800
G1 X113.081 Y75.739 E33.61663
G1 X97.807 Y75.739 E34.09554
G1 X97.807 Y60.464 E34.57448
G1 X113.021 Y60.464 E35.0515
G1 X112.704 Y60.842 F9000
;TYPE:External perimeter
G1 F1800
G1 X112.704 Y75.362 E35.50676
G1 X98.184 Y75.362 E35.96202
G1 X98.184 Y60.842 E36.41728
G1 X112.644 Y60.842 E36.87066
G1 X113.091 Y60.738 F9000
G1 X113.278 Y60.087
;TYPE:Perimeter
G1 F1800
G1 X97.519 Y60.087 E37.36477
G1 X113.221 Y60.075 E37.8571
G1 E35.4571
;WIPE_START
G1 F7200
G1 X106.484 Y60.08 E33.8571
;WIPE_END
G92 E0
G1 Z.275 F9000
G1 X116.809 Y63.217
G1 Z.2
G1 E4 F1800
G1 X116.809 Y62.84 E4.01182
G1 X132.083 Y62.84 E4.49073
G1 X132.083 Y78.114 E4.96964
G1 X116.809 Y78.114 E5.44855
G1 X116.809 Y63.277 E5.91375
G1 X117.186 Y63.217 F9000
;TYPE:External perimeter
G1 F1800
G1 X131.706 Y63.217 E6.36901
G1 X131.706 Y77.737 E6.82427
G1 X117.186 Y77.737 E7.27953
G1 X117.186 Y63.277 E7.73291
G1 X117.082 Y62.83 F9000
G1 E5.33291 F1800
;WIPE_START
G1 F7200
G1 X123.923 Y63.249 E3.73291
;WIPE_END
G92 E0
G1 Z.275 F9000
G1 X135.81 Y82.864
G1 Z.2
G1 E4 F1800
;TYPE:Perimeter
G1 X135.81 Y67.59 E4.47891
G1 X151.084 Y67.59 E4.95782
G1 X151.084 Y82.391 E5.42189
G1 X151.647 Y81.904 E5.44523
G1 X153.383 Y81.654 E5.50022
G1 X154.812 Y82.307 E5.54948
G1 X154.812 Y67.59 E6.01092
G1 X170.086 Y67.59 E6.48983
G1 X170.086 Y82.864 E6.96874
G1 X155.287 Y82.864 E7.43275
G1 X155.926 Y83.858 E7.4698
G1 X155.926 Y85.611 E7.52476
G1 X155.296 Y86.591 E7.56129
G1 X170.086 Y86.591 E8.02502
G1 X170.086 Y101.865 E8.50393
G1 X155.287 Y101.865 E8.96794
G1 X155.935 Y102.873 E9.00551
G1 X155.935 Y104.627 E9.06051
G1 X155.314 Y105.593 E9.09652
G1 X170.086 Y105.593 E9.55969
G1 X170.086 Y120.867 E10.0386
G1 X154.812 Y120.867 E10.51751
G1 X154.812 Y106.181 E10.97798
G1 X153.391 Y106.83 E11.02696
G1 X151.656 Y106.581 E11.08192
G1 X151.084 Y106.085 E11.10566
G1 X151.084 Y120.867 E11.56914
G1 X135.81 Y120.867 E12.04805
G1 X135.81 Y105.593 E12.52696
G1 X150.516 Y105.593 E12.98806
G1 X150.331 Y105.432 E12.99575
