; generated by PrusaSlicer 2.6.0-alpha6+linux-x64-GTK3 on 2023-04-16 at 00:21:13 UTC


;
;

;
;
; 

; external perimeters extrusion width = 0.45mm
; perimeters extrusion width = 0.45mm
; infill extrusion width = 0.45mm
; solid infill extrusion width = 0.45mm
; top infill extrusion width = 0.40mm
; first layer extrusion width = 0.42mm

M73 P0 R77
;TYPE:Custom
G90 ; use absolute coordinates
M82 ; extruder absolute mode

M204 S1250 T1250
M104 S210 ; set extruder temp
M140 S60 ; set bed temp
G28 ; home all

G1 Y1.0 Z0.3 F1000 ; move print head up

M190 S60 ; wait for bed temp
M109 S210 ; wait for extruder temp
G92 E0.0

; initial load
G1 X205.0 E19 F1000
G1 Y1.6
G1 X5.0 E19 F1000
G92 E0.0

; intro line
G1 Y2.0 Z0.2 F1000
M73 P0 R76
G1 X65.0 E9.0 F1000
G1 X105.0 E12.5 F1000
G92 E0.0
G21 ; set units to millimeters
G90 ; use absolute coordinates
M82 ; use absolute distances for extrusion
G92 E0
; Filament gcode
M107
;LAYER_CHANGE
;Z:0.2
;HEIGHT:0.2
;BEFORE_LAYER_CHANGE
; G92 E0.0
;0.2
G1 E-4 F1800
G92 E0
G1 Z.075 F9000
G1 Z.2
;AFTER_LAYER_CHANGE
;0.2
G1 Z.275
G1 X37.084 Y61.729
G1 Z.2
G1 E4 F1800
;TYPE:Skirt/Brim
;WIDTH:0.42
G1 X38.498 Y61.143 E4.04799
G1 X39.889 Y60.776 E4.0931
G1 X95.893 Y53.775 E5.86273
G1 X113.194 Y53.771 E6.40519
G1 X132.302 Y56.035 E7.0085
G1 X150.956 Y58.667 E7.59918
G1 X151.956 Y58.935 E7.63164
G1 X154.366 Y60.327 E7.7189
G1 X155.098 Y61.059 E7.75136
G1 X156.411 Y63.202 E7.83016
G1 X176.559 Y125.322 E9.87777
G1 X176.776 Y127.676 E9.95189
G1 X176.578 Y129.191 E9.9998
G1 X175.909 Y131.175 E10.06545
G1 X163.617 Y152.565 E10.83897
G1 X162.764 Y153.681 E10.88301
G1 X162.033 Y154.415 E10.91549
G1 X159.624 Y155.811 E11.00279
G1 X158.624 Y156.081 E11.03527
G1 X155.947 Y156.113 E11.11921
G1 X39.164 Y127.559 E14.88872
G1 X38.164 Y127.291 E14.92118
G1 X35.754 Y125.899 E15.00844
G1 X35.022 Y125.167 E15.0409
G1 X33.63 Y122.757 E15.12816
G1 X33.362 Y121.757 E15.16062
G1 X33.179 Y120.365 E15.20464
G1 X33.179 Y68.111 E16.84303
G1 X33.588 Y66.054 E16.90879
G1 X34.174 Y64.639 E16.95681
G1 X35.316 Y62.919 E17.02154
G1 X37.034 Y61.763 E17.08647
; printing object cherryplate(1).stl id:0 copy 0
G1 E14.68647
;WIPE_START
G1 F7200
G1 X38.498 Y61.143 E14.30888
G1 X39.889 Y60.776 E13.96721
G1 X43.569 Y60.316 E13.08647
;WIPE_END
G92 E0
G1 Z.275 F9000
G1 X134.921 Y84.593
G1 Z.2
M73 P1 R76
G1 E4 F1800
;TYPE:Perimeter
G1 X134.921 Y84.216 E4.01182
G1 X150.195 Y84.216 E4.49073
G1 X150.195 Y99.49 E4.96964
G1 X134.921 Y99.49 E5.44855
G1 X134.921 Y84.653 E5.91375
G1 X135.298 Y84.593 F9000
;TYPE:External perimeter
G1 F1800
G1 X149.818 Y84.593 E6.36901
G1 X149.818 Y99.113 E6.82427
G1 X135.298 Y99.113 E7.27953
G1 X135.298 Y84.653 E7.73291
G1 X135.195 Y84.207 F9000
G1 E5.33291 F1800
;WIPE_START
G1 F7200
G1 X142.035 Y84.625 E3.73291
;WIPE_END
G92 E0
G1 Z.275 F9000
G1 X136.011 Y80.489
G1 Z.2
G1 E4 F1800
;TYPE:Perimeter
G1 X136.194 Y81.112 E4.02036
G1 X135.7 Y82.795 E4.07536
G1 X134.375 Y83.943 E4.13033
G1 X132.639 Y84.193 E4.18532
G1 X131.194 Y83.533 E4.23513
G1 X131.194 Y97.115 E4.66098
G1 X115.92 Y97.115 E5.13989
G1 X115.92 Y81.841 E5.6188
G1 X130.096 Y81.841 E6.06328
G1 X130.096 Y80.235 E6.11364
G1 X131.044 Y78.76 E6.16862
G1 X132.639 Y78.032 E6.22359
G1 X134.375 Y78.281 E6.27858
G1 X134.921 Y78.754 E6.30123
G1 X134.921 Y65.215 E6.72574
G1 X150.195 Y65.215 E7.20465
G1 X150.195 Y80.489 E7.68356
G1 X136.071 Y80.489 E8.12641
G1 X135.508 Y80.112 F9000
;TYPE:External perimeter
G1 F1800
G1 X135.801 Y81.112 E8.15908
G1 X135.37 Y82.582 E8.20711
G1 X134.212 Y83.585 E8.25514
G1 X132.695 Y83.804 E8.3032
G1 X131.302 Y83.167 E8.35123
G1 X130.817 Y82.413 E8.37934
G1 X130.817 Y96.738 E8.82849
G1 X116.297 Y96.738 E9.28375
G1 X116.297 Y82.218 E9.73901
G1 X130.692 Y82.218 E10.19036
G1 X130.473 Y81.878 E10.20304
G1 X130.473 Y80.346 E10.25107
G1 X131.302 Y79.057 E10.29912
G1 X132.695 Y78.421 E10.34713
G1 X134.212 Y78.639 E10.39518
G1 X135.298 Y79.58 E10.44024
G1 X135.298 Y65.592 E10.87882
G1 X149.818 Y65.592 E11.33408
G1 X149.818 Y80.112 E11.78934
G1 X135.568 Y80.112 E12.23614
G1 X135.84 Y80.335 F9000
G1 E9.83614 F1800
;WIPE_START
G1 F7200
G1 X135.801 Y81.112 E9.59228
G1 X135.37 Y82.582 E9.22846
G1 X134.212 Y83.585 E8.86461
G1 X132.695 Y83.804 E8.50059
G1 X131.682 Y83.341 E8.23614
;WIPE_END
G92 E0
G1 Z.275 F9000
G1 X131.194 Y78.114
G1 Z.2
G1 E4 F1800
;TYPE:Perimeter
G1 X115.92 Y78.114 E4.47891
G1 X115.92 Y62.84 E4.95782
G1 X131.194 Y62.84 E5.43673
G1 X131.194 Y78.054 E5.91375
G1 X130.817 Y77.737 F9000
;TYPE:External perimeter
G1 F1800
G1 X116.297 Y77.737 E6.36901
G1 X116.297 Y63.217 E6.82427
G1 X130.817 Y63.217 E7.27953
G1 X130.817 Y77.677 E7.73291
G1 X130.921 Y78.123 F9000
G1 E5.33291 F1800
;WIPE_START
G1 F7200
G1 X124.08 Y77.705 E3.73291
;WIPE_END
G92 E0
G1 Z.275 F9000
G1 X112.57 Y98.09
G1 Z.2
G1 E4 F1800
;TYPE:Perimeter
G1 X112.57 Y114.118 E4.50255
G1 X96.542 Y114.118 E5.0051
G1 X96.542 Y98.09 E5.50765
G1 X112.51 Y98.09 E6.00832
G1 X112.193 Y98.467 F9000
G1 F1800
G1 X112.193 Y113.741 E6.48723
G1 X96.919 Y113.741 E6.96614
G1 X96.919 Y98.467 E7.44505
G1 X112.133 Y98.467 E7.92207
G1 X111.816 Y98.844 F9000
;TYPE:External perimeter
G1 F1800
G1 X111.816 Y113.364 E8.37733
G1 X97.296 Y113.364 E8.83259
G1 X97.296 Y98.844 E9.28785
G1 X111.756 Y98.844 E9.74123
G1 X112.202 Y98.741 F9000
G1 E7.34123 F1800
;WIPE_START
G1 F7200
G1 X111.784 Y105.581 E5.74123
;WIPE_END
G92 E0
G1 Z.275 F9000
G1 X112.57 Y95.117
G1 Z.2
G1 E4 F1800
;TYPE:Perimeter
G1 X96.542 Y95.117 E4.50255
G1 X96.542 Y79.089 E5.0051
G1 X112.57 Y79.089 E5.50765
G1 X112.57 Y95.057 E6.00832
G1 X112.193 Y94.74 F9000
G1 F1800
G1 X96.919 Y94.74 E6.48723
G1 X96.919 Y79.466 E6.96614
G1 X112.193 Y79.466 E7.44505
G1 X112.193 Y94.68 E7.92207
G1 X111.816 Y94.363 F9000
;TYPE:External perimeter
G1 F1800
G1 X97.296 Y94.363 E8.37733
G1 X97.296 Y79.843 E8.83259
G1 X111.816 Y79.843 E9.28785
G1 X111.816 Y94.303 E9.74123
G1 X111.919 Y94.749 F9000
G1 E7.34123 F1800
;WIPE_START
G1 F7200
G1 X105.079 Y94.331 E5.74123
;WIPE_END
G92 E0
G1 Z.275 F9000
G1 X93.569 Y97.492
G1 Z.2
G1 E4 F1800
;TYPE:Perimeter
G1 X77.54 Y97.492 E4.50258
G1 X77.54 Y81.464 E5.00513
G1 X93.569 Y81.464 E5.50771
G1 X93.569 Y97.432 E6.00838
G1 X93.191 Y97.115 F9000
G1 F1800
G1 X77.917 Y97.115 E6.48729
G1 X77.917 Y81.841 E6.9662
G1 X93.191 Y81.841 E7.44511
G1 X93.191 Y97.055 E7.92213
M73 P1 R75
G1 X92.814 Y96.738 F9000
;TYPE:External perimeter
G1 F1800
G1 X78.294 Y96.738 E8.37739
G1 X78.294 Y82.218 E8.83265
G1 X92.814 Y82.218 E9.28791
G1 X92.814 Y96.678 E9.74129
G1 X92.918 Y97.124 F9000
G1 E7.34129 F1800
;WIPE_START
G1 F7200
G1 X86.077 Y96.706 E5.74129
;WIPE_END
G92 E0
G1 Z.275 F9000
G1 X93.569 Y100.465
G1 Z.2
G1 E4 F1800
;TYPE:Perimeter
G1 X93.569 Y116.494 E4.50258
G1 X77.54 Y116.494 E5.00516
G1 X77.54 Y100.465 E5.50774
G1 X93.509 Y100.465 E6.00844
G1 X93.191 Y100.842 F9000
G1 F1800
G1 X93.191 Y116.116 E6.48735
G1 X77.917 Y116.116 E6.96626
G1 X77.917 Y100.842 E7.44517
G1 X93.131 Y100.842 E7.92219
G1 X92.814 Y101.219 F9000
;TYPE:External perimeter
G1 F1800
G1 X92.814 Y115.739 E8.37745
G1 X78.294 Y115.739 E8.83271
G1 X78.294 Y101.219 E9.28797
G1 X92.754 Y101.219 E9.74135
M73 P2 R75
G1 X93.201 Y101.116 F9000
G1 E7.34135 F1800
;WIPE_START
G1 F7200
G1 X92.782 Y107.956 E5.74135
;WIPE_END
G92 E0
G1 Z.275 F9000
G1 X99.937 Y117.409
G1 Z.2
G1 E4 F1800
;TYPE:Perimeter
G1 X101.76 Y117.671 E4.05775
G1 X103.252 Y118.964 E4.11965
G1 X103.809 Y120.859 E4.18158
G1 X103.252 Y122.754 E4.24351
G1 X101.76 Y124.048 E4.30543
G1 X99.805 Y124.329 E4.36736
G1 X98.008 Y123.508 E4.42931
G1 X96.941 Y121.847 E4.49121
G1 X96.941 Y119.872 E4.55313
G1 X98.008 Y118.21 E4.61506
G1 X99.805 Y117.39 E4.67699
G1 X99.877 Y117.4 E4.67927
G1 X99.927 Y117.788 F9000
G1 F1800
G1 X101.597 Y118.029 E4.73217
G1 X102.922 Y119.177 E4.78714
G1 X103.416 Y120.859 E4.84211
G1 X102.922 Y122.542 E4.89711
G1 X101.597 Y123.69 E4.95208
G1 X99.861 Y123.94 E5.00707
G1 X98.266 Y123.211 E5.06206
G1 X97.318 Y121.736 E5.11704
G1 X97.318 Y119.983 E5.172
G1 X98.266 Y118.507 E5.227
G1 X99.867 Y117.78 E5.28213
G1 X99.917 Y118.168 F9000
;TYPE:External perimeter
G1 F1800
G1 X101.433 Y118.386 E5.33015
G1 X102.591 Y119.389 E5.37818
G1 X103.023 Y120.859 E5.42622
G1 X102.591 Y122.33 E5.47429
G1 X101.433 Y123.333 E5.52232
G1 X99.917 Y123.551 E5.57034
G1 X98.523 Y122.914 E5.6184
G1 X97.695 Y121.626 E5.66641
G1 X97.695 Y120.093 E5.71448
G1 X98.523 Y118.804 E5.76252
G1 X99.862 Y118.193 E5.80867
G1 X100.065 Y117.797 F9000
G1 E3.40867 F1800
;WIPE_START
G1 F7200
G1 X101.433 Y118.386 E3.03275
G1 X102.591 Y119.389 E2.6689
G1 X103.023 Y120.859 E2.30501
G1 X102.591 Y122.33 E1.94089
G1 X102.17 Y122.694 E1.80867
;WIPE_END
G92 E0
G1 Z.275 F9000
G1 X106.042 Y120.846
G1 Z.2
G1 E4 F1800
;TYPE:Perimeter
G1 X106.042 Y120.092 E4.02364
G1 X122.071 Y120.092 E4.52622
G1 X122.071 Y136.12 E5.02877
G1 X106.042 Y136.12 E5.53135
G1 X106.042 Y120.906 E6.00837
G1 X106.419 Y120.846 F9000
G1 F1800
G1 X106.419 Y120.469 E6.02019
G1 X121.693 Y120.469 E6.4991
G1 X121.693 Y135.743 E6.97801
G1 X106.419 Y135.743 E7.45692
G1 X106.419 Y120.906 E7.92212
G1 X106.796 Y120.846 F9000
;TYPE:External perimeter
G1 F1800
G1 X121.316 Y120.846 E8.37738
G1 X121.316 Y135.366 E8.83264
G1 X106.796 Y135.366 E9.2879
G1 X106.796 Y120.906 E9.74128
G1 X106.693 Y120.459 F9000
G1 E7.34128 F1800
;WIPE_START
G1 F7200
G1 X113.533 Y120.878 E5.74128
;WIPE_END
G92 E0
G1 Z.275 F9000
G1 X115.543 Y116.494
G1 Z.2
G1 E4 F1800
;TYPE:Perimeter
G1 X115.543 Y100.465 E4.50258
G1 X131.571 Y100.465 E5.00513
G1 X131.571 Y116.494 E5.50771
G1 X115.603 Y116.494 E6.00838
G1 X115.92 Y116.116 F9000
G1 F1800
G1 X115.92 Y100.842 E6.48729
G1 X131.194 Y100.842 E6.9662
G1 X131.194 Y116.116 E7.44511
G1 X115.98 Y116.116 E7.92213
G1 X116.297 Y115.739 F9000
;TYPE:External perimeter
G1 F1800
G1 X116.297 Y101.219 E8.37739
G1 X130.817 Y101.219 E8.83265
G1 X130.817 Y115.739 E9.28791
G1 X116.357 Y115.739 E9.74129
G1 X115.911 Y115.843 F9000
G1 E7.34129 F1800
;WIPE_START
G1 F7200
G1 X116.329 Y109.002 E5.74129
;WIPE_END
G92 E0
G1 Z.275 F9000
G1 X134.544 Y118.869
G1 Z.2
G1 E4 F1800
;TYPE:Perimeter
G1 X134.544 Y102.84 E4.50258
G1 X150.573 Y102.84 E5.00516
G1 X150.573 Y118.869 E5.50774
G1 X134.604 Y118.869 E6.00844
G1 X134.921 Y118.492 F9000
G1 F1800
G1 X134.921 Y103.218 E6.48735
G1 X150.195 Y103.218 E6.96626
G1 X150.195 Y118.492 E7.44517
G1 X134.981 Y118.492 E7.92219
G1 X135.298 Y118.115 F9000
;TYPE:External perimeter
G1 F1800
G1 X135.298 Y103.595 E8.37745
G1 X149.818 Y103.595 E8.83271
G1 X149.818 Y118.115 E9.28797
G1 X135.358 Y118.115 E9.74135
G1 X134.912 Y118.218 F9000
G1 E7.34135 F1800
;WIPE_START
G1 F7200
G1 X135.33 Y111.378 E5.74135
;WIPE_END
G92 E0
G1 Z.275 F9000
G1 X129.389 Y121.047
G1 Z.2
G1 E4 F1800
;TYPE:Perimeter
G1 X144.875 Y125.18 E4.50255
G1 X144.685 Y125.894 E4.52572
G1 X146.325 Y125.145 E4.58225
G1 X148.28 Y125.426 E4.64418
G1 X149.772 Y126.719 E4.70608
G1 X150.329 Y128.614 E4.76801
G1 X149.772 Y130.509 E4.82994
G1 X148.28 Y131.802 E4.89184
G1 X146.325 Y132.084 E4.95377
G1 X144.529 Y131.263 E5.01569
G1 X143.626 Y129.859 E5.06803
G1 X140.743 Y140.666 E5.41873
G1 X125.256 Y136.534 E5.9213
G1 X129.373 Y121.105 E6.42199
G1 X129.656 Y121.509 F9000
G1 F1800
G1 X144.414 Y125.447 E6.90091
G1 X140.475 Y140.205 E7.37984
G1 X125.718 Y136.267 E7.85873
G1 X129.641 Y121.567 E8.33577
G1 X129.923 Y121.97 F9000
;TYPE:External perimeter
G1 F1800
G1 X143.952 Y125.714 E8.79103
G1 X140.208 Y139.743 E9.24629
G1 X126.179 Y135.999 E9.70155
G1 X129.908 Y122.028 E10.15494
G1 X129.923 Y121.57 F9000
G1 E7.75494 F1800
;WIPE_START
G1 F7200
G1 X136.424 Y123.738 E6.15494
;WIPE_END
G92 E0
G1 Z.275 F9000
G1 X143.874 Y127.681
G1 Z.2
G1 E4 F1800
;TYPE:Perimeter
G1 X144.786 Y126.262 E4.05289
G1 X146.381 Y125.534 E4.10786
G1 X148.117 Y125.783 E4.16285
G1 X149.442 Y126.932 E4.21784
G1 X149.936 Y128.614 E4.27281
G1 X149.442 Y130.297 E4.32781
G1 X148.117 Y131.445 E4.38278
G1 X146.381 Y131.695 E4.43777
G1 X144.786 Y130.966 E4.49276
G1 X143.838 Y129.491 E4.54774
G1 X143.841 Y127.732 E4.60289
G1 X144.215 Y127.848 F9000
;TYPE:External perimeter
G1 F1800
G1 X145.043 Y126.559 E4.65093
G1 X146.437 Y125.923 E4.69897
G1 X147.953 Y126.141 E4.74699
G1 X149.111 Y127.144 E4.79502
G1 X149.543 Y128.614 E4.84306
G1 X149.111 Y130.084 E4.8911
G1 X147.953 Y131.087 E4.93913
G1 X146.437 Y131.306 E4.98716
G1 X145.043 Y130.669 E5.03522
G1 X144.215 Y129.38 E5.08326
G1 X144.215 Y127.908 E5.12941
G1 X143.939 Y127.559 F9000
G1 E2.72941 F1800
;WIPE_START
G1 F7200
G1 X145.043 Y126.559 E2.35349
G1 X146.437 Y125.923 E1.98959
G1 X147.953 Y126.141 E1.62584
G1 X149.111 Y127.144 E1.26199
G1 X149.268 Y127.68 E1.12941
;WIPE_END
G92 E0
G1 Z.275 F9000
G1 X146.368 Y137.541
G1 Z.2
G1 E4 F1800
;TYPE:Perimeter
G1 X154.373 Y123.655 E4.50255
G1 X168.26 Y131.659 E5.00511
G1 X160.255 Y145.546 E5.50769
G1 X146.42 Y137.571 E6.00839
G1 X146.883 Y137.403 F9000
G1 F1800
G1 X154.512 Y124.17 E6.48731
G1 X167.745 Y131.798 E6.96622
G1 X160.117 Y145.031 E7.44513
G1 X146.935 Y137.433 E7.92218
G1 X147.398 Y137.264 F9000
;TYPE:External perimeter
G1 F1800
G1 X154.65 Y124.685 E8.37744
G1 X167.23 Y131.936 E8.83271
G1 X159.978 Y144.516 E9.28799
G1 X147.45 Y137.294 E9.74139
G1 X147.012 Y137.161 F9000
G1 E7.34139 F1800
;WIPE_START
G1 F7200
G1 X150.791 Y131.444 E5.74139
;WIPE_END
G92 E0
G1 Z.275 F9000
G1 X142.676 Y141.761
G1 Z.2
G1 E4 F1800
;TYPE:Perimeter
G1 X142.125 Y141.614 E4.01788
G1 X106.106 Y136.26 E5.15964
G1 X105.637 Y136.091 E5.17527
G1 X105.27 Y135.754 E5.19089
G1 X95.618 Y122.526 E5.70432
G1 X94.646 Y121.698 E5.74436
G1 X93.404 Y121.401 E5.7844
G1 X40.683 Y121.401 E7.43743
G1 X40.097 Y121.244 E7.45645
G1 X55.565 Y121.244 E7.94144
G1 X55.565 Y106.768 E8.39532
G1 X56.553 Y107.219 E8.42937
G1 X58.507 Y106.938 E8.49127
G1 X58.539 Y106.911 E8.49258
G1 X58.539 Y121.244 E8.94198
G1 X74.567 Y121.244 E9.44453
M73 P3 R75
G1 X74.567 Y105.216 E9.94708
G1 X60.126 Y105.216 E10.39987
G1 X60.556 Y103.75 E10.44777
G1 X60.114 Y102.243 E10.49701
G1 X74.567 Y102.243 E10.95017
G1 X74.567 Y86.214 E11.45275
G1 X60.131 Y86.214 E11.90538
G1 X60.566 Y84.735 E11.95372
G1 X60.127 Y83.241 E12.00254
G1 X74.567 Y83.241 E12.4553
G1 X74.567 Y67.213 E12.95785
G1 X58.539 Y67.213 E13.4604
M73 P3 R74
G1 X58.539 Y81.566 E13.91043
G1 X58.516 Y81.546 E13.91139
G1 X56.561 Y81.265 E13.97332
G1 X55.565 Y81.72 E14.00765
G1 X55.565 Y67.213 E14.46251
G1 X40.416 Y67.213 E14.9375
G1 X40.748 Y67.075 E14.94877
G1 X74.686 Y67.075 E16.01287
G1 X76.058 Y66.708 E16.0574
G1 X77.155 Y65.61 E16.10606
G1 X77.523 Y64.238 E16.1506
G1 X77.523 Y63.488 E16.17412
G1 X77.54 Y63.423 E16.17623
G1 X77.54 Y78.491 E16.64868
G1 X93.569 Y78.491 E17.15126
G1 X93.569 Y62.463 E17.65381
G1 X78.172 Y62.463 E18.13657
G1 X78.686 Y62.325 E18.15326
G1 X94.687 Y62.325 E18.65496
G1 X95.559 Y62.091 E18.68327
G1 X96.291 Y61.36 E18.71571
G1 X96.524 Y60.488 E18.74401
G1 X96.524 Y60.302 E18.74984
G1 X96.542 Y60.261 E18.75124
G1 X96.542 Y76.116 E19.24836
G1 X112.57 Y76.116 E19.75091
G1 X112.57 Y60.135 E20.25198
G1 X112.597 Y60.238 E20.25532
G1 X112.597 Y60.553 E20.2652
G1 X113.116 Y61.806 E20.30772
G1 X114.37 Y62.325 E20.35027
G1 X131.436 Y62.325 E20.88536
G1 X131.564 Y62.36 E20.88952
G1 X131.599 Y62.488 E20.89368
G1 X131.599 Y62.988 E20.90936
G1 X131.832 Y63.86 E20.93766
G1 X132.564 Y64.591 E20.9701
G1 X133.436 Y64.825 E20.99841
G1 X149.484 Y64.838 E21.50158
G1 X134.544 Y64.838 E21.97001
G1 X134.544 Y77.929 E22.38047
G1 X132.583 Y77.643 E22.44261
G1 X131.571 Y78.105 E22.47749
G1 X131.571 Y62.463 E22.96793
G1 X115.543 Y62.463 E23.47048
G1 X115.543 Y78.491 E23.97303
G1 X130.769 Y78.491 E24.45043
G1 X129.719 Y80.125 E24.51133
G1 X129.719 Y81.464 E24.55331
G1 X115.543 Y81.464 E24.99779
G1 X115.543 Y97.492 E25.50034
G1 X131.571 Y97.492 E26.00289
G1 X131.571 Y84.119 E26.42219
G1 X132.583 Y84.582 E26.45708
G1 X134.544 Y84.295 E26.51922
G1 X134.544 Y99.867 E27.00747
G1 X150.573 Y99.867 E27.51005
G1 X150.573 Y83.839 E28.0126
G1 X135.071 Y83.839 E28.49865
G1 X136.031 Y83.007 E28.53848
G1 X136.587 Y81.112 E28.6004
G1 X136.515 Y80.866 E28.60844
G1 X150.573 Y80.866 E29.04922
G1 X150.573 Y65.886 E29.51891
G1 X150.6 Y65.988 E29.52222
G1 X150.599 Y113.778 E31.02064
