; generated by PrusaSlicer 2.6.0-alpha6+linux-x64-GTK3 on 2023-04-16 at 18:25:21 UTC


;
;

;
;
; 

; external perimeters extrusion width = 0.45mm
; perimeters extrusion width = 0.45mm
; infill extrusion width = 0.45mm
; solid infill extrusion width = 0.45mm
; top infill extrusion width = 0.40mm
; first layer extrusion width = 0.42mm

M73 P0 R43
;TYPE:Custom
G90 ; use absolute coordinates
M82 ; extruder absolute mode

M204 S1250 T1250
M104 S210 ; set extruder temp
M140 S60 ; set bed temp
G28 ; home all

G1 Y1.0 Z0.3 F1000 ; move print head up

M190 S60 ; wait for bed temp
M109 S210 ; wait for extruder temp
G92 E0.0

; initial load
G1 X205.0 E19 F1000
G1 Y1.6
G1 X5.0 E19 F1000
G92 E0.0

; intro line
G1 Y2.0 Z0.2 F1000
G1 X65.0 E9.0 F1000
G1 X105.0 E12.5 F1000
G92 E0.0
G21 ; set units to millimeters
G90 ; use absolute coordinates
M82 ; use absolute distances for extrusion
G92 E0
; Filament gcode
M107
;LAYER_CHANGE
;Z:0.2
;HEIGHT:0.2
;BEFORE_LAYER_CHANGE
; G92 E0.0
;0.2
M73 P1 R42
G1 E-4 F1800
G92 E0
G1 Z.075 F9000
G1 Z.2
;AFTER_LAYER_CHANGE
;0.2
G1 Z.275
G1 X102.958 Y59.046
G1 Z.2
G1 E4 F1800
;TYPE:Skirt/Brim
;WIDTH:0.42
G1 X103.208 Y58.611 E4.01573
G1 X103.783 Y57.874 E4.04504
G1 X104.462 Y57.203 E4.07497
G1 X105.556 Y56.344 E4.11858
G1 X106.345 Y55.886 E4.14718
G1 X107.201 Y55.522 E4.17635
G1 X108.104 Y55.268 E4.20576
G1 X109.202 Y55.083 E4.24067
G1 X110.36 Y55.031 E4.27701
G1 X111.866 Y55.182 E4.32447
G1 X113.559 Y55.72 E4.38017
G1 X114.351 Y56.096 E4.40766
G1 X117.734 Y58.048 E4.53012
G1 X119.738 Y60.08 E4.6196
G1 X120.087 Y60.73 E4.64273
G1 X120.717 Y62.048 E4.68853
G1 X121.267 Y63.477 E4.73654
G1 X121.575 Y64.528 E4.77088
G1 X121.845 Y65.851 E4.81322
G1 X121.99 Y67.545 E4.86653
G1 X121.99 Y128.198 E6.76826
G1 X121.809 Y130.066 E6.8271
G1 X118.458 Y150.464 E7.47524
G1 X117.738 Y152.399 E7.53997
G1 X116.343 Y153.92 E7.60468
G1 X114.477 Y154.803 E7.66941
G1 X113.152 Y154.969 E7.71128
G1 X95.878 Y154.969 E8.25289
G1 X94.697 Y154.873 E8.29004
G1 X93.335 Y154.534 E8.33405
G1 X92.116 Y154.009 E8.37566
G1 X90.985 Y153.253 E8.41831
G1 X90.08 Y152.398 E8.45735
G1 X89.372 Y151.519 E8.49274
G1 X88.693 Y150.293 E8.53668
G1 X88.265 Y149.017 E8.57888
G1 X88.039 Y147.734 E8.61973
G1 X88.01 Y88.131 E10.48854
G1 X88.212 Y86.164 E10.55054
G1 X88.398 Y85.321 E10.57761
G1 X88.846 Y83.921 E10.6237
G1 X89.641 Y82.268 E10.68121
G1 X102.928 Y59.098 E11.51867
; printing object corne_feet_magnets.stl id:0 copy 0
G1 E9.11867
;WIPE_START
G1 F7200
G1 X103.208 Y58.611 E8.98525
G1 X103.783 Y57.874 E8.76324
G1 X104.462 Y57.203 E8.53652
G1 X105.556 Y56.344 E8.20617
G1 X106.345 Y55.886 E7.9895
G1 X107.201 Y55.522 E7.76858
G1 X108.104 Y55.268 E7.54579
G1 X108.217 Y55.249 E7.51867
;WIPE_END
G92 E0
G1 Z.275 F9000
G1 X109.225 Y61.54
G1 Z.2
G1 E4 F1800
;TYPE:Perimeter
G1 X109.424 Y61.472 E4.00659
G1 X110.073 Y61.372 E4.02718
G1 X110.562 Y61.39 E4.04252
G1 X110.668 Y61.415 E4.04593
G1 X111.278 Y61.645 E4.06637
G1 X114.324 Y63.402 E4.17662
G1 X114.483 Y63.697 E4.18713
G1 X114.929 Y64.64 E4.21984
G1 X115.28 Y65.57 E4.25101
G1 X115.515 Y66.455 E4.27972
G1 X115.589 Y66.886 E4.29343
G1 X115.649 Y67.585 E4.31543
G1 X115.648 Y68.22 E4.33534
G1 X115.61 Y68.648 E4.34881
G1 X115.543 Y69.089 E4.3628
G1 X115.448 Y69.533 E4.37704
G1 X115.327 Y69.971 E4.39129
G1 X114.994 Y70.898 E4.42217
G1 X114.564 Y71.833 E4.45444
G1 X114.051 Y72.788 E4.48843
G1 X113.474 Y73.762 E4.52393
G1 X112.228 Y75.76 E4.59776
G1 X111.615 Y76.782 E4.63513
G1 X111.047 Y77.817 E4.67215
G1 X110.779 Y78.359 E4.69111
G1 X110.328 Y79.413 E4.72706
G1 X110.134 Y79.966 E4.74543
G1 X109.972 Y80.515 E4.76338
G1 X109.841 Y81.07 E4.78126
G1 X109.745 Y81.628 E4.79901
G1 X109.683 Y82.189 E4.81671
G1 X109.658 Y82.752 E4.83438
G1 X109.671 Y83.316 E4.85207
G1 X109.72 Y83.877 E4.86973
G1 X109.805 Y84.436 E4.88746
G1 X109.924 Y84.992 E4.90529
G1 X110.079 Y85.555 E4.9236
G1 X110.466 Y86.628 E4.95936
G1 X110.954 Y87.692 E4.99606
G1 X111.515 Y88.737 E5.03325
G1 X112.124 Y89.764 E5.07069
G1 X113.372 Y91.766 E5.14466
G1 X113.959 Y92.743 E5.1804
G1 X114.489 Y93.708 E5.21492
G1 X114.715 Y94.166 E5.23093
G1 X115.12 Y95.113 E5.26322
G1 X115.277 Y95.559 E5.27805
G1 X115.41 Y96.01 E5.29279
G1 X115.515 Y96.455 E5.30713
G1 X115.589 Y96.886 E5.32084
G1 X115.649 Y97.585 E5.34284
G1 X115.648 Y98.22 E5.36275
G1 X115.61 Y98.648 E5.37622
G1 X115.543 Y99.089 E5.39021
G1 X115.448 Y99.533 E5.40445
G1 X115.327 Y99.971 E5.4187
G1 X114.994 Y100.898 E5.44958
G1 X114.564 Y101.833 E5.48185
G1 X114.051 Y102.788 E5.51584
G1 X113.474 Y103.762 E5.55134
G1 X112.228 Y105.76 E5.62517
G1 X111.615 Y106.782 E5.66254
G1 X111.047 Y107.817 E5.69956
G1 X110.779 Y108.359 E5.71852
G1 X110.328 Y109.413 E5.75447
G1 X110.134 Y109.966 E5.77284
G1 X109.972 Y110.515 E5.79079
G1 X109.841 Y111.07 E5.80867
G1 X109.745 Y111.628 E5.82642
G1 X109.683 Y112.189 E5.84412
G1 X109.658 Y112.752 E5.86179
G1 X109.671 Y113.316 E5.87948
G1 X109.72 Y113.877 E5.89714
G1 X109.805 Y114.436 E5.91487
G1 X109.924 Y114.992 E5.9327
G1 X110.079 Y115.555 E5.95101
G1 X110.466 Y116.628 E5.98677
G1 X110.954 Y117.692 E6.02347
G1 X111.515 Y118.737 E6.06066
G1 X112.124 Y119.764 E6.0981
G1 X113.372 Y121.766 E6.17207
G1 X113.959 Y122.743 E6.20781
G1 X114.489 Y123.708 E6.24233
G1 X114.715 Y124.166 E6.25834
G1 X115.12 Y125.113 E6.29063
G1 X115.277 Y125.559 E6.30546
G1 X115.41 Y126.01 E6.3202
G1 X115.515 Y126.455 E6.33454
G1 X115.591 Y126.897 E6.3486
G1 X115.637 Y127.321 E6.36197
G1 X115.647 Y128.226 E6.39035
G1 X115.61 Y128.648 E6.40363
G1 X115.543 Y129.089 E6.41762
G1 X115.448 Y129.533 E6.43186
G1 X115.327 Y129.971 E6.44611
G1 X114.994 Y130.898 E6.47699
G1 X114.564 Y131.833 E6.50926
G1 X114.051 Y132.788 E6.54325
G1 X113.474 Y133.762 E6.57875
G1 X112.228 Y135.76 E6.65258
G1 X111.615 Y136.782 E6.68995
G1 X111.047 Y137.817 E6.72697
G1 X110.779 Y138.359 E6.74593
G1 X110.328 Y139.413 E6.78188
G1 X110.134 Y139.966 E6.80025
G1 X109.972 Y140.515 E6.8182
G1 X109.841 Y141.07 E6.83608
G1 X109.745 Y141.628 E6.85383
G1 X109.683 Y142.189 E6.87153
G1 X109.658 Y142.752 E6.8892
G1 X109.671 Y143.316 E6.90689
G1 X109.72 Y143.877 E6.92455
G1 X109.805 Y144.436 E6.94228
G1 X109.924 Y144.992 E6.96011
G1 X110.079 Y145.555 E6.97842
G1 X110.466 Y146.628 E7.01418
G1 X110.954 Y147.692 E7.05088
G1 X111.457 Y148.628 E7.0842
G1 X95.749 Y148.617 E7.57671
G1 X95.393 Y148.532 E7.58819
G1 X95.159 Y148.441 E7.59606
G1 X95.001 Y148.34 E7.60194
G1 X94.747 Y148.102 E7.61285
G1 X94.589 Y147.906 E7.62074
G1 X94.501 Y147.738 E7.62669
G1 X94.397 Y147.396 E7.6379
G1 X94.355 Y147.139 E7.64606
G1 X94.351 Y88.163 E9.49521
G1 X94.475 Y87.159 E9.52693
G1 X94.756 Y86.222 E9.5576
G1 X95.213 Y85.295 E9.59001
G1 X108.422 Y62.224 E10.42356
G1 X108.554 Y62.056 E10.43026
G1 X108.658 Y61.958 E10.43474
G1 X109.047 Y61.641 E10.45047
G1 X109.173 Y61.57 E10.455
G1 X109.069 Y61.195 F9000
G1 F1800
G1 X109.33 Y61.106 E10.46365
G1 X109.82 Y61.018 E10.47926
G1 X110.054 Y60.995 E10.48663
G1 X110.617 Y61.016 E10.50429
G1 X110.777 Y61.053 E10.50944
G1 X111.44 Y61.304 E10.53167
G1 X114.606 Y63.129 E10.64625
G1 X114.82 Y63.527 E10.66042
G1 X115.276 Y64.492 E10.69388
G1 X115.638 Y65.449 E10.72596
G1 X115.774 Y65.913 E10.74112
G1 X115.884 Y66.38 E10.75616
G1 X115.963 Y66.838 E10.77073
G1 X116.026 Y67.569 E10.79373
G1 X116.025 Y68.236 E10.81464
G1 X115.985 Y68.693 E10.82902
G1 X115.914 Y69.157 E10.84374
G1 X115.815 Y69.623 E10.85868
G1 X115.687 Y70.085 E10.87371
G1 X115.343 Y71.04 E10.90554
G1 X114.902 Y72.001 E10.93869
G1 X114.38 Y72.974 E10.97331
G1 X113.796 Y73.958 E11.00919
G1 X112.55 Y75.956 E11.08302
G1 X111.942 Y76.97 E11.12009
G1 X111.381 Y77.991 E11.15662
G1 X111.122 Y78.517 E11.175
G1 X110.679 Y79.55 E11.21024
G1 X110.493 Y80.082 E11.22791
G1 X110.336 Y80.612 E11.24524
G1 X110.21 Y81.145 E11.26241
G1 X110.118 Y81.681 E11.27946
G1 X110.059 Y82.218 E11.2964
G1 X110.036 Y82.756 E11.31328
G1 X110.047 Y83.295 E11.33018
G1 X110.095 Y83.833 E11.34712
G1 X110.176 Y84.368 E11.36409
G1 X110.291 Y84.902 E11.38122
G1 X110.439 Y85.44 E11.39872
G1 X110.815 Y86.485 E11.43354
G1 X111.292 Y87.524 E11.46939
G1 X111.844 Y88.551 E11.50595
G1 X112.446 Y89.568 E11.54301
G1 X113.694 Y91.569 E11.61695
G1 X114.286 Y92.555 E11.65301
G1 X114.823 Y93.534 E11.68802
G1 X115.058 Y94.008 E11.70461
G1 X115.472 Y94.976 E11.73762
G1 X115.636 Y95.443 E11.75314
G1 X115.774 Y95.913 E11.7685
G1 X115.884 Y96.38 E11.78354
G1 X115.963 Y96.838 E11.79811
G1 X116.026 Y97.569 E11.82111
G1 X116.025 Y98.236 E11.84202
G1 X115.985 Y98.693 E11.8564
G1 X115.914 Y99.157 E11.87112
G1 X115.815 Y99.623 E11.88606
G1 X115.687 Y100.085 E11.90109
G1 X115.343 Y101.04 E11.93292
G1 X114.902 Y102.001 E11.96607
G1 X114.38 Y102.974 E12.00069
G1 X113.796 Y103.958 E12.03657
G1 X112.55 Y105.956 E12.1104
G1 X111.942 Y106.97 E12.14747
G1 X111.381 Y107.991 E12.184
G1 X111.122 Y108.517 E12.20238
G1 X110.679 Y109.55 E12.23762
G1 X110.493 Y110.082 E12.25529
G1 X110.336 Y110.612 E12.27262
G1 X110.21 Y111.145 E12.28979
G1 X110.118 Y111.681 E12.30684
G1 X110.059 Y112.218 E12.32378
G1 X110.036 Y112.756 E12.34066
G1 X110.047 Y113.295 E12.35756
G1 X110.095 Y113.833 E12.3745
G1 X110.176 Y114.368 E12.39147
G1 X110.291 Y114.902 E12.4086
G1 X110.439 Y115.44 E12.4261
G1 X110.815 Y116.485 E12.46092
G1 X111.292 Y117.524 E12.49677
G1 X111.844 Y118.551 E12.53333
G1 X112.446 Y119.568 E12.57039
G1 X113.694 Y121.569 E12.64433
G1 X114.286 Y122.555 E12.68039
G1 X114.823 Y123.534 E12.7154
G1 X115.058 Y124.008 E12.73199
G1 X115.472 Y124.976 E12.765
G1 X115.636 Y125.443 E12.78052
G1 X115.774 Y125.913 E12.79588
G1 X115.884 Y126.38 E12.81092
G1 X115.964 Y126.845 E12.82571
G1 X116.014 Y127.298 E12.84
G1 X116.025 Y128.24 E12.86954
G1 X115.985 Y128.693 E12.8838
G1 X115.914 Y129.157 E12.89852
G1 X115.815 Y129.623 E12.91346
G1 X115.687 Y130.085 E12.92849
G1 X115.343 Y131.04 E12.96032
G1 X114.902 Y132.001 E12.99347
G1 X114.38 Y132.974 E13.02809
G1 X113.796 Y133.958 E13.06397
G1 X112.55 Y135.956 E13.1378
G1 X111.942 Y136.97 E13.17487
G1 X111.381 Y137.991 E13.2114
G1 X111.122 Y138.517 E13.22978
G1 X110.679 Y139.55 E13.26502
G1 X110.493 Y140.082 E13.28269
G1 X110.336 Y140.612 E13.30002
G1 X110.21 Y141.145 E13.31719
G1 X110.118 Y141.681 E13.33424
G1 X110.059 Y142.218 E13.35118
G1 X110.036 Y142.756 E13.36806
G1 X110.047 Y143.295 E13.38496
G1 X110.095 Y143.833 E13.4019
G1 X110.176 Y144.368 E13.41887
G1 X110.291 Y144.902 E13.436
G1 X110.439 Y145.44 E13.4535
G1 X110.815 Y146.485 E13.48832
G1 X111.292 Y147.524 E13.52417
G1 X111.844 Y148.553 E13.56078
G1 X112.116 Y149.005 E13.57732
G1 X95.898 Y149.005 E14.08582
G1 X95.692 Y148.991 E14.09229
G1 X95.281 Y148.893 E14.10554
G1 X94.988 Y148.78 E14.11539
G1 X94.768 Y148.639 E14.12358
G1 X94.47 Y148.359 E14.1364
G1 X94.272 Y148.114 E14.14628
G1 X94.151 Y147.882 E14.15448
G1 X94.029 Y147.482 E14.16759
G1 X93.978 Y147.17 E14.1775
G1 X93.974 Y88.151 E16.028
G1 X93.989 Y87.92 E16.03526
M73 P2 R42
G1 X94.105 Y87.088 E16.0616
G1 X94.401 Y86.091 E16.09421
G1 X94.881 Y85.116 E16.12828
G1 X108.108 Y62.013 E16.96298
G1 X108.275 Y61.801 E16.97144
G1 X108.41 Y61.674 E16.97725
G1 X108.834 Y61.329 E16.99439
G1 X109.017 Y61.225 E17.00099
G1 X108.914 Y60.85 F9000
;TYPE:External perimeter
G1 F1800
G1 X109.235 Y60.74 E17.01163
G1 X109.768 Y60.644 E17.02861
G1 X110.035 Y60.618 E17.03702
G1 X110.673 Y60.642 E17.05704
G1 X110.887 Y60.691 E17.06392
G1 X111.602 Y60.962 E17.08789
G1 X114.887 Y62.856 E17.20678
G1 X115.156 Y63.357 E17.22461
G1 X115.624 Y64.345 E17.25889
G1 X115.996 Y65.329 E17.29187
G1 X116.139 Y65.816 E17.30778
G1 X116.254 Y66.305 E17.32353
G1 X116.338 Y66.789 E17.33893
G1 X116.403 Y67.553 E17.36297
G1 X116.402 Y68.253 E17.38492
G1 X116.359 Y68.738 E17.40019
G1 X116.285 Y69.225 E17.41563
G1 X116.181 Y69.713 E17.43127
G1 X116.047 Y70.199 E17.44708
G1 X115.692 Y71.183 E17.47988
G1 X115.24 Y72.169 E17.51389
G1 X114.708 Y73.159 E17.54913
G1 X114.119 Y74.154 E17.58538
G1 X112.872 Y76.153 E17.65925
G1 X112.269 Y77.158 E17.696
G1 X111.716 Y78.166 E17.73205
G1 X111.464 Y78.675 E17.74986
G1 X111.031 Y79.687 E17.78437
G1 X110.852 Y80.198 E17.80135
G1 X110.701 Y80.709 E17.81806
G1 X110.58 Y81.221 E17.83456
G1 X110.492 Y81.733 E17.85085
G1 X110.436 Y82.247 E17.86706
G1 X110.413 Y82.76 E17.88316
G1 X110.424 Y83.274 E17.89928
G1 X110.469 Y83.788 E17.91546
G1 X110.547 Y84.3 E17.9317
G1 X110.657 Y84.813 E17.94815
G1 X110.799 Y85.326 E17.96484
G1 X111.164 Y86.342 E17.99869
G1 X111.63 Y87.356 E18.03368
G1 X112.172 Y88.366 E18.06962
G1 X112.769 Y89.372 E18.1063
G1 X114.016 Y91.372 E18.1802
G1 X114.613 Y92.367 E18.21658
G1 X115.158 Y93.36 E18.2521
G1 X115.4 Y93.851 E18.26926
G1 X115.823 Y94.839 E18.30296
G1 X115.995 Y95.327 E18.31918
G1 X116.139 Y95.816 E18.33516
G1 X116.254 Y96.305 E18.35091
G1 X116.338 Y96.789 E18.36631
G1 X116.403 Y97.553 E18.39035
G1 X116.402 Y98.253 E18.4123
G1 X116.359 Y98.738 E18.42757
G1 X116.285 Y99.225 E18.44301
G1 X116.181 Y99.713 E18.45865
G1 X116.047 Y100.199 E18.47446
G1 X115.692 Y101.183 E18.50726
G1 X115.24 Y102.169 E18.54127
G1 X114.708 Y103.159 E18.57651
G1 X114.119 Y104.154 E18.61276
G1 X112.872 Y106.153 E18.68663
G1 X112.269 Y107.158 E18.72338
G1 X111.716 Y108.166 E18.75943
G1 X111.464 Y108.675 E18.77724
G1 X111.031 Y109.687 E18.81175
G1 X110.852 Y110.198 E18.82873
G1 X110.701 Y110.709 E18.84544
G1 X110.58 Y111.221 E18.86194
G1 X110.492 Y111.733 E18.87823
G1 X110.436 Y112.247 E18.89444
G1 X110.413 Y112.76 E18.91054
G1 X110.424 Y113.274 E18.92666
G1 X110.469 Y113.788 E18.94284
G1 X110.547 Y114.3 E18.95908
G1 X110.657 Y114.813 E18.97553
G1 X110.799 Y115.326 E18.99222
G1 X111.164 Y116.342 E19.02607
G1 X111.63 Y117.356 E19.06106
G1 X112.172 Y118.366 E19.097
G1 X112.769 Y119.372 E19.13368
G1 X114.016 Y121.372 E19.20758
G1 X114.613 Y122.367 E19.24396
G1 X115.158 Y123.36 E19.27948
G1 X115.4 Y123.851 E19.29664
G1 X115.823 Y124.839 E19.33034
G1 X115.995 Y125.327 E19.34656
G1 X116.139 Y125.816 E19.36254
G1 X116.254 Y126.305 E19.37829
G1 X116.338 Y126.792 E19.39379
G1 X116.391 Y127.275 E19.40903
G1 X116.402 Y128.255 E19.43976
G1 X116.359 Y128.738 E19.45496
G1 X116.285 Y129.225 E19.4704
G1 X116.181 Y129.713 E19.48604
G1 X116.047 Y130.199 E19.50185
G1 X115.692 Y131.183 E19.53465
G1 X115.24 Y132.169 E19.56866
G1 X114.708 Y133.159 E19.6039
G1 X114.119 Y134.154 E19.64015
G1 X112.872 Y136.153 E19.71402
G1 X112.269 Y137.158 E19.75077
G1 X111.716 Y138.166 E19.78682
G1 X111.464 Y138.675 E19.80463
G1 X111.031 Y139.687 E19.83914
G1 X110.852 Y140.198 E19.85612
G1 X110.701 Y140.709 E19.87283
G1 X110.58 Y141.221 E19.88933
G1 X110.492 Y141.733 E19.90562
G1 X110.436 Y142.247 E19.92183
G1 X110.413 Y142.76 E19.93793
G1 X110.424 Y143.274 E19.95405
G1 X110.469 Y143.788 E19.97023
G1 X110.547 Y144.3 E19.98647
G1 X110.657 Y144.813 E20.00292
G1 X110.799 Y145.326 E20.01961
G1 X111.164 Y146.342 E20.05346
G1 X111.63 Y147.356 E20.08845
G1 X112.172 Y148.366 E20.12439
G1 X112.781 Y149.382 E20.16153
G1 X95.885 Y149.382 E20.69129
G1 X95.635 Y149.365 E20.69915
G1 X95.168 Y149.253 E20.71421
G1 X94.817 Y149.118 E20.726
G1 X94.536 Y148.938 E20.73646
G1 X94.193 Y148.616 E20.75121
G1 X93.955 Y148.322 E20.76307
G1 X93.8 Y148.025 E20.77357
G1 X93.661 Y147.567 E20.78858
G1 X93.601 Y147.201 E20.80021
G1 X93.597 Y88.138 E22.65209
G1 X93.614 Y87.881 E22.66017
G1 X93.734 Y87.018 E22.68749
G1 X94.047 Y85.96 E22.72208
G1 X94.549 Y84.937 E22.75781
G1 X107.795 Y61.802 E23.59367
G1 X107.995 Y61.546 E23.60386
G1 X108.161 Y61.39 E23.611
G1 X108.62 Y61.017 E23.62954
G1 X108.862 Y60.879 E23.63827
G1 X109.19 Y61.047 F9000
G1 E21.23827 F1800
;WIPE_START
G1 F7200
G1 X109.235 Y60.74 E21.14373
G1 X109.768 Y60.644 E21.01511
G1 X110.035 Y60.618 E20.9514
G1 X110.673 Y60.642 E20.79977
G1 X110.887 Y60.691 E20.74763
G1 X111.602 Y60.962 E20.56603
G1 X114.887 Y62.856 E19.66546
G1 X114.941 Y62.957 E19.63827
;WIPE_END
G92 E0
G1 Z.275 F9000
G1 X112.416 Y62.432
G1 Z.2
G1 E4 F1800
;TYPE:Solid infill
;WIDTH:0.420062
G1 X114.609 Y64.625 E4.09726
G1 X114.952 Y65.502 E4.12679
G1 X111.619 Y62.169 E4.27461
G1 X111.156 Y61.902 E4.29137
G1 X110.614 Y61.696 E4.30955
G1 X115.168 Y66.251 E4.51154
G1 X115.238 Y66.516 E4.52014
G1 X115.308 Y66.924 E4.53312
G1 X110.051 Y61.667 E4.76626
