; generated by PrusaSlicer 2.6.0-alpha6+linux-x64-GTK3 on 2023-04-17 at 02:51:30 UTC


;
;

;
;
; 

; external perimeters extrusion width = 0.45mm
; perimeters extrusion width = 0.45mm
; infill extrusion width = 0.45mm
; solid infill extrusion width = 0.45mm
; top infill extrusion width = 0.40mm
; first layer extrusion width = 0.42mm

M73 P0 R91
;TYPE:Custom
G90 ; use absolute coordinates
M82 ; extruder absolute mode

M204 S1250 T1250
M104 S210 ; set extruder temp
M140 S60 ; set bed temp
G28 ; home all

G1 Y1.0 Z0.3 F1000 ; move print head up

M190 S60 ; wait for bed temp
M109 S210 ; wait for extruder temp
G92 E0.0

; initial load
G1 X205.0 E19 F1000
G1 Y1.6
G1 X5.0 E19 F1000
G92 E0.0

; intro line
G1 Y2.0 Z0.2 F1000
G1 X65.0 E9.0 F1000
G1 X105.0 E12.5 F1000
G92 E0.0
G21 ; set units to millimeters
G90 ; use absolute coordinates
M82 ; use absolute distances for extrusion
G92 E0
; Filament gcode
M107
;LAYER_CHANGE
;Z:0.2
;HEIGHT:0.2
;BEFORE_LAYER_CHANGE
; G92 E0.0
;0.2
G1 E-4 F1800
G92 E0
M73 P0 R90
G1 Z.075 F9000
G1 Z.2
;AFTER_LAYER_CHANGE
;0.2
G1 Z.275
G1 X37.074 Y85.661
G1 Z.2
G1 E4 F1800
;TYPE:Skirt/Brim
;WIDTH:0.42
G1 X156.416 Y57.42 E7.84523
G1 X158.605 Y57.36 E7.91389
G1 X159.042 Y57.439 E7.92781
G1 X161.537 Y58.603 E8.01413
G1 X161.89 Y58.898 E8.02855
G1 X163.086 Y60.312 E8.08662
G1 X176.414 Y83.606 E8.92809
G1 X177.249 Y85.412 E8.99048
G1 X177.681 Y87.052 E9.04366
G1 X177.841 Y88.588 E9.09208
G1 X177.841 Y147.774 E10.94782
G1 X177.585 Y149.435 E11.00051
G1 X176.182 Y151.845 E11.08795
G1 X176.002 Y152.023 E11.09589
G1 X173.582 Y153.406 E11.18328
G1 X171.921 Y153.649 E11.23591
G1 X38.654 Y152.64 E15.41452
G1 X37.001 Y152.374 E15.46702
G1 X34.625 Y150.981 E15.55338
G1 X34.447 Y150.802 E15.5613
G1 X33.081 Y148.446 E15.64669
G1 X32.816 Y146.758 E15.70026
G1 X32.816 Y91.293 E17.43933
G1 X33.069 Y89.644 E17.49164
G1 X34.404 Y87.3 E17.57622
G1 X34.587 Y87.112 E17.58445
G1 X37.022 Y85.691 E17.67285
; printing object corne_wedge_5x5.stl id:0 copy 0
G1 E15.27285
;WIPE_START
G1 F7200
G1 X43.578 Y84.139 E13.67285
;WIPE_END
G92 E0
G1 Z.275 F9000
G1 X39.157 Y91.762
G1 Z.2
G1 E4 F1800
;TYPE:Perimeter
G1 X53.29 Y91.87 E4.44314
G1 X53.29 Y110.943 E5.04116
G1 X155.6 Y111.723 E8.24911
G1 X155.6 Y64.838 E9.71916
G1 X157.626 Y63.687 E9.79222
G1 X157.696 Y63.662 E9.79455
G1 X170.897 Y86.732 E10.62794
G1 X171.216 Y87.367 E10.65022
G1 X171.409 Y87.991 E10.6707
G1 X171.5 Y88.654 E10.69168
G1 X171.5 Y147.304 E12.53061
G1 X155.6 Y147.183 E13.02916
M73 P1 R90
G1 X155.6 Y129.871 E13.57197
G1 X53.29 Y129.091 E16.77992
G1 X53.29 Y146.411 E17.32298
G1 X39.157 Y146.303 E17.76612
G1 X39.157 Y91.822 E19.47433
G1 X38.78 Y91.382 F9000
G1 F1800
G1 X53.667 Y91.496 E19.94112
G1 X53.667 Y110.569 E20.53914
G1 X155.223 Y111.343 E23.72345
G1 X155.223 Y64.618 E25.18848
G1 X157.469 Y63.343 E25.26946
G1 X157.707 Y63.258 E25.27738
G1 X157.83 Y63.281 E25.2813
G1 X157.999 Y63.426 E25.28828
G1 X171.229 Y86.554 E26.1237
G1 X171.567 Y87.225 E26.14726
G1 X171.778 Y87.909 E26.1697
G1 X171.877 Y88.628 E26.19246
G1 X171.877 Y147.684 E28.04412
G1 X155.223 Y147.557 E28.56631
G1 X155.223 Y130.245 E29.10912
G1 X53.667 Y129.471 E32.29343
G1 X53.667 Y146.791 E32.83649
G1 X38.78 Y146.677 E33.30328
G1 X38.78 Y91.442 E35.03513
G1 X38.549 Y91.05 F9000
;TYPE:External perimeter
G1 F1800
G1 X38.721 Y91.005 E35.0407
G1 X54.044 Y91.122 E35.52116
G1 X54.044 Y110.194 E36.11915
G1 X154.846 Y110.963 E39.27982
G1 X154.846 Y64.399 E40.7398
G1 X157.312 Y62.998 E40.82873
G1 X157.675 Y62.87 E40.8408
G1 X157.998 Y62.928 E40.85109
G1 X158.294 Y63.182 E40.86332
G1 X171.561 Y86.375 E41.70109
G1 X171.917 Y87.084 E41.72597
G1 X172.148 Y87.827 E41.75037
G1 X172.254 Y88.602 E41.7749
G1 X172.254 Y147.746 E43.62932
G1 X172.208 Y147.917 E43.63487
G1 X172.107 Y148.017 E43.63933
G1 X171.935 Y148.062 E43.6449
G1 X154.846 Y147.931 E44.18073
G1 X154.846 Y130.619 E44.72354
M73 P1 R89
G1 X54.044 Y129.851 E47.88421
G1 X54.044 Y147.171 E48.42727
G1 X38.724 Y147.054 E48.90763
G1 X38.551 Y147.006 E48.91326
G1 X38.449 Y146.903 E48.91781
G1 X38.403 Y146.73 E48.92342
G1 X38.403 Y91.321 E50.66073
G1 X38.449 Y91.149 E50.66631
G1 X38.507 Y91.092 E50.66886
G1 X38.704 Y91.138 F9000
G1 E48.26886 F1800
;WIPE_START
G1 F7200
G1 X38.721 Y91.005 E48.214
G1 X45.227 Y91.055 E46.66886
;WIPE_END
G92 E0
G1 Z.275 F9000
G1 X157.16 Y64.082
G1 Z.2
G1 E4 F1800
;TYPE:Solid infill
;WIDTH:0.420616
G1 X158.221 Y65.142 E4.0471
G1 X158.935 Y66.391 E4.09228
G1 X156.944 Y64.4 E4.18071
G1 X156.603 Y64.593 E4.19302
G1 X159.649 Y67.639 E4.32831
G1 X160.363 Y68.887 E4.37347
G1 X156.263 Y64.787 E4.55557
G1 X155.922 Y64.98 E4.56788
G1 X161.077 Y70.135 E4.79683
G1 X161.791 Y71.383 E4.84199
G1 X155.883 Y65.475 E5.10439
G1 X155.883 Y66.009 E5.12116
G1 X162.504 Y72.631 E5.41525
G1 X163.218 Y73.879 E5.46041
G1 X155.883 Y66.543 E5.78621
G1 X155.883 Y67.078 E5.80301
G1 X163.932 Y75.127 E6.1605
G1 X164.646 Y76.375 E6.20566
G1 X155.883 Y67.612 E6.59486
G1 X155.883 Y68.146 E6.61163
G1 X165.36 Y77.623 E7.03254
G1 X166.074 Y78.871 E7.0777
G1 X155.883 Y68.68 E7.53032
G1 X155.883 Y69.214 E7.54709
G1 X166.788 Y80.119 E8.03143
G1 X167.502 Y81.367 E8.07659
G1 X155.883 Y69.748 E8.59264
G1 X155.883 Y70.282 E8.60941
G1 X168.216 Y82.616 E9.15719
G1 X168.93 Y83.864 E9.20235
G1 X155.883 Y70.817 E9.78182
G1 X155.883 Y71.351 E9.79859
G1 X169.644 Y85.112 E10.40977
G1 X170.358 Y86.36 E10.45493
G1 X155.883 Y71.885 E11.09782
G1 X155.883 Y72.419 E11.11459
G1 X170.959 Y87.495 E11.78418
G1 X171.132 Y88.052 E11.8025
G1 X171.156 Y88.226 E11.80802
G1 X155.883 Y72.953 E12.48636
G1 X155.883 Y73.487 E12.50313
G1 X171.217 Y88.821 E13.18418
G1 X171.217 Y89.356 E13.20098
G1 X155.883 Y74.021 E13.88205
G1 X155.883 Y74.556 E13.89885
G1 X171.217 Y89.89 E14.5799
G1 X171.217 Y90.424 E14.59667
M73 P2 R89
G1 X155.883 Y75.09 E15.27772
G1 X155.883 Y75.624 E15.29449
G1 X171.217 Y90.958 E15.97554
G1 X171.217 Y91.492 E15.99231
G1 X155.883 Y76.158 E16.67336
G1 X155.883 Y76.692 E16.69013
G1 X171.217 Y92.026 E17.37118
G1 X171.217 Y92.56 E17.38795
G1 X155.883 Y77.226 E18.069
G1 X155.883 Y77.76 E18.08577
G1 X171.217 Y93.095 E18.76684
G1 X171.217 Y93.629 E18.78361
G1 X155.883 Y78.295 E19.46466
G1 X155.883 Y78.829 E19.48143
G1 X171.217 Y94.163 E20.16248
G1 X171.217 Y94.697 E20.17925
G1 X155.883 Y79.363 E20.8603
G1 X155.883 Y79.897 E20.87707
G1 X171.217 Y95.231 E21.55812
G1 X171.217 Y95.765 E21.57489
G1 X155.883 Y80.431 E22.25594
G1 X155.883 Y80.965 E22.27271
G1 X171.217 Y96.299 E22.95376
G1 X171.217 Y96.834 E22.97056
G1 X155.883 Y81.499 E23.65163
G1 X155.883 Y82.034 E23.66843
G1 X171.217 Y97.368 E24.34948
G1 X171.217 Y97.902 E24.36625
G1 X155.883 Y82.568 E25.0473
G1 X155.883 Y83.102 E25.06407
G1 X171.217 Y98.436 E25.74512
G1 X171.217 Y98.97 E25.76189
G1 X155.883 Y83.636 E26.44294
G1 X155.883 Y84.17 E26.45971
G1 X171.217 Y99.504 E27.14076
G1 X171.217 Y100.038 E27.15753
G1 X155.883 Y84.704 E27.83858
G1 X155.883 Y85.238 E27.85535
G1 X171.217 Y100.573 E28.53642
G1 X171.217 Y101.107 E28.55319
G1 X155.883 Y85.773 E29.23424
G1 X155.883 Y86.307 E29.25101
G1 X171.217 Y101.641 E29.93206
G1 X171.217 Y102.175 E29.94883
G1 X155.883 Y86.841 E30.62988
G1 X155.883 Y87.375 E30.64665
G1 X171.217 Y102.709 E31.3277
G1 X171.217 Y103.243 E31.34447
G1 X155.883 Y87.909 E32.02552
G1 X155.883 Y88.443 E32.04229
G1 X171.217 Y103.777 E32.72334
G1 X171.217 Y104.312 E32.74014
G1 X155.883 Y88.977 E33.42121
G1 X155.883 Y89.512 E33.43801
G1 X171.217 Y104.846 E34.11906
G1 X171.217 Y105.38 E34.13583
G1 X155.883 Y90.046 E34.81688
G1 X155.883 Y90.58 E34.83365
G1 X171.217 Y105.914 E35.5147
G1 X171.217 Y106.448 E35.53147
G1 X155.883 Y91.114 E36.21252
G1 X155.883 Y91.648 E36.22929
G1 X171.217 Y106.982 E36.91034
G1 X171.217 Y107.516 E36.92711
G1 X155.883 Y92.182 E37.60816
G1 X155.883 Y92.716 E37.62493
G1 X171.217 Y108.051 E38.306
G1 X171.217 Y108.585 E38.32277
G1 X155.883 Y93.251 E39.00382
G1 X155.883 Y93.785 E39.02059
G1 X171.217 Y109.119 E39.70164
G1 X171.217 Y109.653 E39.71841
G1 X155.883 Y94.319 E40.39946
G1 X155.883 Y94.853 E40.41623
G1 X171.217 Y110.187 E41.09728
G1 X171.217 Y110.721 E41.11405
G1 X155.883 Y95.387 E41.7951
G1 X155.883 Y95.921 E41.81187
G1 X171.217 Y111.255 E42.49292
G1 X171.217 Y111.79 E42.50972
G1 X155.883 Y96.455 E43.19079
G1 X155.883 Y96.99 E43.20759
G1 X171.217 Y112.324 E43.88864
G1 X171.217 Y112.858 E43.90541
G1 X155.883 Y97.524 E44.58646
G1 X155.883 Y98.058 E44.60323
G1 X171.217 Y113.392 E45.28428
G1 X171.217 Y113.926 E45.30105
G1 X155.883 Y98.592 E45.9821
G1 X155.883 Y99.126 E45.99887
G1 X171.217 Y114.46 E46.67992
G1 X171.217 Y114.994 E46.69669
G1 X155.883 Y99.66 E47.37774
G1 X155.883 Y100.194 E47.39451
G1 X171.217 Y115.529 E48.07558
G1 X171.217 Y116.063 E48.09235
G1 X155.883 Y100.729 E48.7734
G1 X155.883 Y101.263 E48.79017
G1 X171.217 Y116.597 E49.47122
G1 X171.217 Y117.131 E49.48799
G1 X155.883 Y101.797 E50.16904
G1 X155.883 Y102.331 E50.18581
G1 X171.217 Y117.665 E50.86686
G1 X171.217 Y118.199 E50.88363
G1 X155.883 Y102.865 E51.56468
G1 X155.883 Y103.399 E51.58145
M73 P2 R88
G1 X171.217 Y118.733 E52.2625
G1 X171.217 Y119.268 E52.2793
G1 X155.883 Y103.933 E52.96037
G1 X155.883 Y104.468 E52.97717
G1 X171.217 Y119.802 E53.65822
G1 X171.217 Y120.336 E53.67499
G1 X155.883 Y105.002 E54.35604
G1 X155.883 Y105.536 E54.37281
G1 X171.217 Y120.87 E55.05386
G1 X171.217 Y121.404 E55.07063
G1 X155.883 Y106.07 E55.75168
G1 X155.883 Y106.604 E55.76845
G1 X171.217 Y121.938 E56.4495
G1 X171.217 Y122.472 E56.46627
G1 X155.883 Y107.138 E57.14732
G1 X155.883 Y107.672 E57.16409
G1 X171.217 Y123.007 E57.84516
G1 X171.217 Y123.541 E57.86193
G1 X155.883 Y108.207 E58.54298
G1 X155.883 Y108.741 E58.55975
G1 X171.217 Y124.075 E59.2408
G1 X171.217 Y124.609 E59.25757
G1 X155.883 Y109.275 E59.93862
G1 X155.883 Y109.809 E59.95539
G1 X171.217 Y125.143 E60.63644
G1 X171.217 Y125.677 E60.65321
G1 X155.883 Y110.343 E61.33426
G1 X155.883 Y110.877 E61.35103
G1 X171.217 Y126.211 E62.03208
G1 X171.217 Y126.746 E62.04888
G1 X155.883 Y111.411 E62.72995
G1 X155.883 Y111.946 E62.74675
G1 X171.217 Y127.28 E63.4278
G1 X171.217 Y127.814 E63.44457
G1 X155.407 Y112.004 E64.14676
G1 X154.869 Y112 E64.16366
G1 X171.217 Y128.348 E64.88974
G1 X171.217 Y128.882 E64.90651
M73 P3 R88
G1 X154.331 Y111.996 E65.65649
G1 X153.793 Y111.992 E65.67339
G1 X171.217 Y129.416 E66.44726
G1 X171.217 Y129.95 E66.46403
G1 X153.254 Y111.988 E67.26182
G1 X152.716 Y111.984 E67.27872
G1 X171.217 Y130.485 E68.10043
G1 X171.217 Y131.019 E68.1172
G1 X152.178 Y111.98 E68.9628
G1 X151.64 Y111.976 E68.9797
G1 X171.217 Y131.553 E69.8492
G1 X171.217 Y132.087 E69.86597
G1 X151.101 Y111.971 E70.75941
G1 X150.563 Y111.967 E70.77631
G1 X171.217 Y132.621 E71.69364
G1 X171.217 Y133.155 E71.71041
G1 X150.025 Y111.963 E72.65163
G1 X149.487 Y111.959 E72.66853
G1 X171.217 Y133.689 E73.63365
G1 X171.217 Y134.224 E73.65045
G1 X148.948 Y111.955 E74.63951
G1 X148.41 Y111.951 E74.65641
G1 X171.217 Y134.758 E75.66936
G1 X171.217 Y135.292 E75.68613
G1 X147.872 Y111.947 E76.72298
G1 X147.334 Y111.943 E76.73988
G1 X171.217 Y135.826 E77.80062
G1 X171.217 Y136.36 E77.81739
G1 X146.795 Y111.939 E78.90205
G1 X146.257 Y111.934 E78.91895
G1 X171.217 Y136.894 E80.02753
G1 X171.217 Y137.428 E80.0443
G1 X145.719 Y111.93 E81.17677
G1 X145.181 Y111.926 E81.19367
G1 X171.217 Y137.963 E82.35006
G1 X171.217 Y138.497 E82.36683
G1 X144.642 Y111.922 E83.54714
G1 X144.104 Y111.918 E83.56404
G1 X171.217 Y139.031 E84.76824
G1 X171.217 Y139.565 E84.78501
G1 X143.566 Y111.914 E86.01311
G1 X143.028 Y111.91 E86.03001
G1 X171.217 Y140.099 E87.282
G1 X171.217 Y140.633 E87.29877
G1 X142.489 Y111.906 E88.57468
G1 X141.951 Y111.902 E88.59158
G1 X171.217 Y141.167 E89.89138
G1 X171.217 Y141.702 E89.90818
G1 X141.413 Y111.898 E91.2319
G1 X140.875 Y111.893 E91.2488
G1 X171.217 Y142.236 E92.59644
G1 X171.217 Y142.77 E92.61321
G1 X140.337 Y111.889 E93.98474
G1 X139.798 Y111.885 E94.00167
G1 X171.217 Y143.304 E95.39712
G1 X171.217 Y143.838 E95.41389
G1 X139.26 Y111.881 E96.83323
G1 X138.722 Y111.877 E96.85013
G1 X171.217 Y144.372 E98.29337
G1 X171.217 Y144.906 E98.31014
G1 X138.184 Y111.873 E99.77727
G1 X137.645 Y111.869 E99.7942
G1 X155.363 Y129.586 E100.58111
G1 X155.883 Y129.59 E100.59744
G1 X155.883 Y130.106 E100.61365
G1 X171.217 Y145.441 E101.29472
G1 X171.217 Y145.975 E101.31149
G1 X155.883 Y130.641 E101.99254
G1 X155.883 Y131.175 E102.00931
G1 X171.217 Y146.509 E102.69036
G1 X171.217 Y147.019 E102.70638
G1 X171.193 Y147.019 E102.70713
G1 X155.883 Y131.709 E103.38711
G1 X155.883 Y132.243 E103.40388
G1 X170.655 Y147.015 E104.05997
G1 X170.117 Y147.011 E104.07687
G1 X155.883 Y132.777 E104.70906
G1 X155.883 Y133.311 E104.72583
G1 X169.578 Y147.007 E105.3341
G1 X169.04 Y147.003 E105.351
G1 X155.883 Y133.845 E105.93538
G1 X155.883 Y134.38 E105.95218
G1 X168.502 Y146.999 E106.51264
G1 X167.964 Y146.994 E106.52954
G1 X155.883 Y134.914 E107.06609
G1 X155.883 Y135.448 E107.08286
M73 P3 R87
G1 X167.425 Y146.99 E107.59549
G1 X166.887 Y146.986 E107.61239
G1 X155.883 Y135.982 E108.10112
G1 X155.883 Y136.516 E108.11789
G1 X166.349 Y146.982 E108.58273
G1 X165.811 Y146.978 E108.59963
G1 X155.883 Y137.05 E109.04057
G1 X155.883 Y137.584 E109.05734
G1 X165.272 Y146.974 E109.47437
G1 X164.734 Y146.97 E109.49127
G1 X155.883 Y138.119 E109.88438
G1 X155.883 Y138.653 E109.90115
G1 X164.196 Y146.966 E110.27036
G1 X163.658 Y146.962 E110.28726
G1 X155.883 Y139.187 E110.63258
G1 X155.883 Y139.721 E110.64935
G1 X163.119 Y146.958 E110.97075
G1 X162.581 Y146.953 E110.98765
G1 X155.883 Y140.255 E111.28514
G1 X155.883 Y140.789 E111.30191
G1 X162.043 Y146.949 E111.5755
G1 X161.505 Y146.945 E111.5924
G1 X155.883 Y141.323 E111.8421
G1 X155.883 Y141.858 E111.8589
G1 X160.966 Y146.941 E112.08466
G1 X160.428 Y146.937 E112.10156
G1 X155.883 Y142.392 E112.30342
G1 X155.883 Y142.926 E112.32019
G1 X159.89 Y146.933 E112.49816
G1 X159.352 Y146.929 E112.51506
G1 X155.883 Y143.46 E112.66913
G1 X155.883 Y143.994 E112.6859
G1 X158.813 Y146.925 E112.81606
G1 X158.275 Y146.921 E112.83296
G1 X155.883 Y144.528 E112.93922
G1 X155.883 Y145.062 E112.95599
G1 X157.737 Y146.916 E113.03833
G1 X157.199 Y146.912 E113.05523
G1 X155.883 Y145.597 E113.11366
G1 X155.883 Y146.131 E113.13043
G1 X156.66 Y146.908 E113.16494
G1 X156.122 Y146.904 E113.18184
G1 X155.713 Y146.495 E113.20001
G1 E110.80001
;WIPE_START
G1 F7200
G1 X156.122 Y146.904 E110.66264
G1 X156.66 Y146.908 E110.53486
G1 X155.883 Y146.131 E110.27388
G1 X155.883 Y145.597 E110.14706
G1 X157.199 Y146.912 E109.70522
G1 X157.737 Y146.916 E109.57744
G1 X156.613 Y145.792 E109.20001
;WIPE_END
G92 E0
G1 Z.275 F9000
G1 X154.996 Y129.753
G1 Z.2
G1 E4 F1800
G1 X137.107 Y111.865 E4.7945
G1 X136.569 Y111.861 E4.8114
G1 X154.286 Y129.578 E5.59829
G1 X153.748 Y129.574 E5.61519
M73 P4 R87
G1 X136.031 Y111.857 E6.40208
G1 X135.492 Y111.852 E6.41901
G1 X153.21 Y129.57 E7.20594
G1 X152.672 Y129.566 E7.22284
G1 X134.954 Y111.848 E8.00977
G1 X134.416 Y111.844 E8.02667
G1 X152.133 Y129.562 E8.81358
G1 X151.595 Y129.558 E8.83048
G1 X133.878 Y111.84 E9.61739
G1 X133.339 Y111.836 E9.63432
G1 X151.057 Y129.553 E10.42123
G1 X150.519 Y129.549 E10.43813
G1 X132.801 Y111.832 E11.22504
G1 X132.263 Y111.828 E11.24194
G1 X149.98 Y129.545 E12.02883
G1 X149.442 Y129.541 E12.04573
G1 X131.725 Y111.824 E12.83262
G1 X131.186 Y111.82 E12.84955
G1 X148.904 Y129.537 E13.63646
G1 X148.366 Y129.533 E13.65336
G1 X130.648 Y111.815 E14.44029
G1 X130.11 Y111.811 E14.45719
G1 X147.827 Y129.529 E15.2441
G1 X147.289 Y129.525 E15.261
G1 X129.572 Y111.807 E16.04791
G1 X129.033 Y111.803 E16.06484
G1 X146.751 Y129.521 E16.85177
G1 X146.213 Y129.517 E16.86867
G1 X128.495 Y111.799 E17.6556
G1 X127.957 Y111.795 E17.6725
G1 X145.674 Y129.512 E18.45939
G1 X145.136 Y129.508 E18.47629
G1 X127.419 Y111.791 E19.26318
G1 X126.88 Y111.787 E19.28011
G1 X144.598 Y129.504 E20.06702
G1 X144.06 Y129.5 E20.08392
G1 X126.342 Y111.783 E20.87083
G1 X125.804 Y111.779 E20.88773
G1 X143.521 Y129.496 E21.67462
G1 X142.983 Y129.492 E21.69152
G1 X125.266 Y111.774 E22.47843
G1 X124.727 Y111.77 E22.49536
G1 X142.445 Y129.488 E23.28229
G1 X141.907 Y129.484 E23.29919
G1 X124.189 Y111.766 E24.08612
