; generated by PrusaSlicer 2.6.0-alpha6+linux-x64-GTK3 on 2023-04-17 at 04:39:00 UTC


;
;

;
;
; 

; external perimeters extrusion width = 0.45mm
; perimeters extrusion width = 0.45mm
; infill extrusion width = 0.45mm
; solid infill extrusion width = 0.45mm
; top infill extrusion width = 0.40mm
; first layer extrusion width = 0.42mm

M73 P0 R87
;TYPE:Custom
G90 ; use absolute coordinates
M82 ; extruder absolute mode

M204 S1250 T1250
M104 S210 ; set extruder temp
M140 S60 ; set bed temp
G28 ; home all

G1 Y1.0 Z0.3 F1000 ; move print head up

M190 S60 ; wait for bed temp
M109 S210 ; wait for extruder temp
G92 E0.0

; initial load
G1 X205.0 E19 F1000
G1 Y1.6
G1 X5.0 E19 F1000
G92 E0.0

; intro line
G1 Y2.0 Z0.2 F1000
M73 P0 R86
G1 X65.0 E9.0 F1000
G1 X105.0 E12.5 F1000
G92 E0.0
G21 ; set units to millimeters
G90 ; use absolute coordinates
M82 ; use absolute distances for extrusion
G92 E0
; Filament gcode
M107
;LAYER_CHANGE
;Z:0.2
;HEIGHT:0.2
;BEFORE_LAYER_CHANGE
; G92 E0.0
;0.2
G1 E-4 F1800
G92 E0
G1 Z.075 F9000
G1 Z.2
;AFTER_LAYER_CHANGE
;0.2
G1 Z.275
G1 X48.403 Y58.654
G1 Z.2
G1 E4 F1800
;TYPE:Skirt/Brim
;WIDTH:0.42
G1 X50.958 Y57.439 E4.08871
G1 X51.391 Y57.361 E4.1025
G1 X53.58 Y57.42 E4.17116
G1 X172.543 Y85.562 E8.00411
G1 X172.918 Y85.659 E8.01625
G1 X175.271 Y86.977 E8.10081
G1 X175.453 Y87.152 E8.10873
G1 X176.899 Y89.544 E8.19637
G1 X177.184 Y91.293 E8.25193
G1 X177.184 Y146.758 E9.991
G1 X176.93 Y148.412 E10.04347
G1 X175.555 Y150.799 E10.12984
G1 X175.375 Y150.981 E10.13787
G1 X172.999 Y152.374 E10.22423
G1 X171.346 Y152.64 E10.27673
G1 X38.079 Y153.649 E14.45534
G1 X36.418 Y153.406 E14.50797
G1 X33.998 Y152.023 E14.59536
G1 X33.818 Y151.845 E14.6033
G1 X32.415 Y149.435 E14.69074
G1 X32.159 Y147.774 E14.74343
G1 X32.159 Y88.588 E16.59917
G1 X32.319 Y87.052 E16.64759
G1 X32.75 Y85.418 E16.70058
G1 X33.586 Y83.606 E16.76315
G1 X46.874 Y60.377 E17.60223
G1 X48.035 Y58.97 E17.65943
G1 X48.357 Y58.693 E17.67275
; printing object corne_wedge_5x5.stl id:0 copy 0
G1 E15.27275
;WIPE_START
G1 F7200
G1 X50.958 Y57.439 E14.58697
G1 X51.391 Y57.361 E14.48248
G1 X53.58 Y57.42 E13.9624
G1 X54.767 Y57.701 E13.67275
;WIPE_END
G92 E0
G1 Z.275 F9000
G1 X52.305 Y63.662
G1 Z.2
G1 E4 F1800
;TYPE:Perimeter
G1 X54.4 Y64.838 E4.07533
G1 X54.4 Y111.723 E5.54538
G1 X156.71 Y110.943 E8.75333
G1 X156.71 Y91.87 E9.35135
G1 X170.843 Y91.762 E9.79449
M73 P1 R86
G1 X170.843 Y146.303 E11.50458
G1 X156.71 Y146.411 E11.94772
G1 X156.71 Y129.091 E12.49078
G1 X54.4 Y129.871 E15.69873
G1 X54.4 Y147.183 E16.24154
G1 X38.5 Y147.304 E16.74009
G1 X38.5 Y88.654 E18.57902
G1 X38.591 Y87.991 E18.6
G1 X38.784 Y87.367 E18.62048
G1 X39.103 Y86.732 E18.64276
G1 X52.272 Y63.711 E19.47432
G1 X52.17 Y63.281 F9000
G1 F1800
G1 X52.296 Y63.258 E19.47834
G1 X52.526 Y63.341 E19.48601
G1 X54.777 Y64.618 E19.56715
G1 X54.777 Y111.343 E21.03218
G1 X156.333 Y110.569 E24.21649
G1 X156.333 Y91.496 E24.81451
G1 X171.22 Y91.382 E25.2813
G1 X171.22 Y146.677 E27.01504
G1 X156.333 Y146.791 E27.48183
G1 X156.333 Y129.471 E28.02489
G1 X54.777 Y130.245 E31.2092
G1 X54.777 Y147.557 E31.75201
G1 X38.123 Y147.684 E32.2742
G1 X38.123 Y88.628 E34.12586
G1 X38.222 Y87.909 E34.14862
G1 X38.433 Y87.225 E34.17106
G1 X38.771 Y86.554 E34.19462
G1 X52.001 Y63.426 E35.03004
G1 X52.124 Y63.32 E35.03513
M73 P1 R85
G1 X52.002 Y62.928 F9000
;TYPE:External perimeter
G1 F1800
G1 X52.328 Y62.869 E35.04552
G1 X52.684 Y62.997 E35.05738
G1 X55.154 Y64.399 E35.14643
G1 X55.154 Y110.963 E36.60641
G1 X155.956 Y110.194 E39.76708
G1 X155.956 Y91.122 E40.36507
G1 X171.279 Y91.005 E40.84553
G1 X171.451 Y91.05 E40.8511
G1 X171.551 Y91.149 E40.85551
G1 X171.597 Y91.321 E40.86109
G1 X171.597 Y146.73 E42.5984
G1 X171.551 Y146.903 E42.60401
G1 X171.449 Y147.006 E42.60856
G1 X171.276 Y147.054 E42.61419
G1 X155.956 Y147.171 E43.09455
G1 X155.956 Y129.851 E43.63761
G1 X55.154 Y130.619 E46.79828
G1 X55.154 Y147.931 E47.34109
G1 X38.065 Y148.062 E47.87692
G1 X37.893 Y148.017 E47.88249
G1 X37.792 Y147.917 E47.88695
G1 X37.746 Y147.746 E47.8925
G1 X37.746 Y88.602 E49.74692
G1 X37.852 Y87.827 E49.77145
G1 X38.083 Y87.084 E49.79585
G1 X38.439 Y86.375 E49.82073
G1 X51.706 Y63.182 E50.6585
G1 X51.957 Y62.967 E50.66886
G1 X52.279 Y63.109 F9000
G1 E48.26886 F1800
;WIPE_START
G1 F7200
G1 X52.328 Y62.869 E48.17773
G1 X52.684 Y62.997 E48.08788
G1 X55.154 Y64.399 E47.41334
G1 X55.154 Y67.534 E46.66886
;WIPE_END
G92 E0
G1 Z.275 F9000
G1 X169.972 Y91.882
G1 Z.2
G1 E4 F1800
;TYPE:Solid infill
;WIDTH:0.42066
G1 X170.56 Y92.47 E4.02612
G1 X170.56 Y93.004 E4.04289
G1 X169.61 Y92.055 E4.08507
G1 X169.08 Y92.059 E4.10172
G1 X170.56 Y93.539 E4.16746
G1 X170.56 Y94.073 E4.18423
G1 X168.55 Y92.063 E4.27351
G1 X168.02 Y92.067 E4.29016
G1 X170.56 Y94.607 E4.40299
G1 X170.56 Y95.141 E4.41976
G1 X167.49 Y92.071 E4.55613
G1 X166.96 Y92.075 E4.57278
G1 X170.56 Y95.675 E4.73269
G1 X170.56 Y96.21 E4.74949
G1 X166.429 Y92.079 E4.93299
G1 X165.899 Y92.083 E4.94964
G1 X170.56 Y96.744 E5.15668
G1 X170.56 Y97.278 E5.17345
G1 X165.369 Y92.087 E5.40403
G1 X164.839 Y92.091 E5.42068
G1 X170.56 Y97.812 E5.6748
G1 X170.56 Y98.347 E5.6916
G1 X164.309 Y92.095 E5.96929
G1 X163.779 Y92.099 E5.98594
G1 X170.56 Y98.881 E6.28717
G1 X170.56 Y99.415 E6.30394
G1 X163.249 Y92.103 E6.62871
G1 X162.718 Y92.107 E6.64539
G1 X170.56 Y99.949 E6.99373
G1 X170.56 Y100.483 E7.0105
G1 X162.188 Y92.111 E7.38238
G1 X161.658 Y92.115 E7.39903
G1 X170.56 Y101.018 E7.79447
G1 X170.56 Y101.552 E7.81124
G1 X161.128 Y92.119 E8.23023
G1 X160.598 Y92.123 E8.24688
G1 X170.56 Y102.086 E8.68941
G1 X170.56 Y102.62 E8.70618
G1 X160.068 Y92.127 E9.17225
G1 X159.537 Y92.131 E9.18893
G1 X170.56 Y103.154 E9.67856
G1 X170.56 Y103.689 E9.69536
M73 P2 R85
G1 X159.007 Y92.135 E10.20856
G1 X158.477 Y92.14 E10.22521
G1 X170.56 Y104.223 E10.76193
G1 X170.56 Y104.757 E10.7787
G1 X157.947 Y92.144 E11.33896
G1 X157.417 Y92.148 E11.35561
G1 X170.56 Y105.291 E11.93941
G1 X170.56 Y105.825 E11.95618
G1 X156.993 Y92.258 E12.55882
G1 X156.993 Y92.792 E12.57559
G1 X170.56 Y106.36 E13.17825
G1 X170.56 Y106.894 E13.19502
G1 X156.993 Y93.327 E13.79766
G1 X156.993 Y93.861 E13.81443
G1 X170.56 Y107.428 E14.41707
G1 X170.56 Y107.962 E14.43384
G1 X156.993 Y94.395 E15.03648
G1 X156.993 Y94.929 E15.05325
G1 X170.56 Y108.496 E15.65589
G1 X170.56 Y109.031 E15.67269
G1 X156.993 Y95.463 E16.27535
G1 X156.993 Y95.998 E16.29215
G1 X170.56 Y109.565 E16.89479
G1 X170.56 Y110.099 E16.91156
G1 X156.993 Y96.532 E17.5142
G1 X156.993 Y97.066 E17.53097
G1 X170.56 Y110.633 E18.13361
G1 X170.56 Y111.167 E18.15038
G1 X156.993 Y97.6 E18.75302
G1 X156.993 Y98.134 E18.76979
G1 X170.56 Y111.702 E19.37245
G1 X170.56 Y112.236 E19.38922
G1 X156.993 Y98.669 E19.99186
G1 X156.993 Y99.203 E20.00863
G1 X170.56 Y112.77 E20.61127
G1 X170.56 Y113.304 E20.62804
G1 X156.993 Y99.737 E21.23068
G1 X156.993 Y100.271 E21.24745
G1 X170.56 Y113.838 E21.85009
G1 X170.56 Y114.373 E21.86689
G1 X156.993 Y100.805 E22.46955
G1 X156.993 Y101.34 E22.48635
G1 X170.56 Y114.907 E23.08899
G1 X170.56 Y115.441 E23.10576
G1 X156.993 Y101.874 E23.7084
G1 X156.993 Y102.408 E23.72517
G1 X170.56 Y115.975 E24.32781
G1 X170.56 Y116.509 E24.34458
G1 X156.993 Y102.942 E24.94722
G1 X156.993 Y103.477 E24.96402
G1 X170.56 Y117.044 E25.56666
G1 X170.56 Y117.578 E25.58343
G1 X156.993 Y104.011 E26.18607
G1 X156.993 Y104.545 E26.20284
G1 X170.56 Y118.112 E26.80548
G1 X170.56 Y118.646 E26.82225
G1 X156.993 Y105.079 E27.42489
G1 X156.993 Y105.613 E27.44166
G1 X170.56 Y119.181 E28.04432
G1 X170.56 Y119.715 E28.06109
G1 X156.993 Y106.148 E28.66373
G1 X156.993 Y106.682 E28.6805
G1 X170.56 Y120.249 E29.28314
G1 X170.56 Y120.783 E29.29991
G1 X156.993 Y107.216 E29.90255
G1 X156.993 Y107.75 E29.91932
G1 X170.56 Y121.317 E30.52196
G1 X170.56 Y121.852 E30.53876
G1 X156.993 Y108.284 E31.14142
G1 X156.993 Y108.819 E31.15822
G1 X170.56 Y122.386 E31.76086
G1 X170.56 Y122.92 E31.77763
G1 X156.993 Y109.353 E32.38027
G1 X156.993 Y109.887 E32.39704
G1 X170.56 Y123.454 E32.99968
G1 X170.56 Y123.988 E33.01645
G1 X156.993 Y110.421 E33.61909
G1 X156.993 Y110.955 E33.63586
G1 X170.56 Y124.523 E34.23852
G1 X170.56 Y125.057 E34.25529
G1 X156.729 Y111.225 E34.86968
G1 X156.199 Y111.229 E34.88633
G1 X170.56 Y125.591 E35.52426
G1 X170.56 Y126.125 E35.54103
G1 X155.669 Y111.234 E36.20248
G1 X155.138 Y111.238 E36.21916
G1 X170.56 Y126.659 E36.90417
G1 X170.56 Y127.194 E36.92097
G1 X154.608 Y111.242 E37.62955
G1 X154.078 Y111.246 E37.6462
G1 X170.56 Y127.728 E38.37832
G1 X170.56 Y128.262 E38.39509
G1 X153.548 Y111.25 E39.15075
G1 X153.018 Y111.254 E39.1674
G1 X170.56 Y128.796 E39.9466
G1 X170.56 Y129.33 E39.96337
G1 X152.488 Y111.258 E40.76612
G1 X151.958 Y111.262 E40.78277
G1 X170.56 Y129.865 E41.60908
G1 X170.56 Y130.399 E41.62585
M73 P2 R84
G1 X151.427 Y111.266 E42.47573
G1 X150.897 Y111.27 E42.49238
G1 X170.56 Y130.933 E43.3658
G1 X170.56 Y131.467 E43.38257
G1 X150.367 Y111.274 E44.27953
G1 X149.837 Y111.278 E44.29618
G1 X170.56 Y132.001 E45.21668
G1 X170.56 Y132.536 E45.23348
G1 X149.307 Y111.282 E46.17755
G1 X148.777 Y111.286 E46.1942
G1 X170.56 Y133.07 E47.16181
G1 X170.56 Y133.604 E47.17858
G1 X148.246 Y111.29 E48.16975
G1 X147.716 Y111.294 E48.1864
G1 X170.56 Y134.138 E49.20112
G1 X170.56 Y134.672 E49.21789
G1 X147.186 Y111.298 E50.25615
G1 X146.656 Y111.302 E50.2728
G1 X170.56 Y135.207 E51.33462
G1 X170.56 Y135.741 E51.35139
G1 X146.126 Y111.306 E52.43675
G1 X145.596 Y111.31 E52.4534
G1 X170.56 Y136.275 E53.56231
G1 X170.56 Y136.809 E53.57908
G1 X145.065 Y111.314 E54.71155
G1 X144.535 Y111.318 E54.7282
G1 X170.56 Y137.343 E55.88421
G1 X170.56 Y137.878 E55.90101
G1 X144.005 Y111.322 E57.08059
G1 X143.475 Y111.327 E57.09724
G1 X170.56 Y138.412 E58.30034
G1 X170.56 Y138.946 E58.31711
M73 P3 R84
G1 X142.945 Y111.331 E59.54375
G1 X142.415 Y111.335 E59.5604
G1 X170.56 Y139.48 E60.81058
G1 X170.56 Y140.015 E60.82738
G1 X141.884 Y111.339 E62.10115
G1 X141.354 Y111.343 E62.1178
G1 X170.56 Y140.549 E63.41511
G1 X170.56 Y141.083 E63.43188
G1 X140.824 Y111.347 E64.75273
G1 X140.294 Y111.351 E64.76938
G1 X170.56 Y141.617 E66.11378
G1 X170.56 Y142.151 E66.13055
G1 X139.764 Y111.355 E67.49849
G1 X139.234 Y111.359 E67.51514
G1 X170.56 Y142.686 E68.90664
G1 X170.56 Y143.22 E68.92341
G1 X156.993 Y129.653 E69.52605
G1 X156.993 Y130.187 E69.54282
G1 X170.56 Y143.754 E70.14546
G1 X170.56 Y144.288 E70.16223
G1 X156.993 Y130.721 E70.76487
G1 X156.993 Y131.255 E70.78164
G1 X170.56 Y144.822 E71.38428
G1 X170.56 Y145.357 E71.40108
G1 X156.993 Y131.789 E72.00374
G1 X156.993 Y132.324 E72.02054
G1 X170.56 Y145.891 E72.62318
G1 X170.56 Y146.022 E72.62729
G1 X170.161 Y146.025 E72.63982
G1 X156.993 Y132.858 E73.22471
G1 X156.993 Y133.392 E73.24148
G1 X169.63 Y146.029 E73.80281
G1 X169.1 Y146.033 E73.81946
G1 X156.993 Y133.926 E74.35724
G1 X156.993 Y134.46 E74.37401
G1 X168.57 Y146.037 E74.88825
G1 X168.04 Y146.041 E74.9049
G1 X156.993 Y134.995 E75.39558
G1 X156.993 Y135.529 E75.41235
G1 X167.51 Y146.045 E75.87949
G1 X166.98 Y146.05 E75.89614
G1 X156.993 Y136.063 E76.33976
G1 X156.993 Y136.597 E76.35653
G1 X166.449 Y146.054 E76.77658
G1 X165.919 Y146.058 E76.79323
G1 X156.993 Y137.131 E77.18974
G1 X156.993 Y137.666 E77.20654
G1 X165.389 Y146.062 E77.57948
G1 X164.859 Y146.066 E77.59613
G1 X156.993 Y138.2 E77.94553
G1 X156.993 Y138.734 E77.9623
G1 X164.329 Y146.07 E78.28816
G1 X163.799 Y146.074 E78.30481
G1 X156.993 Y139.268 E78.60713
G1 X156.993 Y139.802 E78.6239
G1 X163.268 Y146.078 E78.90265
G1 X162.738 Y146.082 E78.9193
G1 X156.993 Y140.337 E79.17449
G1 X156.993 Y140.871 E79.19126
G1 X162.208 Y146.086 E79.42291
G1 X161.678 Y146.09 E79.43956
G1 X156.993 Y141.405 E79.64766
G1 X156.993 Y141.939 E79.66443
G1 X161.148 Y146.094 E79.84899
G1 X160.618 Y146.098 E79.86564
G1 X156.993 Y142.473 E80.02666
G1 X156.993 Y143.008 E80.04346
G1 X160.087 Y146.102 E80.18089
G1 X159.557 Y146.106 E80.19754
G1 X156.993 Y143.542 E80.31143
G1 X156.993 Y144.076 E80.3282
G1 X159.027 Y146.11 E80.41855
G1 X158.497 Y146.114 E80.4352
G1 X156.993 Y144.61 E80.50201
G1 X156.993 Y145.144 E80.51878
G1 X157.967 Y146.118 E80.56204
G1 X157.437 Y146.122 E80.57869
G1 X156.823 Y145.509 E80.60594
G1 E78.20594
;WIPE_START
G1 F7200
G1 X157.437 Y146.122 E77.99988
G1 X157.967 Y146.118 E77.874
G1 X156.993 Y145.144 E77.54686
G1 X156.993 Y144.61 E77.42004
G1 X158.497 Y146.114 E76.91488
G1 X159.027 Y146.11 E76.789
G1 X158.482 Y145.565 E76.60594
;WIPE_END
G92 E0
G1 Z.275 F9000
G1 X156.321 Y128.981
G1 Z.2
G1 E4 F1800
G1 X138.703 Y111.363 E4.78258
G1 X138.173 Y111.367 E4.79923
G1 X155.623 Y128.816 E5.57433
G1 X155.092 Y128.82 E5.59101
G1 X137.643 Y111.371 E6.36608
G1 X137.113 Y111.375 E6.38273
G1 X154.562 Y128.824 E7.1578
G1 X154.032 Y128.828 E7.17445
G1 X136.583 Y111.379 E7.94952
G1 X136.053 Y111.383 E7.96617
G1 X153.502 Y128.832 E8.74124
G1 X152.972 Y128.836 E8.75789
G1 X135.522 Y111.387 E9.53299
G1 X134.992 Y111.391 E9.54964
G1 X152.442 Y128.841 E10.32476
G1 X151.911 Y128.845 E10.34144
G1 X134.462 Y111.395 E11.11654
G1 X133.932 Y111.399 E11.13319
G1 X151.381 Y128.849 E11.90829
G1 X150.851 Y128.853 E11.92494
G1 X133.402 Y111.403 E12.70004
G1 X132.872 Y111.407 E12.71669
G1 X150.321 Y128.857 E13.49179
G1 X149.791 Y128.861 E13.50844
G1 X132.341 Y111.411 E14.28356
G1 X131.811 Y111.415 E14.30021
G1 X149.261 Y128.865 E15.07533
G1 X148.731 Y128.869 E15.09198
G1 X131.281 Y111.419 E15.8671
G1 X130.751 Y111.424 E15.88375
G1 X148.2 Y128.873 E16.65882
G1 X147.67 Y128.877 E16.67547
G1 X130.221 Y111.428 E17.45054
G1 X129.691 Y111.432 E17.46719
G1 X147.14 Y128.881 E18.24226
G1 X146.61 Y128.885 E18.25891
G1 X129.161 Y111.436 E19.03398
G1 X128.63 Y111.44 E19.05066
G1 X146.08 Y128.889 E19.82576
G1 X145.55 Y128.893 E19.84241
M73 P3 R83
G1 X128.1 Y111.444 E20.61751
G1 X127.57 Y111.448 E20.63416
G1 X145.019 Y128.897 E21.40923
G1 X144.489 Y128.901 E21.42588
G1 X127.04 Y111.452 E22.20095
G1 X126.51 Y111.456 E22.2176
G1 X143.959 Y128.905 E22.99267
G1 X143.429 Y128.909 E23.00932
G1 X125.98 Y111.46 E23.78439
G1 X125.449 Y111.464 E23.80107
G1 X142.899 Y128.913 E24.57617
G1 X142.369 Y128.917 E24.59282
G1 X124.919 Y111.468 E25.36792
G1 X124.389 Y111.472 E25.38457
G1 X141.838 Y128.921 E26.15964
G1 X141.308 Y128.925 E26.17629
G1 X123.859 Y111.476 E26.95136
G1 X123.329 Y111.48 E26.96801
G1 X140.778 Y128.929 E27.74308
G1 X140.248 Y128.934 E27.75973
G1 X122.799 Y111.484 E28.53483
G1 X122.268 Y111.488 E28.55151
G1 X139.718 Y128.938 E29.32663
G1 X139.188 Y128.942 E29.34328
M73 P4 R83
G1 X121.738 Y111.492 E30.1184
G1 X121.208 Y111.496 E30.13505
G1 X138.657 Y128.946 E30.91015
G1 X138.127 Y128.95 E30.9268
G1 X120.678 Y111.5 E31.7019
G1 X120.148 Y111.504 E31.71855
G1 X137.597 Y128.954 E32.49365
G1 X137.067 Y128.958 E32.5103
G1 X119.618 Y111.508 E33.2854
G1 X119.087 Y111.512 E33.30208
G1 X136.537 Y128.962 E34.0772
G1 X136.007 Y128.966 E34.09385
G1 X118.557 Y111.517 E34.86895
G1 X118.027 Y111.521 E34.8856
G1 X135.476 Y128.97 E35.66067
G1 X134.946 Y128.974 E35.67732
G1 X117.497 Y111.525 E36.45239
G1 X116.967 Y111.529 E36.46904
G1 X134.416 Y128.978 E37.24411
G1 X133.886 Y128.982 E37.26076
G1 X116.437 Y111.533 E38.03583
G1 X115.906 Y111.537 E38.05251
G1 X133.356 Y128.986 E38.82761
G1 X132.826 Y128.99 E38.84426
G1 X115.376 Y111.541 E39.61936
G1 X114.846 Y111.545 E39.63601
G1 X132.295 Y128.994 E40.41108
G1 X131.765 Y128.998 E40.42773
G1 X114.316 Y111.549 E41.2028
G1 X113.786 Y111.553 E41.21945
G1 X131.235 Y129.002 E41.99452
G1 X130.705 Y129.006 E42.01117
G1 X113.256 Y111.557 E42.78624
G1 X112.725 Y111.561 E42.80292
G1 X130.175 Y129.01 E43.57802
G1 X129.645 Y129.014 E43.59467
G1 X112.195 Y111.565 E44.36977
G1 X111.665 Y111.569 E44.38642
G1 X129.114 Y129.018 E45.16149
G1 X128.584 Y129.022 E45.17814
G1 X111.135 Y111.573 E45.95321
G1 X110.605 Y111.577 E45.96986
G1 X128.054 Y129.026 E46.74493
G1 X127.524 Y129.031 E46.76158
G1 X110.075 Y111.581 E47.53668
G1 X109.545 Y111.585 E47.55333
G1 X126.994 Y129.035 E48.32843
G1 X126.464 Y129.039 E48.34508
G1 X109.014 Y111.589 E49.1202
G1 X108.484 Y111.593 E49.13685
G1 X125.934 Y129.043 E49.91197
G1 X125.403 Y129.047 E49.92865
G1 X107.954 Y111.597 E50.70375
