; generated by PrusaSlicer 2.6.0-alpha6+linux-x64-GTK3 on 2023-04-16 at 03:03:00 UTC


;
;

;
;
; 

; external perimeters extrusion width = 0.45mm
; perimeters extrusion width = 0.45mm
; infill extrusion width = 0.45mm
; solid infill extrusion width = 0.45mm
; top infill extrusion width = 0.40mm
; first layer extrusion width = 0.42mm

M73 P0 R81
;TYPE:Custom
G90 ; use absolute coordinates
M82 ; extruder absolute mode

M204 S1250 T1250
M104 S210 ; set extruder temp
M140 S60 ; set bed temp
G28 ; home all

G1 Y1.0 Z0.3 F1000 ; move print head up

M190 S60 ; wait for bed temp
M109 S210 ; wait for extruder temp
G92 E0.0

; initial load
G1 X205.0 E19 F1000
G1 Y1.6
G1 X5.0 E19 F1000
G92 E0.0

; intro line
G1 Y2.0 Z0.2 F1000
G1 X65.0 E9.0 F1000
G1 X105.0 E12.5 F1000
G92 E0.0
G21 ; set units to millimeters
G90 ; use absolute coordinates
M82 ; use absolute distances for extrusion
G92 E0
; Filament gcode
M107
;LAYER_CHANGE
;Z:0.2
;HEIGHT:0.2
;BEFORE_LAYER_CHANGE
; G92 E0.0
;0.2
M73 P0 R80
G1 E-4 F1800
G92 E0
G1 Z.075 F9000
G1 Z.2
;AFTER_LAYER_CHANGE
;0.2
G1 Z.275
G1 X36.038 Y61.306
G1 Z.2
G1 E4 F1800
;TYPE:Skirt/Brim
;WIDTH:0.42
G1 X36.889 Y60.806 E4.03095
G1 X37.953 Y60.568 E4.06514
G1 X75.955 Y55.818 E5.26594
G1 X94.991 Y53.564 E5.86697
G1 X113.257 Y53.564 E6.43969
G1 X172.019 Y60.573 E8.29519
G1 X173.036 Y60.789 E8.32779
G1 X175.433 Y62.176 E8.41462
G1 X175.613 Y62.356 E8.4226
G1 X177.002 Y64.754 E8.50949
G1 X177.257 Y66.412 E8.56209
G1 X177.257 Y125.372 E10.41074
G1 X177.097 Y126.905 E10.45907
G1 X176.665 Y128.543 E10.51218
G1 X175.828 Y130.349 E10.57459
G1 X162.591 Y153.389 E11.40773
G1 X161.416 Y154.802 E11.46535
G1 X161.05 Y155.114 E11.48043
G1 X158.474 Y156.321 E11.56963
G1 X158.038 Y156.396 E11.5835
G1 X155.851 Y156.32 E11.65211
G1 X37.215 Y127.348 E15.48117
G1 X36.963 Y127.28 E15.48935
G1 X34.564 Y125.89 E15.57628
G1 X34.384 Y125.711 E15.58424
G1 X32.997 Y123.313 E15.6711
G1 X32.745 Y121.665 E15.72337
G1 X32.743 Y66.404 E17.45604
G1 X32.997 Y64.748 E17.50857
G1 X34.386 Y62.349 E17.59549
G1 X34.56 Y62.175 E17.60321
G1 X35.986 Y61.337 E17.65507
; printing object corne_base_magnets.stl id:0 copy 0
G1 E15.25507
;WIPE_START
G1 F7200
G1 X36.889 Y60.806 E15.00628
G1 X37.953 Y60.568 E14.74734
G1 X42.517 Y59.998 E13.65507
;WIPE_END
G92 E0
G1 Z.275 F9000
G1 X100.077 Y118.515
G1 Z.2
G1 E4 F1800
;TYPE:Perimeter
G1 X100.203 Y118.523 E4.00396
G1 X100.547 Y118.609 E4.01508
G1 X101.009 Y118.827 E4.0311
G1 X101.289 Y119.03 E4.04194
G1 X101.637 Y119.4 E4.05787
G1 X101.822 Y119.692 E4.06871
G1 X102.02 Y120.193 E4.0856
G1 X102.092 Y120.758 E4.10346
G1 X102.024 Y121.292 E4.12034
G1 X101.917 Y121.621 E4.13119
G1 X101.673 Y122.066 E4.1471
G1 X101.452 Y122.333 E4.15797
G1 X101.061 Y122.656 E4.17387
G1 X100.785 Y122.808 E4.18375
G1 X100.492 Y122.924 E4.19363
G1 X99.993 Y123.019 E4.20956
G1 X99.647 Y123.019 E4.22041
G1 X99.148 Y122.924 E4.23634
G1 X98.827 Y122.797 E4.24716
G1 X98.372 Y122.508 E4.26406
G1 X98.003 Y122.116 E4.28094
G1 X97.833 Y121.847 E4.29092
G1 X97.696 Y121.553 E4.30109
G1 X97.566 Y121.042 E4.31762
G1 X97.566 Y120.504 E4.33449
G1 X97.631 Y120.164 E4.34534
G1 X97.819 Y119.689 E4.36136
G1 X98.011 Y119.391 E4.37247
G1 X98.372 Y119.007 E4.389
G1 X98.852 Y118.703 E4.40681
G1 X99.354 Y118.539 E4.42337
G1 X99.704 Y118.492 E4.43444
G1 X100.017 Y118.512 E4.44427
G1 X99.8 Y118.876 F9000
G1 F1800
G1 X100.145 Y118.897 E4.45511
G1 X100.42 Y118.966 E4.464
G1 X100.817 Y119.153 E4.47776
G1 X101.038 Y119.314 E4.48633
G1 X101.338 Y119.632 E4.50004
G1 X101.484 Y119.864 E4.50863
G1 X101.652 Y120.287 E4.5229
G1 X101.712 Y120.758 E4.53779
G1 X101.655 Y121.21 E4.55207
G1 X101.57 Y121.471 E4.56068
G1 X101.359 Y121.853 E4.57436
G1 X101.184 Y122.065 E4.58298
G1 X100.848 Y122.343 E4.59665
G1 X100.624 Y122.466 E4.60466
G1 X100.386 Y122.56 E4.61268
G1 X99.957 Y122.642 E4.62637
G1 X99.683 Y122.642 E4.63496
G1 X99.254 Y122.56 E4.64865
G1 X98.999 Y122.46 E4.65724
G1 X98.614 Y122.215 E4.67155
G1 X98.302 Y121.883 E4.68583
G1 X98.164 Y121.666 E4.69389
G1 X98.053 Y121.426 E4.70218
G1 X97.943 Y120.994 E4.71616
G1 X97.943 Y120.539 E4.73043
G1 X97.994 Y120.27 E4.73901
G1 X98.156 Y119.862 E4.75277
G1 X98.309 Y119.624 E4.76164
G1 X98.614 Y119.3 E4.77559
G1 X99.014 Y119.046 E4.79045
G1 X99.438 Y118.908 E4.80443
G1 X99.741 Y118.872 E4.814
G1 X99.522 Y119.277 F9000
;TYPE:External perimeter
G1 F1800
G1 X99.731 Y119.25 E4.82061
G1 X100.088 Y119.271 E4.83182
G1 X100.292 Y119.323 E4.83842
G1 X100.624 Y119.479 E4.84992
G1 X100.788 Y119.598 E4.85627
G1 X101.038 Y119.864 E4.86772
G1 X101.147 Y120.036 E4.8741
G1 X101.284 Y120.382 E4.88577
G1 X101.332 Y120.758 E4.89765
G1 X101.285 Y121.127 E4.90931
G1 X101.222 Y121.32 E4.91568
G1 X101.046 Y121.641 E4.92716
G1 X100.917 Y121.797 E4.93351
G1 X100.635 Y122.03 E4.94498
G1 X100.28 Y122.197 E4.95728
G1 X99.921 Y122.265 E4.96874
G1 X99.718 Y122.265 E4.9751
G1 X99.359 Y122.197 E4.98656
G1 X99.171 Y122.122 E4.99291
G1 X98.856 Y121.923 E5.00459
G1 X98.601 Y121.651 E5.01628
G1 X98.496 Y121.485 E5.02244
G1 X98.41 Y121.299 E5.02887
G1 X98.32 Y120.947 E5.04026
G1 X98.32 Y120.575 E5.05192
G1 X98.358 Y120.376 E5.05827
G1 X98.493 Y120.035 E5.06977
G1 X98.607 Y119.858 E5.07637
G1 X98.856 Y119.593 E5.08777
G1 X99.176 Y119.39 E5.09965
G1 X99.465 Y119.296 E5.10918
G1 X99.582 Y119.075 F9000
G1 E2.70918 F1800
;WIPE_START
G1 F7200
M73 P1 R80
G1 X99.731 Y119.25 E2.64507
G1 X100.088 Y119.271 E2.56014
G1 X100.292 Y119.323 E2.51014
G1 X100.624 Y119.479 E2.42302
G1 X100.788 Y119.598 E2.3749
G1 X101.038 Y119.864 E2.2882
G1 X101.147 Y120.036 E2.23984
G1 X101.284 Y120.382 E2.15146
G1 X101.332 Y120.758 E2.06144
G1 X101.285 Y121.127 E1.97309
G1 X101.222 Y121.32 E1.92487
G1 X101.046 Y121.641 E1.83793
G1 X100.917 Y121.797 E1.78985
G1 X100.635 Y122.03 E1.70297
G1 X100.28 Y122.197 E1.60979
G1 X99.921 Y122.265 E1.52301
G1 X99.718 Y122.265 E1.4748
G1 X99.359 Y122.197 E1.38802
G1 X99.171 Y122.122 E1.33995
G1 X98.856 Y121.923 E1.25146
G1 X98.601 Y121.651 E1.16291
G1 X98.496 Y121.485 E1.11626
G1 X98.483 Y121.458 E1.10918
;WIPE_END
G92 E0
G1 Z.275 F9000
G1 X145.328 Y130.493
G1 Z.2
G1 E4 F1800
;TYPE:Perimeter
G1 X145.079 Y130.356 E4.00891
G1 X144.664 Y130.013 E4.02579
G1 X144.347 Y129.577 E4.04269
G1 X144.212 Y129.289 E4.05266
G1 X144.113 Y128.981 E4.0628
G1 X144.048 Y128.457 E4.07936
G1 X144.116 Y127.923 E4.09624
G1 X144.214 Y127.621 E4.1062
G1 X144.353 Y127.329 E4.11634
G1 X144.664 Y126.903 E4.13288
G1 X145.069 Y126.566 E4.1494
G1 X145.352 Y126.408 E4.15956
G1 X145.648 Y126.291 E4.16954
G1 X146.176 Y126.191 E4.18639
G1 X146.703 Y126.223 E4.20294
G1 X147.047 Y126.309 E4.21406
G1 X147.509 Y126.527 E4.23008
G1 X147.789 Y126.73 E4.24092
G1 X148.158 Y127.122 E4.2578
G1 X148.417 Y127.595 E4.27471
G1 X148.524 Y127.923 E4.28553
G1 X148.592 Y128.458 E4.30244
G1 X148.524 Y128.992 E4.31932
G1 X148.417 Y129.321 E4.33017
G1 X148.173 Y129.766 E4.34608
G1 X147.952 Y130.033 E4.35695
G1 X147.561 Y130.356 E4.37285
G1 X147.258 Y130.523 E4.3837
G1 X146.775 Y130.68 E4.39962
G1 X146.432 Y130.723 E4.41046
G1 X145.894 Y130.689 E4.42736
G1 X145.38 Y130.522 E4.44431
G1 X145.505 Y130.16 F9000
G1 F1800
G1 X145.292 Y130.043 E4.45193
G1 X144.941 Y129.753 E4.46621
G1 X144.673 Y129.384 E4.48051
G1 X144.563 Y129.151 E4.48859
G1 X144.483 Y128.9 E4.49685
G1 X144.428 Y128.457 E4.51085
G1 X144.485 Y128.006 E4.5251
G1 X144.565 Y127.761 E4.53318
G1 X144.679 Y127.523 E4.54145
G1 X144.941 Y127.163 E4.55541
G1 X145.283 Y126.879 E4.56935
G1 X145.514 Y126.75 E4.57765
G1 X145.754 Y126.655 E4.58574
G1 X146.201 Y126.57 E4.60001
G1 X146.645 Y126.597 E4.61396
G1 X146.92 Y126.666 E4.62285
G1 X147.317 Y126.853 E4.63661
G1 X147.538 Y127.014 E4.64518
G1 X147.85 Y127.346 E4.65946
G1 X148.07 Y127.745 E4.67375
G1 X148.155 Y128.006 E4.68236
G1 X148.212 Y128.458 E4.69664
G1 X148.155 Y128.91 E4.71092
G1 X148.07 Y129.171 E4.71953
G1 X147.859 Y129.553 E4.73321
G1 X147.684 Y129.765 E4.74183
G1 X147.348 Y130.043 E4.7555
G1 X147.108 Y130.175 E4.76409
G1 X146.692 Y130.31 E4.7778
G1 X146.42 Y130.345 E4.7864
G1 X145.965 Y130.316 E4.8007
G1 X145.56 Y130.184 E4.81406
G1 X145.683 Y129.828 F9000
;TYPE:External perimeter
G1 F1800
G1 X145.505 Y129.73 E4.82043
G1 X145.218 Y129.493 E4.8321
G1 X144.999 Y129.191 E4.8438
G1 X144.915 Y129.013 E4.84997
G1 X144.853 Y128.818 E4.85639
G1 X144.808 Y128.458 E4.86777
G1 X144.855 Y128.089 E4.87943
G1 X144.916 Y127.901 E4.88563
G1 X145.004 Y127.717 E4.89203
G1 X145.218 Y127.423 E4.90343
G1 X145.497 Y127.191 E4.91481
G1 X145.676 Y127.091 E4.92124
G1 X145.859 Y127.019 E4.92741
G1 X146.225 Y126.949 E4.93909
G1 X146.588 Y126.971 E4.95049
G1 X146.792 Y127.023 E4.95709
G1 X147.124 Y127.179 E4.96859
G1 X147.288 Y127.298 E4.97494
G1 X147.543 Y127.569 E4.98661
G1 X147.722 Y127.895 E4.99827
G1 X147.785 Y128.089 E5.00467
G1 X147.832 Y128.458 E5.01633
G1 X147.785 Y128.827 E5.02799
G1 X147.722 Y129.02 E5.03436
G1 X147.546 Y129.341 E5.04584
G1 X147.417 Y129.497 E5.05219
G1 X147.135 Y129.73 E5.06366
G1 X146.957 Y129.828 E5.07003
G1 X146.609 Y129.941 E5.0815
G1 X146.408 Y129.966 E5.08785
G1 X146.037 Y129.943 E5.0995
G1 X145.74 Y129.846 E5.1093
G1 X145.521 Y129.95 F9000
G1 E2.7093 F1800
;WIPE_START
G1 F7200
G1 X145.505 Y129.73 E2.64706
G1 X145.218 Y129.493 E2.55866
G1 X144.999 Y129.191 E2.47006
G1 X144.915 Y129.013 E2.42331
G1 X144.853 Y128.818 E2.37471
G1 X144.808 Y128.458 E2.28854
G1 X144.855 Y128.089 E2.20019
G1 X144.916 Y127.901 E2.15325
G1 X145.004 Y127.717 E2.10481
G1 X145.218 Y127.423 E2.01845
G1 X145.497 Y127.191 E1.93227
G1 X145.676 Y127.091 E1.88357
G1 X145.859 Y127.019 E1.83686
G1 X146.225 Y126.949 E1.74836
G1 X146.588 Y126.971 E1.66199
G1 X146.792 Y127.023 E1.61199
G1 X147.124 Y127.179 E1.52487
G1 X147.288 Y127.298 E1.47675
G1 X147.543 Y127.569 E1.38837
G1 X147.722 Y127.895 E1.30004
G1 X147.785 Y128.089 E1.2516
G1 X147.832 Y128.458 E1.16325
G1 X147.803 Y128.683 E1.1093
;WIPE_END
G92 E0
G1 Z.275 F9000
G1 X162.398 Y119.514
G1 Z.2
G1 E4 F1800
;TYPE:Perimeter
G1 X161.848 Y119.271 E4.01885
G1 X161.547 Y119.059 E4.03039
G1 X161.282 Y118.803 E4.04194
G1 X160.953 Y118.347 E4.05957
G1 X160.737 Y117.801 E4.07798
G1 X160.668 Y117.437 E4.0896
G1 X160.668 Y116.873 E4.10728
G1 X160.746 Y116.488 E4.1196
G1 X160.955 Y115.966 E4.13723
G1 X161.3 Y115.491 E4.15564
G1 X161.57 Y115.237 E4.16726
G1 X162.067 Y114.921 E4.18573
G1 X162.628 Y114.739 E4.20422
G1 X162.993 Y114.693 E4.21575
G1 X163.524 Y114.724 E4.23243
G1 X163.876 Y114.81 E4.24379
G1 X164.198 Y114.938 E4.25465
G1 X164.695 Y115.253 E4.2731
G1 X165.099 Y115.683 E4.2916
G1 X165.297 Y115.996 E4.30321
G1 X165.503 Y116.515 E4.32072
G1 X165.566 Y116.849 E4.33138
G1 X165.588 Y117.188 E4.34203
G1 X165.518 Y117.742 E4.35954
G1 X165.403 Y118.095 E4.37118
G1 X165.12 Y118.611 E4.38963
G1 X164.695 Y119.062 E4.40906
G1 X164.172 Y119.394 E4.42848
G1 X163.612 Y119.576 E4.44694
G1 X163.246 Y119.623 E4.45851
G1 X162.716 Y119.591 E4.47516
G1 X162.456 Y119.528 E4.48355
G1 X162.492 Y119.149 F9000
G1 F1800
G1 X162.038 Y118.944 E4.49917
G1 X161.788 Y118.767 E4.50877
G1 X161.568 Y118.555 E4.51835
G1 X161.286 Y118.165 E4.53344
G1 X161.101 Y117.695 E4.54928
G1 X161.045 Y117.401 E4.55866
G1 X161.045 Y116.911 E4.57402
G1 X161.109 Y116.596 E4.5841
G1 X161.287 Y116.149 E4.59919
G1 X161.584 Y115.741 E4.61501
G1 X161.802 Y115.536 E4.62439
G1 X162.229 Y115.265 E4.64025
G1 X162.71 Y115.109 E4.6561
G1 X163.006 Y115.072 E4.66545
G1 X163.468 Y115.099 E4.67996
G1 X163.762 Y115.17 E4.68944
G1 X164.026 Y115.275 E4.69835
G1 X164.453 Y115.546 E4.71421
G1 X164.799 Y115.915 E4.73007
G1 X164.96 Y116.167 E4.73945
G1 X165.139 Y116.62 E4.75472
G1 X165.192 Y116.896 E4.76353
G1 X165.209 Y117.176 E4.77233
G1 X165.148 Y117.659 E4.78759
G1 X165.056 Y117.944 E4.79698
G1 X164.812 Y118.387 E4.81284
G1 X164.453 Y118.77 E4.8293
G1 X164.01 Y119.05 E4.84573
G1 X163.53 Y119.207 E4.86156
G1 X163.234 Y119.244 E4.87091
G1 X162.772 Y119.217 E4.88542
G1 X162.55 Y119.163 E4.89258
G1 X162.586 Y118.784 F9000
;TYPE:External perimeter
G1 F1800
G1 X162.228 Y118.617 E4.90497
G1 X162.029 Y118.476 E4.91262
G1 X161.854 Y118.307 E4.92025
G1 X161.62 Y117.982 E4.93281
G1 X161.464 Y117.59 E4.94604
G1 X161.422 Y117.366 E4.95319
G1 X161.422 Y116.949 E4.96626
G1 X161.471 Y116.705 E4.97406
G1 X161.62 Y116.333 E4.98662
G1 X161.868 Y115.992 E4.99984
G1 X162.034 Y115.835 E5.007
G1 X162.391 Y115.609 E5.02025
G1 X162.793 Y115.479 E5.0335
G1 X163.019 Y115.45 E5.04064
G1 X163.412 Y115.473 E5.05298
G1 X163.647 Y115.531 E5.06057
G1 X163.854 Y115.613 E5.06755
G1 X164.211 Y115.839 E5.0808
G1 X164.5 Y116.147 E5.09404
G1 X164.622 Y116.339 E5.10117
G1 X164.775 Y116.726 E5.11422
G1 X164.817 Y116.943 E5.12115
G1 X164.831 Y117.164 E5.12809
G1 X164.779 Y117.577 E5.14114
G1 X164.708 Y117.794 E5.1483
G1 X164.505 Y118.164 E5.16153
G1 X164.211 Y118.477 E5.17499
G1 X163.849 Y118.707 E5.18844
G1 X163.447 Y118.837 E5.20169
G1 X163.221 Y118.866 E5.20883
G1 X162.828 Y118.842 E5.22118
G1 X162.645 Y118.798 E5.22708
G1 X162.288 Y119.042 F9000
G1 E2.82708 F1800
;WIPE_START
G1 F7200
G1 X162.228 Y118.617 E2.71912
G1 X162.029 Y118.476 E2.6612
G1 X161.854 Y118.307 E2.60342
G1 X161.62 Y117.982 E2.50831
G1 X161.464 Y117.59 E2.40811
G1 X161.422 Y117.366 E2.35398
G1 X161.422 Y116.949 E2.25494
G1 X161.471 Y116.705 E2.19583
G1 X161.62 Y116.333 E2.10066
G1 X161.868 Y115.992 E2.00052
G1 X162.034 Y115.835 E1.94626
G1 X162.391 Y115.609 E1.84591
G1 X162.793 Y115.479 E1.74557
G1 X163.019 Y115.45 E1.69145
G1 X163.412 Y115.473 E1.59795
G1 X163.647 Y115.531 E1.54046
G1 X163.854 Y115.613 E1.48758
G1 X164.211 Y115.839 E1.38723
G1 X164.5 Y116.147 E1.28692
G1 X164.622 Y116.339 E1.23289
G1 X164.631 Y116.362 E1.22708
;WIPE_END
G92 E0
G1 Z.275 F9000
G1 X161.509 Y79.022
G1 Z.2
G1 E4 F1800
;TYPE:Perimeter
G1 X161.282 Y78.803 E4.00989
G1 X160.953 Y78.347 E4.02752
G1 X160.737 Y77.801 E4.04593
G1 X160.668 Y77.437 E4.05755
G1 X160.668 Y76.873 E4.07523
G1 X160.746 Y76.488 E4.08755
G1 X160.955 Y75.966 E4.10518
G1 X161.317 Y75.467 E4.12451
G1 X161.749 Y75.107 E4.14214
G1 X162.091 Y74.914 E4.15445
G1 X162.628 Y74.739 E4.17216
G1 X162.993 Y74.693 E4.18369
G1 X163.524 Y74.724 E4.20037
G1 X163.906 Y74.817 E4.2127
G1 X164.417 Y75.058 E4.23041
G1 X164.716 Y75.276 E4.24201
G1 X165.099 Y75.683 E4.25953
G1 X165.281 Y75.97 E4.27019
G1 X165.426 Y76.278 E4.28086
G1 X165.565 Y76.818 E4.29834
G1 X165.588 Y77.188 E4.30996
G1 X165.518 Y77.742 E4.32747
G1 X165.403 Y78.095 E4.33911
G1 X165.12 Y78.611 E4.35756
G1 X164.716 Y79.04 E4.37604
G1 X164.417 Y79.258 E4.38764
G1 X163.884 Y79.509 E4.40611
G1 X163.277 Y79.624 E4.42548
G1 X162.716 Y79.591 E4.4431
G1 X162.334 Y79.498 E4.45543
G1 X161.823 Y79.258 E4.47313
G1 X161.554 Y79.062 E4.48357
G1 X161.805 Y78.778 F9000
G1 F1800
G1 X161.568 Y78.555 E4.49377
G1 X161.286 Y78.165 E4.50886
G1 X161.101 Y77.695 E4.5247
G1 X161.045 Y77.401 E4.53408
G1 X161.045 Y76.911 E4.54944
G1 X161.109 Y76.596 E4.55952
G1 X161.287 Y76.149 E4.57461
G1 X161.594 Y75.727 E4.59097
G1 X161.964 Y75.419 E4.60606
G1 X162.243 Y75.261 E4.61611
G1 X162.71 Y75.109 E4.63151
G1 X163.006 Y75.072 E4.64086
G1 X163.468 Y75.099 E4.65537
G1 X163.78 Y75.175 E4.66544
G1 X164.224 Y75.384 E4.68083
G1 X164.466 Y75.56 E4.69021
G1 X164.799 Y75.915 E4.70547
G1 X164.95 Y76.152 E4.71428
G1 X165.069 Y76.406 E4.72307
G1 X165.19 Y76.878 E4.73835
G1 X165.209 Y77.176 E4.74771
G1 X165.148 Y77.659 E4.76297
G1 X165.056 Y77.944 E4.77236
G1 X164.812 Y78.387 E4.78822
G1 X164.466 Y78.756 E4.80408
G1 X164.224 Y78.932 E4.81346
G1 X163.766 Y79.147 E4.82932
G1 X163.252 Y79.245 E4.84573
G1 X162.772 Y79.217 E4.86081
G1 X162.46 Y79.141 E4.87088
G1 X162.016 Y78.932 E4.88627
G1 X161.853 Y78.814 E4.89258
G1 X162.029 Y78.475 F9000
;TYPE:External perimeter
G1 F1800
G1 X161.854 Y78.307 E4.90019
G1 X161.62 Y77.982 E4.91275
G1 X161.464 Y77.59 E4.92598
G1 X161.422 Y77.366 E4.93313
G1 X161.422 Y76.949 E4.9462
G1 X161.471 Y76.705 E4.954
G1 X161.62 Y76.333 E4.96656
G1 X161.872 Y75.986 E4.98001
G1 X162.179 Y75.73 E4.99254
G1 X162.396 Y75.607 E5.00036
G1 X162.793 Y75.479 E5.01344
G1 X163.019 Y75.45 E5.02058
G1 X163.412 Y75.473 E5.03292
G1 X163.654 Y75.532 E5.04073
G1 X164.031 Y75.71 E5.0538
G1 X164.215 Y75.844 E5.06094
G1 X164.5 Y76.147 E5.07398
