; generated by PrusaSlicer 2.6.0-alpha6+linux-x64-GTK3 on 2023-04-16 at 18:04:49 UTC


;
;

;
;
; 

; external perimeters extrusion width = 0.45mm
; perimeters extrusion width = 0.45mm
; infill extrusion width = 0.45mm
; solid infill extrusion width = 0.45mm
; top infill extrusion width = 0.40mm
; first layer extrusion width = 0.42mm

M73 P0 R49
;TYPE:Custom
G90 ; use absolute coordinates
M82 ; extruder absolute mode

M204 S1250 T1250
M104 S210 ; set extruder temp
M140 S60 ; set bed temp
G28 ; home all

G1 Y1.0 Z0.3 F1000 ; move print head up

M190 S60 ; wait for bed temp
M109 S210 ; wait for extruder temp
G92 E0.0

; initial load
G1 X205.0 E19 F1000
G1 Y1.6
G1 X5.0 E19 F1000
G92 E0.0

; intro line
G1 Y2.0 Z0.2 F1000
M73 P0 R48
G1 X65.0 E9.0 F1000
G1 X105.0 E12.5 F1000
G92 E0.0
G21 ; set units to millimeters
G90 ; use absolute coordinates
M82 ; use absolute distances for extrusion
G92 E0
; Filament gcode
M107
;LAYER_CHANGE
;Z:0.2
;HEIGHT:0.2
;BEFORE_LAYER_CHANGE
; G92 E0.0
;0.2
G1 E-4 F1800
G92 E0
M73 P1 R48
G1 Z.075 F9000
G1 Z.2
;AFTER_LAYER_CHANGE
;0.2
G1 Z.275
G1 X90.258 Y60.088
G1 Z.2
G1 E4 F1800
;TYPE:Skirt/Brim
;WIDTH:0.42
G1 X92.265 Y58.049 E4.08971
G1 X95.649 Y56.096 E4.21222
G1 X96.652 Y55.639 E4.24678
G1 X98.256 Y55.158 E4.29928
G1 X99.173 Y55.044 E4.32825
G1 X100.274 Y55.039 E4.36277
G1 X102.344 Y55.379 E4.42854
G1 X103.217 Y55.684 E4.45753
G1 X103.939 Y56.036 E4.48271
G1 X104.768 Y56.574 E4.5137
G1 X105.631 Y57.285 E4.54876
G1 X106.213 Y57.871 E4.57466
G1 X106.805 Y58.629 E4.60482
G1 X120.411 Y82.364 E5.46262
G1 X121.257 Y84.205 E5.52615
G1 X121.8 Y86.242 E5.59225
G1 X121.99 Y88.131 E5.65178
G1 X121.962 Y147.731 E7.5205
G1 X121.736 Y149.015 E7.56138
G1 X121.307 Y150.292 E7.60362
G1 X120.628 Y151.519 E7.64759
G1 X119.92 Y152.398 E7.68298
G1 X119.015 Y153.253 E7.72202
G1 X117.888 Y154.008 E7.76455
G1 X116.666 Y154.534 E7.80626
G1 X115.303 Y154.873 E7.8503
G1 X114.122 Y154.969 E7.88745
G1 X96.848 Y154.969 E8.42906
G1 X94.822 Y154.573 E8.49379
G1 X93.095 Y153.443 E8.5585
G1 X91.921 Y151.745 E8.62323
G1 X91.542 Y150.464 E8.66512
G1 X88.116 Y129.571 E9.32895
G1 X88.01 Y128.198 E9.37213
G1 X88.01 Y67.545 E11.27386
G1 X88.154 Y65.859 E11.32692
G1 X88.424 Y64.531 E11.36941
G1 X88.731 Y63.485 E11.40359
G1 X89.28 Y62.055 E11.45162
G1 X89.913 Y60.73 E11.49766
G1 X90.23 Y60.14 E11.51866
; printing object corne_feet_magnets.stl id:0 copy 0
G1 E9.11866
;WIPE_START
G1 F7200
G1 X92.265 Y58.049 E8.42568
G1 X95.573 Y56.14 E7.51866
;WIPE_END
G92 E0
G1 Z.275 F9000
G1 X95.676 Y63.402
G1 Z.2
G1 E4 F1800
;TYPE:Perimeter
G1 X98.725 Y61.644 E4.11035
G1 X99.375 Y61.404 E4.13208
G1 X99.609 Y61.373 E4.13948
G1 X99.928 Y61.372 E4.14948
G1 X100.128 Y61.392 E4.15578
G1 X100.716 Y61.514 E4.17461
G1 X100.816 Y61.558 E4.17804
G1 X101.046 Y61.712 E4.18672
G1 X101.406 Y62.015 E4.20147
G1 X101.5 Y62.115 E4.20577
G1 X101.571 Y62.212 E4.20954
G1 X114.787 Y85.295 E5.04352
G1 X115.244 Y86.222 E5.07593
G1 X115.525 Y87.159 E5.1066
G1 X115.649 Y88.163 E5.13832
G1 X115.645 Y147.139 E6.98747
G1 X115.603 Y147.396 E6.99563
G1 X115.499 Y147.738 E7.00684
G1 X115.411 Y147.906 E7.01279
G1 X115.253 Y148.102 E7.02068
G1 X114.999 Y148.34 E7.03159
G1 X114.841 Y148.441 E7.03747
G1 X114.607 Y148.532 E7.04534
G1 X114.251 Y148.617 E7.05682
G1 X98.543 Y148.628 E7.54933
G1 X99.046 Y147.692 E7.58265
G1 X99.534 Y146.628 E7.61935
G1 X99.921 Y145.555 E7.65511
G1 X100.076 Y144.992 E7.67342
G1 X100.195 Y144.436 E7.69125
G1 X100.28 Y143.877 E7.70898
G1 X100.329 Y143.316 E7.72664
G1 X100.342 Y142.752 E7.74433
G1 X100.317 Y142.189 E7.762
G1 X100.255 Y141.628 E7.7797
G1 X100.159 Y141.07 E7.79745
G1 X100.028 Y140.515 E7.81533
G1 X99.866 Y139.966 E7.83328
G1 X99.672 Y139.413 E7.85165
G1 X99.221 Y138.359 E7.8876
G1 X98.953 Y137.817 E7.90656
G1 X98.383 Y136.778 E7.94372
G1 X96.23 Y133.272 E8.07272
G1 X95.679 Y132.302 E8.1077
G1 X95.438 Y131.839 E8.12407
G1 X95.002 Y130.888 E8.15687
G1 X94.676 Y129.982 E8.18706
G1 X94.552 Y129.533 E8.20167
G1 X94.457 Y129.089 E8.21591
G1 X94.39 Y128.648 E8.2299
G1 X94.353 Y128.226 E8.24318
G1 X94.363 Y127.321 E8.27156
G1 X94.409 Y126.897 E8.28493
G1 X94.485 Y126.455 E8.29899
G1 X94.59 Y126.01 E8.31333
G1 X94.88 Y125.113 E8.34289
G1 X95.282 Y124.173 E8.37495
G1 X95.77 Y123.224 E8.40841
G1 X96.328 Y122.257 E8.44342
G1 X98.184 Y119.254 E8.55411
G1 X98.773 Y118.217 E8.5915
G1 X99.301 Y117.162 E8.62849
G1 X99.738 Y116.099 E8.66453
G1 X99.924 Y115.544 E8.68288
G1 X100.076 Y114.992 E8.70083
G1 X100.195 Y114.436 E8.71866
G1 X100.28 Y113.877 E8.73639
G1 X100.329 Y113.316 E8.75405
G1 X100.342 Y112.752 E8.77174
G1 X100.317 Y112.189 E8.78941
G1 X100.255 Y111.628 E8.80711
G1 X100.159 Y111.07 E8.82486
G1 X100.028 Y110.515 E8.84274
G1 X99.866 Y109.966 E8.86069
G1 X99.672 Y109.413 E8.87906
G1 X99.221 Y108.359 E8.91501
G1 X98.953 Y107.817 E8.93397
G1 X98.383 Y106.778 E8.97113
G1 X96.23 Y103.272 E9.10013
G1 X95.683 Y102.308 E9.13488
G1 X95.209 Y101.363 E9.16803
G1 X94.824 Y100.426 E9.19979
G1 X94.552 Y99.533 E9.22906
G1 X94.457 Y99.089 E9.2433
G1 X94.39 Y98.648 E9.25729
G1 X94.352 Y98.22 E9.27076
G1 X94.351 Y97.585 E9.29067
G1 X94.411 Y96.886 E9.31267
G1 X94.485 Y96.455 E9.32638
G1 X94.59 Y96.01 E9.34072
G1 X94.88 Y95.113 E9.37028
G1 X95.285 Y94.166 E9.40257
G1 X95.511 Y93.708 E9.41858
G1 X96.041 Y92.743 E9.4531
G1 X96.628 Y91.766 E9.48884
G1 X97.876 Y89.764 E9.56281
G1 X98.485 Y88.737 E9.60025
G1 X99.046 Y87.692 E9.63744
G1 X99.534 Y86.628 E9.67414
G1 X99.921 Y85.555 E9.7099
G1 X100.076 Y84.992 E9.72821
G1 X100.195 Y84.436 E9.74604
G1 X100.28 Y83.877 E9.76377
G1 X100.329 Y83.316 E9.78143
G1 X100.342 Y82.752 E9.79912
G1 X100.317 Y82.189 E9.81679
G1 X100.255 Y81.628 E9.83449
G1 X100.159 Y81.07 E9.85224
G1 X100.028 Y80.515 E9.87012
G1 X99.866 Y79.966 E9.88807
G1 X99.672 Y79.413 E9.90644
G1 X99.221 Y78.359 E9.94239
G1 X98.953 Y77.817 E9.96135
G1 X98.383 Y76.778 E9.99851
G1 X96.23 Y73.272 E10.12751
G1 X95.683 Y72.308 E10.16226
G1 X95.209 Y71.363 E10.19541
G1 X94.824 Y70.426 E10.22717
G1 X94.552 Y69.533 E10.25644
G1 X94.457 Y69.089 E10.27068
G1 X94.39 Y68.648 E10.28467
G1 X94.353 Y68.226 E10.29795
G1 X94.363 Y67.321 E10.32633
G1 X94.409 Y66.897 E10.3397
G1 X94.485 Y66.455 E10.35376
G1 X94.72 Y65.57 E10.38247
G1 X95.071 Y64.64 E10.41364
G1 X95.647 Y63.455 E10.45495
G1 X95.394 Y63.129 F9000
G1 F1800
G1 X98.562 Y61.302 E10.56961
G1 X99.296 Y61.034 E10.59411
G1 X99.584 Y60.996 E10.60322
G1 X99.947 Y60.995 E10.6146
G1 X100.18 Y61.018 E10.62194
G1 X100.68 Y61.108 E10.63787
G1 X100.849 Y61.16 E10.64341
G1 X100.999 Y61.228 E10.64857
G1 X101.273 Y61.41 E10.65888
G1 X101.666 Y61.741 E10.67499
G1 X101.79 Y61.874 E10.68069
G1 X101.887 Y62.006 E10.68583
G1 X115.119 Y85.116 E11.5208
G1 X115.599 Y86.091 E11.55487
G1 X115.895 Y87.088 E11.58748
G1 X116.011 Y87.92 E11.61382
G1 X116.026 Y88.151 E11.62108
G1 X116.022 Y147.17 E13.47158
G1 X115.971 Y147.482 E13.48149
G1 X115.849 Y147.882 E13.4946
G1 X115.728 Y148.114 E13.5028
G1 X115.53 Y148.359 E13.51268
G1 X115.232 Y148.639 E13.5255
G1 X115.012 Y148.78 E13.53369
G1 X114.719 Y148.893 E13.54354
G1 X114.308 Y148.991 E13.55679
G1 X114.102 Y149.005 E13.56326
G1 X97.884 Y149.005 E14.07176
G1 X98.156 Y148.553 E14.0883
G1 X98.708 Y147.524 E14.12491
G1 X99.185 Y146.485 E14.16076
G1 X99.561 Y145.44 E14.19558
G1 X99.709 Y144.902 E14.21308
G1 X99.824 Y144.368 E14.23021
G1 X99.905 Y143.833 E14.24718
G1 X99.953 Y143.295 E14.26412
G1 X99.964 Y142.756 E14.28102
G1 X99.941 Y142.218 E14.2979
G1 X99.882 Y141.681 E14.31484
G1 X99.79 Y141.145 E14.33189
G1 X99.664 Y140.612 E14.34906
G1 X99.507 Y140.082 E14.36639
G1 X99.321 Y139.55 E14.38406
G1 X98.878 Y138.517 E14.4193
G1 X98.619 Y137.991 E14.43768
G1 X98.057 Y136.968 E14.47428
G1 X95.906 Y133.464 E14.60319
G1 X95.348 Y132.482 E14.6386
G1 X95.1 Y132.005 E14.65546
G1 X94.654 Y131.034 E14.68896
G1 X94.315 Y130.091 E14.72038
G1 X94.185 Y129.623 E14.73561
G1 X94.086 Y129.157 E14.75055
G1 X94.015 Y128.693 E14.76527
G1 X93.975 Y128.24 E14.77953
G1 X93.986 Y127.298 E14.80907
G1 X94.036 Y126.845 E14.82336
G1 X94.116 Y126.38 E14.83815
G1 X94.226 Y125.913 E14.85319
G1 X94.364 Y125.443 E14.86855
G1 X94.528 Y124.976 E14.88407
G1 X94.941 Y124.013 E14.91692
G1 X95.439 Y123.044 E14.95108
G1 X96.004 Y122.064 E14.98655
G1 X97.859 Y119.062 E15.0972
G1 X98.44 Y118.039 E15.13409
G1 X98.958 Y117.006 E15.17032
G1 X99.385 Y115.967 E15.20554
G1 X99.563 Y115.434 E15.22316
G1 X99.709 Y114.902 E15.24046
G1 X99.824 Y114.368 E15.25759
G1 X99.905 Y113.833 E15.27456
G1 X99.953 Y113.295 E15.2915
G1 X99.964 Y112.756 E15.3084
G1 X99.941 Y112.218 E15.32528
G1 X99.882 Y111.681 E15.34222
G1 X99.79 Y111.145 E15.35927
G1 X99.664 Y110.612 E15.37644
G1 X99.507 Y110.082 E15.39377
G1 X99.321 Y109.55 E15.41144
G1 X98.878 Y108.517 E15.44668
G1 X98.619 Y107.991 E15.46506
G1 X98.057 Y106.968 E15.50166
G1 X95.906 Y103.464 E15.63057
G1 X95.35 Y102.486 E15.66584
G1 X94.866 Y101.519 E15.69975
G1 X94.471 Y100.558 E15.73233
G1 X94.315 Y100.091 E15.74777
G1 X94.185 Y99.623 E15.763
G1 X94.086 Y99.157 E15.77794
G1 X94.015 Y98.693 E15.79266
G1 X93.975 Y98.236 E15.80704
G1 X93.974 Y97.569 E15.82795
G1 X94.037 Y96.838 E15.85095
G1 X94.116 Y96.38 E15.86552
G1 X94.226 Y95.913 E15.88056
G1 X94.364 Y95.443 E15.89592
G1 X94.528 Y94.976 E15.91144
G1 X94.942 Y94.008 E15.94445
G1 X95.177 Y93.534 E15.96104
G1 X95.714 Y92.555 E15.99605
G1 X96.306 Y91.569 E16.03211
G1 X97.554 Y89.568 E16.10605
G1 X98.156 Y88.551 E16.14311
G1 X98.708 Y87.524 E16.17967
G1 X99.185 Y86.485 E16.21552
G1 X99.561 Y85.44 E16.25034
G1 X99.709 Y84.902 E16.26784
G1 X99.824 Y84.368 E16.28497
G1 X99.905 Y83.833 E16.30194
G1 X99.953 Y83.295 E16.31888
G1 X99.964 Y82.756 E16.33578
G1 X99.941 Y82.218 E16.35266
G1 X99.882 Y81.681 E16.3696
G1 X99.79 Y81.145 E16.38665
G1 X99.664 Y80.612 E16.40382
G1 X99.507 Y80.082 E16.42115
G1 X99.321 Y79.55 E16.43882
G1 X98.878 Y78.517 E16.47406
G1 X98.619 Y77.991 E16.49244
G1 X98.057 Y76.968 E16.52904
G1 X95.906 Y73.464 E16.65795
G1 X95.35 Y72.486 E16.69322
G1 X94.866 Y71.519 E16.72713
G1 X94.471 Y70.558 E16.75971
G1 X94.315 Y70.091 E16.77515
G1 X94.185 Y69.623 E16.79038
G1 X94.086 Y69.157 E16.80532
G1 X94.015 Y68.693 E16.82004
G1 X93.975 Y68.24 E16.8343
G1 X93.986 Y67.298 E16.86384
G1 X94.036 Y66.845 E16.87813
G1 X94.116 Y66.38 E16.89292
G1 X94.226 Y65.913 E16.90796
G1 X94.362 Y65.449 E16.92312
G1 X94.724 Y64.492 E16.9552
G1 X95.18 Y63.527 E16.98866
G1 X95.366 Y63.182 E17.00095
G1 X95.113 Y62.856 F9000
;TYPE:External perimeter
G1 F1800
G1 X98.399 Y60.961 E17.11989
G1 X99.001 Y60.728 E17.14013
G1 X99.217 Y60.664 E17.14719
G1 X99.559 Y60.618 E17.15801
G1 X99.965 Y60.618 E17.17074
G1 X100.232 Y60.644 E17.17915
G1 X100.768 Y60.741 E17.19623
G1 X100.983 Y60.806 E17.20327
G1 X101.183 Y60.897 E17.21016
G1 X101.499 Y61.108 E17.22207
G1 X101.926 Y61.467 E17.23956
G1 X102.08 Y61.632 E17.24664
G1 X102.204 Y61.799 E17.25316
G1 X115.451 Y84.937 E18.08912
G1 X115.953 Y85.96 E18.12485
G1 X116.266 Y87.018 E18.15944
G1 X116.386 Y87.881 E18.18676
G1 X116.403 Y88.138 E18.19484
G1 X116.399 Y147.201 E20.04672
G1 X116.339 Y147.567 E20.05835
G1 X116.2 Y148.025 E20.07336
G1 X116.045 Y148.322 E20.08386
G1 X115.807 Y148.616 E20.09572
G1 X115.464 Y148.938 E20.11047
G1 X115.183 Y149.118 E20.12093
G1 X114.832 Y149.253 E20.13272
G1 X114.365 Y149.365 E20.14778
G1 X114.115 Y149.382 E20.15564
G1 X97.219 Y149.382 E20.6854
G1 X97.828 Y148.366 E20.72254
G1 X98.37 Y147.356 E20.75848
G1 X98.836 Y146.342 E20.79347
G1 X99.201 Y145.326 E20.82732
G1 X99.343 Y144.813 E20.84401
G1 X99.453 Y144.3 E20.86046
G1 X99.531 Y143.788 E20.8767
G1 X99.576 Y143.274 E20.89288
G1 X99.587 Y142.76 E20.909
G1 X99.564 Y142.247 E20.9251
G1 X99.508 Y141.733 E20.94131
G1 X99.42 Y141.221 E20.9576
G1 X99.299 Y140.709 E20.9741
G1 X99.148 Y140.198 E20.99081
G1 X98.969 Y139.687 E21.00779
G1 X98.536 Y138.675 E21.0423
G1 X98.284 Y138.166 E21.06011
G1 X97.731 Y137.157 E21.09619
G1 X95.581 Y133.656 E21.22501
G1 X95.017 Y132.662 E21.26084
G1 X94.761 Y132.17 E21.27823
G1 X94.307 Y131.181 E21.31235
G1 X93.954 Y130.201 E21.34501
G1 X93.819 Y129.713 E21.36089
G1 X93.715 Y129.225 E21.37653
G1 X93.641 Y128.738 E21.39197
G1 X93.598 Y128.255 E21.40717
G1 X93.609 Y127.275 E21.4379
G1 X93.662 Y126.792 E21.45314
G1 X93.746 Y126.305 E21.46864
G1 X93.861 Y125.816 E21.48439
G1 X94.005 Y125.327 E21.50037
G1 X94.177 Y124.839 E21.51659
G1 X94.599 Y123.852 E21.55025
G1 X95.107 Y122.863 E21.58511
M73 P2 R48
G1 X95.68 Y121.87 E21.62106
G1 X97.535 Y118.87 E21.73165
G1 X98.107 Y117.862 E21.76799
G1 X98.614 Y116.85 E21.80348
G1 X99.031 Y115.836 E21.83786
G1 X99.202 Y115.324 E21.85479
G1 X99.343 Y114.813 E21.87141
G1 X99.453 Y114.3 E21.88786
G1 X99.531 Y113.788 E21.9041
G1 X99.576 Y113.274 E21.92028
G1 X99.587 Y112.76 E21.9364
G1 X99.564 Y112.247 E21.9525
G1 X99.508 Y111.733 E21.96871
G1 X99.42 Y111.221 E21.985
G1 X99.299 Y110.709 E22.0015
G1 X99.148 Y110.198 E22.01821
G1 X98.969 Y109.687 E22.03519
G1 X98.536 Y108.675 E22.0697
G1 X98.284 Y108.166 E22.08751
G1 X97.731 Y107.157 E22.12359
G1 X95.581 Y103.656 E22.25241
G1 X95.017 Y102.664 E22.28819
G1 X94.522 Y101.676 E22.32284
G1 X94.117 Y100.689 E22.35629
G1 X93.954 Y100.201 E22.37242
G1 X93.819 Y99.713 E22.3883
G1 X93.715 Y99.225 E22.40394
G1 X93.641 Y98.738 E22.41938
G1 X93.598 Y98.253 E22.43465
G1 X93.597 Y97.553 E22.4566
G1 X93.662 Y96.79 E22.48061
G1 X93.746 Y96.305 E22.49604
G1 X93.861 Y95.816 E22.51179
G1 X94.005 Y95.327 E22.52777
G1 X94.177 Y94.839 E22.54399
G1 X94.6 Y93.851 E22.57769
G1 X94.842 Y93.36 E22.59485
G1 X95.387 Y92.367 E22.63037
G1 X95.984 Y91.372 E22.66675
G1 X97.231 Y89.372 E22.74065
G1 X97.828 Y88.366 E22.77733
G1 X98.37 Y87.356 E22.81327
G1 X98.836 Y86.342 E22.84826
G1 X99.201 Y85.326 E22.88211
G1 X99.343 Y84.813 E22.8988
G1 X99.453 Y84.3 E22.91525
G1 X99.531 Y83.788 E22.93149
G1 X99.576 Y83.274 E22.94767
G1 X99.587 Y82.76 E22.96379
G1 X99.564 Y82.247 E22.97989
G1 X99.508 Y81.733 E22.9961
G1 X99.42 Y81.221 E23.01239
G1 X99.299 Y80.709 E23.02889
G1 X99.148 Y80.198 E23.0456
G1 X98.969 Y79.687 E23.06258
G1 X98.536 Y78.675 E23.09709
G1 X98.284 Y78.166 E23.1149
G1 X97.731 Y77.157 E23.15098
G1 X95.581 Y73.656 E23.2798
G1 X95.017 Y72.664 E23.31558
G1 X94.522 Y71.676 E23.35023
G1 X94.117 Y70.689 E23.38368
G1 X93.954 Y70.201 E23.39981
G1 X93.819 Y69.713 E23.41569
G1 X93.715 Y69.225 E23.43133
G1 X93.641 Y68.738 E23.44677
G1 X93.598 Y68.255 E23.46197
G1 X93.609 Y67.275 E23.4927
G1 X93.662 Y66.792 E23.50794
G1 X93.746 Y66.305 E23.52344
G1 X93.861 Y65.816 E23.53919
G1 X94.004 Y65.329 E23.5551
G1 X94.376 Y64.345 E23.58808
G1 X94.844 Y63.357 E23.62236
G1 X95.084 Y62.909 E23.6383
G1 X95.491 Y62.985 F9000
G1 E21.2383 F1800
;WIPE_START
G1 F7200
G1 X98.399 Y60.961 E20.32512
G1 X99.001 Y60.728 E20.17181
G1 X99.217 Y60.664 E20.11831
G1 X99.559 Y60.618 E20.03635
G1 X99.965 Y60.618 E19.93992
G1 X100.232 Y60.644 E19.87621
G1 X100.768 Y60.741 E19.74684
G1 X100.983 Y60.806 E19.69349
G1 X101.183 Y60.897 E19.6413
G1 X101.194 Y60.904 E19.6383
;WIPE_END
G92 E0
G1 Z.275 F9000
G1 X102.475 Y64.018
G1 Z.2
G1 E4 F1800
;TYPE:Solid infill
;WIDTH:0.420141
G1 X100.138 Y61.681 E4.10367
G1 X99.584 Y61.661 E4.12106
G1 X102.732 Y64.809 E4.2607
G1 X103.446 Y66.057 E4.3058
G1 X99.17 Y61.781 E4.49548
G1 X98.789 Y61.933 E4.50835
G1 X104.161 Y67.305 E4.74664
G1 X104.875 Y68.553 E4.79174
G1 X98.451 Y62.128 E5.07672
G1 X98.113 Y62.323 E5.08896
G1 X105.59 Y69.801 E5.42065
G1 X106.304 Y71.049 E5.46575
G1 X97.774 Y62.518 E5.84415
G1 X97.436 Y62.713 E5.85639
G1 X107.019 Y72.297 E6.2815
G1 X107.733 Y73.545 E6.3266
G1 X97.097 Y62.908 E6.79842
G1 X96.759 Y63.104 E6.81068
G1 X108.448 Y74.793 E7.32918
G1 X109.163 Y76.041 E7.37429
G1 X96.421 Y63.299 E7.9395
G1 X96.082 Y63.494 E7.95177
G1 X109.877 Y77.289 E8.56369
G1 X110.592 Y78.537 E8.6088
G1 X95.808 Y63.753 E9.26459
G1 X95.634 Y64.112 E9.2771
G1 X111.306 Y79.785 E9.97231
G1 X112.021 Y81.033 E10.01742
G1 X95.462 Y64.474 E10.75195
G1 X95.297 Y64.842 E10.7646
G1 X112.735 Y82.281 E11.53814
G1 X113.45 Y83.529 E11.58325
G1 X95.151 Y65.229 E12.39498
G1 X95.004 Y65.617 E12.40799
G1 X114.164 Y84.777 E13.25789
G1 X114.537 Y85.428 E13.28142
G1 X114.786 Y85.931 E13.29902
