; generated by PrusaSlicer 2.6.0-alpha6+linux-x64-GTK3 on 2023-04-16 at 03:03:30 UTC


;
;

;
;
; 

; external perimeters extrusion width = 0.45mm
; perimeters extrusion width = 0.45mm
; infill extrusion width = 0.45mm
; solid infill extrusion width = 0.45mm
; top infill extrusion width = 0.40mm
; first layer extrusion width = 0.42mm

M73 P0 R81
;TYPE:Custom
G90 ; use absolute coordinates
M82 ; extruder absolute mode

M204 S1250 T1250
M104 S210 ; set extruder temp
M140 S60 ; set bed temp
G28 ; home all

G1 Y1.0 Z0.3 F1000 ; move print head up

M190 S60 ; wait for bed temp
M109 S210 ; wait for extruder temp
G92 E0.0

; initial load
G1 X205.0 E19 F1000
G1 Y1.6
G1 X5.0 E19 F1000
G92 E0.0

; intro line
G1 Y2.0 Z0.2 F1000
M73 P0 R80
G1 X65.0 E9.0 F1000
G1 X105.0 E12.5 F1000
G92 E0.0
G21 ; set units to millimeters
G90 ; use absolute coordinates
M82 ; use absolute distances for extrusion
G92 E0
; Filament gcode
M107
;LAYER_CHANGE
;Z:0.2
;HEIGHT:0.2
;BEFORE_LAYER_CHANGE
; G92 E0.0
;0.2
G1 E-4 F1800
G92 E0
G1 Z.075 F9000
G1 Z.2
;AFTER_LAYER_CHANGE
;0.2
G1 Z.275
G1 X36.048 Y61.308
G1 Z.2
G1 E4 F1800
;TYPE:Skirt/Brim
;WIDTH:0.42
G1 X36.887 Y60.814 E4.03053
G1 X37.974 Y60.575 E4.06543
G1 X96.743 Y53.564 E5.92116
G1 X115.009 Y53.564 E6.49388
G1 X134.045 Y55.818 E7.09491
G1 X172.047 Y60.568 E8.29571
G1 X173.028 Y60.779 E8.32717
G1 X175.373 Y62.114 E8.41178
G1 X175.559 Y62.295 E8.41992
G1 X177.003 Y64.748 E8.50917
G1 X177.257 Y66.404 E8.5617
G1 X177.257 Y121.658 E10.29415
G1 X177.003 Y123.313 E10.34665
G1 X175.616 Y125.711 E10.43351
G1 X175.436 Y125.89 E10.44147
G1 X173.037 Y127.28 E10.5284
G1 X172.656 Y127.381 E10.54076
G1 X54.149 Y156.32 E14.36565
G1 X51.962 Y156.396 E14.43426
G1 X51.526 Y156.321 E14.44813
G1 X49.01 Y155.165 E14.53495
G1 X48.659 Y154.874 E14.54925
G1 X47.431 Y153.422 E14.60888
G1 X34.172 Y130.349 E15.44326
G1 X33.335 Y128.543 E15.50567
G1 X32.903 Y126.905 E15.55878
G1 X32.743 Y125.372 E15.60711
G1 X32.743 Y66.412 E17.45576
G1 X32.998 Y64.754 E17.50836
G1 X34.387 Y62.356 E17.59525
G1 X34.562 Y62.182 E17.60299
G1 X35.996 Y61.338 E17.65516
; printing object corne_base_magnets.stl id:0 copy 0
G1 E15.25516
;WIPE_START
G1 F7200
G1 X36.887 Y60.814 E15.00967
G1 X37.974 Y60.575 E14.74534
G1 X42.532 Y60.031 E13.65516
;WIPE_END
G92 E0
G1 Z.275 F9000
G1 X112.297 Y121.562
G1 Z.2
G1 E4 F1800
;TYPE:Perimeter
G1 X112.018 Y122.093 E4.01881
G1 X111.649 Y122.486 E4.03571
G1 X111.37 Y122.689 E4.04653
G1 X110.882 Y122.918 E4.06343
G1 X110.323 Y123.025 E4.08128
G1 X109.782 Y122.991 E4.09828
G1 X109.439 Y122.901 E4.1094
G1 X108.962 Y122.675 E4.12595
G1 X108.548 Y122.333 E4.14279
G1 X108.327 Y122.066 E4.15366
G1 X108.083 Y121.621 E4.16957
G1 X107.976 Y121.292 E4.18042
G1 X107.908 Y120.759 E4.19727
G1 X107.974 Y120.235 E4.21383
G1 X108.081 Y119.898 E4.22492
G1 X108.321 Y119.459 E4.24061
G1 X108.545 Y119.185 E4.25171
G1 X108.939 Y118.859 E4.26774
G1 X109.218 Y118.706 E4.27772
G1 X109.52 Y118.589 E4.28787
G1 X110.011 Y118.496 E4.30354
G1 X110.365 Y118.498 E4.31464
G1 X110.883 Y118.598 E4.33118
G1 X111.37 Y118.827 E4.34805
G1 X111.649 Y119.029 E4.35885
G1 X111.989 Y119.391 E4.37442
G1 X112.181 Y119.689 E4.38553
G1 X112.369 Y120.164 E4.40155
G1 X112.434 Y120.504 E4.4124
G1 X112.434 Y121.012 E4.42833
G1 X112.375 Y121.321 E4.43819
G1 X112.315 Y121.505 E4.44426
G1 X111.94 Y121.441 F9000
G1 F1800
G1 X111.711 Y121.87 E4.45951
G1 X111.399 Y122.202 E4.47379
G1 X111.177 Y122.363 E4.48239
G1 X110.765 Y122.557 E4.49667
G1 X110.299 Y122.646 E4.51155
G1 X109.843 Y122.617 E4.52588
G1 X109.569 Y122.545 E4.53476
G1 X109.166 Y122.355 E4.54873
G1 X108.816 Y122.065 E4.56298
G1 X108.641 Y121.853 E4.5716
G1 X108.43 Y121.471 E4.58528
G1 X108.345 Y121.21 E4.59389
G1 X108.288 Y120.758 E4.60817
G1 X108.344 Y120.316 E4.62214
G1 X108.429 Y120.047 E4.63099
G1 X108.635 Y119.671 E4.64443
G1 X108.814 Y119.452 E4.6533
G1 X109.152 Y119.172 E4.66706
G1 X109.378 Y119.048 E4.67514
G1 X109.624 Y118.953 E4.68341
G1 X110.045 Y118.873 E4.69685
G1 X110.328 Y118.875 E4.70572
G1 X110.765 Y118.959 E4.71967
G1 X111.177 Y119.153 E4.73395
G1 X111.398 Y119.314 E4.74252
G1 X111.691 Y119.624 E4.75589
G1 X111.844 Y119.862 E4.76476
G1 X112.006 Y120.27 E4.77852
G1 X112.057 Y120.539 E4.7871
G1 X112.057 Y120.976 E4.8008
G1 X112.009 Y121.227 E4.80881
G1 X111.958 Y121.384 E4.81399
G1 X111.582 Y121.32 F9000
;TYPE:External perimeter
G1 F1800
G1 X111.403 Y121.646 E4.82565
G1 X111.148 Y121.918 E4.83734
G1 X110.984 Y122.037 E4.84369
G1 X110.647 Y122.195 E4.85536
G1 X110.275 Y122.267 E4.86724
G1 X109.903 Y122.243 E4.87893
G1 X109.699 Y122.189 E4.88555
G1 X109.37 Y122.034 E4.89695
G1 X109.083 Y121.797 E4.90862
G1 X108.954 Y121.641 E4.91497
G1 X108.778 Y121.32 E4.92645
G1 X108.715 Y121.127 E4.93282
G1 X108.669 Y120.758 E4.94448
G1 X108.713 Y120.397 E4.95588
G1 X108.778 Y120.196 E4.9625
G1 X108.949 Y119.883 E4.97368
G1 X109.083 Y119.719 E4.98032
G1 X109.365 Y119.486 E4.99179
G1 X109.538 Y119.391 E4.99798
G1 X109.728 Y119.317 E5.00437
G1 X110.079 Y119.25 E5.01557
G1 X110.291 Y119.252 E5.02222
G1 X110.647 Y119.32 E5.03358
G1 X110.984 Y119.479 E5.04526
M73 P1 R80
G1 X111.148 Y119.598 E5.05161
G1 X111.393 Y119.858 E5.06281
G1 X111.507 Y120.035 E5.06941
G1 X111.642 Y120.376 E5.08091
G1 X111.68 Y120.575 E5.08726
G1 X111.68 Y120.941 E5.09874
G1 X111.601 Y121.263 E5.10914
G1 X111.813 Y121.612 F9000
G1 E2.70914 F1800
;WIPE_START
G1 F7200
G1 X111.403 Y121.646 E2.60674
G1 X111.148 Y121.918 E2.51819
G1 X110.984 Y122.037 E2.47007
G1 X110.647 Y122.195 E2.38167
G1 X110.275 Y122.267 E2.29168
G1 X109.903 Y122.243 E2.20315
G1 X109.699 Y122.189 E2.15303
G1 X109.37 Y122.034 E2.06666
G1 X109.083 Y121.797 E1.97826
G1 X108.954 Y121.641 E1.93018
G1 X108.778 Y121.32 E1.84324
G1 X108.715 Y121.127 E1.79502
G1 X108.669 Y120.758 E1.7067
G1 X108.713 Y120.397 E1.62033
G1 X108.778 Y120.196 E1.57016
G1 X108.949 Y119.883 E1.48545
G1 X109.083 Y119.719 E1.43515
G1 X109.365 Y119.486 E1.34827
G1 X109.538 Y119.391 E1.3014
G1 X109.728 Y119.317 E1.25297
G1 X110.079 Y119.25 E1.1681
G1 X110.291 Y119.252 E1.11775
G1 X110.327 Y119.259 E1.10914
;WIPE_END
G92 E0
G1 Z.275 F9000
G1 X65.892 Y127.984
G1 Z.2
G1 E4 F1800
;TYPE:Perimeter
G1 X65.952 Y128.458 E4.01498
G1 X65.884 Y128.992 E4.03186
G1 X65.787 Y129.292 E4.04175
G1 X65.653 Y129.577 E4.05162
G1 X65.336 Y130.013 E4.06852
G1 X64.921 Y130.356 E4.0854
G1 X64.642 Y130.51 E4.09539
G1 X64.341 Y130.627 E4.10552
G1 X63.822 Y130.725 E4.12208
G1 X63.285 Y130.691 E4.13895
G1 X62.95 Y130.605 E4.14979
G1 X62.488 Y130.388 E4.16579
G1 X62.202 Y130.178 E4.17692
G1 X61.842 Y129.792 E4.19347
G1 X61.583 Y129.321 E4.21032
G1 X61.476 Y128.992 E4.22117
G1 X61.408 Y128.459 E4.23802
G1 X61.474 Y127.935 E4.25458
G1 X61.581 Y127.597 E4.2657
G1 X61.827 Y127.149 E4.28173
G1 X62.048 Y126.883 E4.29257
G1 X62.439 Y126.559 E4.30849
G1 X62.742 Y126.393 E4.31932
G1 X63.225 Y126.236 E4.33524
G1 X63.568 Y126.192 E4.34608
G1 X64.106 Y126.226 E4.36298
G1 X64.621 Y126.394 E4.37996
G1 X64.931 Y126.566 E4.39108
G1 X65.337 Y126.903 E4.40762
G1 X65.653 Y127.339 E4.4245
G1 X65.787 Y127.624 E4.43437
G1 X65.885 Y127.925 E4.4443
G1 X65.519 Y128.036 F9000
G1 F1800
G1 X65.572 Y128.458 E4.45764
G1 X65.515 Y128.91 E4.47192
G1 X65.436 Y129.153 E4.47993
G1 X65.327 Y129.384 E4.48794
G1 X65.059 Y129.753 E4.50224
G1 X64.708 Y130.043 E4.51652
G1 X64.483 Y130.167 E4.52458
G1 X64.236 Y130.263 E4.53289
G1 X63.798 Y130.346 E4.54687
G1 X63.344 Y130.317 E4.56113
G1 X63.079 Y130.249 E4.56971
G1 X62.682 Y130.062 E4.58347
G1 X62.454 Y129.895 E4.59233
G1 X62.149 Y129.569 E4.60633
G1 X61.93 Y129.171 E4.62057
G1 X61.845 Y128.91 E4.62918
G1 X61.788 Y128.458 E4.64346
G1 X61.844 Y128.016 E4.65743
G1 X61.929 Y127.747 E4.66628
G1 X62.141 Y127.362 E4.68006
G1 X62.316 Y127.151 E4.68866
G1 X62.652 Y126.872 E4.70235
G1 X62.892 Y126.74 E4.71094
G1 X63.308 Y126.605 E4.72465
G1 X63.58 Y126.571 E4.73324
G1 X64.035 Y126.6 E4.74754
G1 X64.47 Y126.741 E4.76188
G1 X64.717 Y126.879 E4.77075
G1 X65.059 Y127.163 E4.78469
G1 X65.327 Y127.531 E4.79896
G1 X65.436 Y127.763 E4.807
G1 X65.506 Y127.978 E4.81409
G1 X65.145 Y128.089 F9000
;TYPE:External perimeter
G1 F1800
G1 X65.192 Y128.458 E4.82575
G1 X65.145 Y128.827 E4.83741
G1 X65.001 Y129.191 E4.84968
G1 X64.782 Y129.493 E4.86138
G1 X64.495 Y129.73 E4.87305
G1 X64.323 Y129.825 E4.87921
G1 X64.132 Y129.899 E4.88563
G1 X63.775 Y129.966 E4.89702
G1 X63.404 Y129.943 E4.90867
G1 X63.207 Y129.893 E4.91504
G1 X62.876 Y129.737 E4.92651
G1 X62.705 Y129.612 E4.93315
G1 X62.457 Y129.346 E4.94455
G1 X62.278 Y129.02 E4.95621
G1 X62.215 Y128.827 E4.96258
G1 X62.169 Y128.458 E4.97424
G1 X62.213 Y128.097 E4.98564
G1 X62.278 Y127.896 E4.99226
G1 X62.454 Y127.575 E5.00374
G1 X62.583 Y127.419 E5.01009
G1 X62.865 Y127.186 E5.02156
G1 X63.043 Y127.088 E5.02793
G1 X63.391 Y126.975 E5.0394
G1 X63.592 Y126.95 E5.04575
G1 X63.963 Y126.973 E5.0574
G1 X64.318 Y127.088 E5.0691
G1 X64.503 Y127.191 E5.07574
G1 X64.782 Y127.423 E5.08712
G1 X65.001 Y127.724 E5.09879
G1 X65.127 Y128.031 E5.10919
G1 X65.504 Y128.189 F9000
G1 E2.70919 F1800
;WIPE_START
G1 F7200
G1 X65.192 Y128.458 E2.60661
G1 X65.145 Y128.827 E2.51826
G1 X65.001 Y129.191 E2.42529
G1 X64.782 Y129.493 E2.33669
G1 X64.495 Y129.73 E2.24829
G1 X64.323 Y129.825 E2.20162
G1 X64.132 Y129.899 E2.15297
G1 X63.775 Y129.966 E2.0667
G1 X63.404 Y129.943 E1.97842
G1 X63.207 Y129.893 E1.93015
G1 X62.876 Y129.737 E1.84324
G1 X62.705 Y129.612 E1.79293
G1 X62.457 Y129.346 E1.70656
G1 X62.278 Y129.02 E1.61823
G1 X62.215 Y128.827 E1.57001
G1 X62.169 Y128.458 E1.48169
G1 X62.213 Y128.097 E1.39532
G1 X62.278 Y127.896 E1.34515
G1 X62.454 Y127.575 E1.25821
G1 X62.583 Y127.419 E1.21013
G1 X62.865 Y127.186 E1.12325
G1 X62.917 Y127.157 E1.10919
;WIPE_END
G92 E0
G1 Z.275 F9000
G1 X47.078 Y119.614
G1 Z.2
G1 E4 F1800
;TYPE:Perimeter
G1 X46.695 Y119.619 E4.01201
G1 X46.146 Y119.514 E4.02954
G1 X45.802 Y119.378 E4.04114
G1 X45.305 Y119.062 E4.05961
G1 X44.882 Y118.612 E4.07897
G1 X44.609 Y118.12 E4.09661
G1 X44.483 Y117.748 E4.10892
G1 X44.409 Y117.16 E4.1275
G1 X44.477 Y116.602 E4.14513
G1 X44.594 Y116.226 E4.15748
G1 X44.866 Y115.732 E4.17516
G1 X45.082 Y115.47 E4.18581
G1 X45.33 Y115.237 E4.19648
G1 X45.828 Y114.921 E4.21497
G1 X46.388 Y114.739 E4.23343
G1 X46.756 Y114.693 E4.24506
G1 X47.313 Y114.728 E4.26256
G1 X47.672 Y114.82 E4.27418
G1 X48.177 Y115.058 E4.29168
G1 X48.452 Y115.258 E4.30234
G1 X48.7 Y115.491 E4.31301
G1 X49.046 Y115.967 E4.33146
G1 X49.263 Y116.515 E4.34994
G1 X49.332 Y116.879 E4.36156
G1 X49.332 Y117.437 E4.37906
G1 X49.263 Y117.801 E4.39068
G1 X49.046 Y118.349 E4.40916
G1 X48.7 Y118.825 E4.42761
G1 X48.43 Y119.079 E4.43923
G1 X47.933 Y119.394 E4.45768
G1 X47.372 Y119.576 E4.47617
G1 X47.137 Y119.606 E4.4836
G1 X47.033 Y119.239 F9000
G1 F1800
G1 X46.73 Y119.242 E4.4931
G1 X46.252 Y119.151 E4.50836
G1 X45.974 Y119.04 E4.51775
G1 X45.547 Y118.77 E4.53359
G1 X45.189 Y118.388 E4.55001
G1 X44.955 Y117.967 E4.56511
G1 X44.852 Y117.663 E4.57517
G1 X44.789 Y117.159 E4.5911
G1 X44.847 Y116.681 E4.6062
G1 X44.943 Y116.375 E4.61626
G1 X45.179 Y115.945 E4.63164
G1 X45.358 Y115.728 E4.64046
G1 X45.563 Y115.536 E4.64927
G1 X45.99 Y115.265 E4.66513
G1 X46.47 Y115.109 E4.68095
G1 X46.767 Y115.071 E4.69034
G1 X47.253 Y115.102 E4.70561
G1 X47.543 Y115.176 E4.71499
G1 X47.984 Y115.384 E4.73028
G1 X48.211 Y115.549 E4.73908
G1 X48.416 Y115.741 E4.74789
G1 X48.713 Y116.15 E4.76374
G1 X48.899 Y116.62 E4.77959
G1 X48.955 Y116.914 E4.78897
G1 X48.955 Y117.401 E4.80424
G1 X48.899 Y117.695 E4.81362
G1 X48.713 Y118.166 E4.8295
G1 X48.416 Y118.575 E4.84535
G1 X48.198 Y118.78 E4.85473
G1 X47.771 Y119.05 E4.87057
G1 X47.29 Y119.207 E4.88643
G1 X47.092 Y119.232 E4.89269
G1 X46.988 Y118.865 F9000
;TYPE:External perimeter
G1 F1800
G1 X46.766 Y118.865 E4.89965
G1 X46.358 Y118.787 E4.91267
G1 X46.146 Y118.703 E4.91982
G1 X45.789 Y118.477 E4.93307
G1 X45.496 Y118.164 E4.94651
G1 X45.301 Y117.814 E4.95907
G1 X45.222 Y117.578 E4.96687
G1 X45.169 Y117.158 E4.98014
G1 X45.217 Y116.761 E4.99268
G1 X45.291 Y116.523 E5.00049
G1 X45.492 Y116.158 E5.01355
G1 X45.633 Y115.987 E5.0205
G1 X45.795 Y115.835 E5.02747
G1 X46.151 Y115.609 E5.04069
G1 X46.553 Y115.479 E5.05394
G1 X46.779 Y115.45 E5.06108
G1 X47.194 Y115.476 E5.07412
G1 X47.415 Y115.533 E5.08128
G1 X47.791 Y115.71 E5.09431
G1 X47.97 Y115.84 E5.10125
G1 X48.132 Y115.992 E5.10822
G1 X48.38 Y116.333 E5.12144
G1 X48.536 Y116.726 E5.1347
G1 X48.578 Y116.95 E5.14185
G1 X48.578 Y117.366 E5.15489
G1 X48.536 Y117.59 E5.16204
G1 X48.38 Y117.982 E5.17527
G1 X48.132 Y118.324 E5.18852
G1 X47.966 Y118.48 E5.19566
G1 X47.609 Y118.707 E5.20892
G1 X47.207 Y118.837 E5.22217
G1 X47.047 Y118.857 E5.22723
G1 X46.893 Y119.065 F9000
G1 E2.82723 F1800
;WIPE_START
G1 F7200
G1 X46.766 Y118.865 E2.76047
G1 X46.358 Y118.787 E2.66182
G1 X46.146 Y118.703 E2.60766
G1 X45.789 Y118.477 E2.50731
G1 X45.496 Y118.164 E2.40548
G1 X45.301 Y117.814 E2.31032
G1 X45.222 Y117.578 E2.25121
G1 X45.169 Y117.158 E2.15067
G1 X45.217 Y116.761 E2.0557
G1 X45.291 Y116.523 E1.99651
G1 X45.492 Y116.158 E1.89755
G1 X45.633 Y115.987 E1.84491
G1 X45.795 Y115.835 E1.79215
G1 X46.151 Y115.609 E1.692
G1 X46.553 Y115.479 E1.59166
G1 X46.779 Y115.45 E1.53754
G1 X47.194 Y115.476 E1.43878
G1 X47.415 Y115.533 E1.38457
G1 X47.791 Y115.71 E1.28587
G1 X47.97 Y115.84 E1.23333
G1 X47.989 Y115.858 E1.22723
;WIPE_END
G92 E0
G1 Z.275 F9000
G1 X45.121 Y75.433
G1 Z.2
G1 E4 F1800
;TYPE:Perimeter
G1 X45.354 Y75.22 E4.0099
G1 X45.829 Y74.921 E4.0275
G1 X46.388 Y74.739 E4.04593
G1 X46.756 Y74.693 E4.05756
G1 X47.313 Y74.728 E4.07506
G1 X47.672 Y74.82 E4.08668
G1 X48.177 Y75.058 E4.10418
G1 X48.452 Y75.258 E4.11484
G1 X48.7 Y75.491 E4.12551
G1 X49.045 Y75.966 E4.14392
G1 X49.254 Y76.488 E4.16155
G1 X49.332 Y76.873 E4.17387
G1 X49.332 Y77.437 E4.19155
G1 X49.263 Y77.801 E4.20317
G1 X49.046 Y78.349 E4.22165
G1 X48.682 Y78.85 E4.24107
G1 X48.228 Y79.225 E4.25953
G1 X47.903 Y79.404 E4.27116
G1 X47.372 Y79.576 E4.28866
G1 X47.005 Y79.623 E4.30026
G1 X46.448 Y79.588 E4.31776
G1 X46.089 Y79.496 E4.32938
G1 X45.583 Y79.258 E4.34691
G1 X45.284 Y79.04 E4.35851
G1 X44.88 Y78.611 E4.37699
G1 X44.597 Y78.095 E4.39544
G1 X44.482 Y77.742 E4.40708
G1 X44.409 Y77.16 E4.42547
G1 X44.477 Y76.602 E4.4431
G1 X44.594 Y76.226 E4.45545
G1 X44.866 Y75.732 E4.47313
G1 X45.078 Y75.475 E4.48358
G1 X45.378 Y75.71 F9000
G1 F1800
G1 X45.583 Y75.521 E4.49232
G1 X45.991 Y75.265 E4.50742
G1 X46.47 Y75.109 E4.52322
G1 X46.767 Y75.071 E4.53261
G1 X47.253 Y75.102 E4.54788
G1 X47.543 Y75.176 E4.55726
G1 X47.984 Y75.384 E4.57255
G1 X48.211 Y75.549 E4.58135
G1 X48.416 Y75.741 E4.59016
G1 X48.713 Y76.149 E4.60598
G1 X48.891 Y76.596 E4.62107
G1 X48.955 Y76.911 E4.63115
G1 X48.955 Y77.401 E4.64651
G1 X48.899 Y77.695 E4.65589
G1 X48.713 Y78.166 E4.67177
G1 X48.405 Y78.59 E4.6882
G1 X48.015 Y78.912 E4.70406
G1 X47.753 Y79.056 E4.71343
G1 X47.29 Y79.207 E4.7287
G1 X46.993 Y79.244 E4.73808
G1 X46.507 Y79.214 E4.75335
G1 X46.217 Y79.139 E4.76274
G1 X45.776 Y78.932 E4.77801
G1 X45.534 Y78.756 E4.78739
G1 X45.188 Y78.387 E4.80325
G1 X44.944 Y77.944 E4.81911
G1 X44.852 Y77.659 E4.8285
G1 X44.789 Y77.159 E4.8443
G1 X44.847 Y76.681 E4.8594
G1 X44.943 Y76.375 E4.86946
G1 X45.179 Y75.945 E4.88484
G1 X45.337 Y75.754 E4.89261
G1 X45.634 Y75.986 F9000
;TYPE:External perimeter
G1 F1800
G1 X45.813 Y75.822 E4.90022
G1 X46.152 Y75.609 E4.91277
G1 X46.553 Y75.479 E4.92599
G1 X46.779 Y75.45 E4.93313
G1 X47.194 Y75.476 E4.94617
G1 X47.415 Y75.533 E4.95333
G1 X47.791 Y75.71 E4.96636
G1 X47.97 Y75.84 E4.9733
G1 X48.132 Y75.992 E4.98027
G1 X48.38 Y76.333 E4.99349
G1 X48.529 Y76.705 E5.00605
G1 X48.578 Y76.949 E5.01385
G1 X48.578 Y77.366 E5.02692
G1 X48.536 Y77.59 E5.03407
G1 X48.38 Y77.982 E5.0473
G1 X48.128 Y78.33 E5.06077
G1 X47.802 Y78.599 E5.07402
G1 X47.603 Y78.709 E5.08115
G1 X47.207 Y78.837 E5.0942
G1 X46.981 Y78.866 E5.10134
G1 X46.566 Y78.84 E5.11438
G1 X46.345 Y78.783 E5.12154
G1 X45.969 Y78.606 E5.13457
G1 X45.785 Y78.472 E5.14171
G1 X45.495 Y78.164 E5.15497
G1 X45.292 Y77.794 E5.1682
G1 X45.221 Y77.577 E5.17536
G1 X45.169 Y77.158 E5.1886
G1 X45.217 Y76.761 E5.20114
G1 X45.291 Y76.523 E5.20895
