; generated by PrusaSlicer 2.5.2+linux-x64-GTK3 on 2023-04-07 at 17:18:41 UTC


;
;

;
;
; 

; external perimeters extrusion width = 0.45mm
; perimeters extrusion width = 0.45mm
; infill extrusion width = 0.45mm
; solid infill extrusion width = 0.45mm
; top infill extrusion width = 0.40mm
; first layer extrusion width = 0.42mm

M73 P0 R77
M107
;TYPE:Custom
G90 ; use absolute coordinates
M82 ; extruder absolute mode

M204 S1250 T1250
M104 S220 ; set extruder temp
M140 S60 ; set bed temp
G28 ; home all

G1 Y1.0 Z0.3 F1000 ; move print head up

M190 S60 ; wait for bed temp
M109 S220 ; wait for extruder temp
G92 E0.0

; initial load
G1 X205.0 E19 F1000
G1 Y1.6
G1 X5.0 E19 F1000
G92 E0.0

; intro line
G1 Y2.0 Z0.2 F1000
G1 X65.0 E9.0 F1000
G1 X105.0 E12.5 F1000
G92 E0.0
G21 ; set units to millimeters
G90 ; use absolute coordinates
M82 ; use absolute distances for extrusion
G92 E0
; Filament gcode
M107
;LAYER_CHANGE
;Z:0.2
;HEIGHT:0.2
;BEFORE_LAYER_CHANGE
; G92 E0.0
;0.2
G1 E-4 F1800
G92 E0
G1 Z.075 F9000
G1 Z.2
;AFTER_LAYER_CHANGE
;0.2
G1 Z.275
G1 X36.069 Y61.308
G1 Z.2
G1 E4 F1800
;TYPE:Skirt/Brim
;WIDTH:0.42
G1 X36.965 Y60.781 E4.03259
G1 X37.953 Y60.568 E4.06428
G1 X75.956 Y55.818 E5.2651
G1 X94.992 Y53.564 E5.86613
G1 X113.258 Y53.564 E6.43885
G1 X172.019 Y60.573 E8.29434
G1 X173.039 Y60.79 E8.32702
G1 X175.428 Y62.171 E8.41355
G1 X175.608 Y62.351 E8.42152
G1 X177.004 Y64.76 E8.50881
G1 X177.257 Y66.412 E8.56121
G1 X177.257 Y125.372 E10.40989
G1 X177.1 Y126.882 E10.45748
G1 X176.674 Y128.515 E10.51039
G1 X175.828 Y130.349 E10.57372
G1 X162.586 Y153.396 E11.40711
G1 X161.387 Y154.83 E11.46573
G1 X161.025 Y155.135 E11.48057
G1 X158.476 Y156.321 E11.56874
G1 X158.041 Y156.396 E11.58258
G1 X155.851 Y156.32 E11.65126
G1 X37.215 Y127.348 E15.48033
G1 X36.963 Y127.28 E15.48853
G1 X34.563 Y125.89 E15.57548
G1 X34.389 Y125.715 E15.5832
G1 X33.022 Y123.39 E15.66777
G1 X32.745 Y121.665 E15.72255
G1 X32.743 Y66.404 E17.45523
G1 X32.995 Y64.755 E17.50752
G1 X34.33 Y62.411 E17.5921
G1 X34.512 Y62.225 E17.60026
G1 X36.017 Y61.339 E17.65503
; printing object corne_base_magnets.stl id:0 copy 0
G1 E15.25503
;WIPE_START
G1 F7200
G1 X36.965 Y60.781 E14.99391
G1 X37.953 Y60.568 E14.75386
G1 X42.21 Y60.036 E13.73503
;WIPE_END
G1 E13.65503 F1800
G92 E0
M73 P1 R77
G1 Z.275 F9000
G1 X97.801 Y120.778
G1 Z.2
G1 E4 F1800
;TYPE:Perimeter
G1 X97.765 Y120.652 E4.00411
G1 X98.063 Y119.584 E4.03887
G1 X98.825 Y118.835 E4.07236
G1 X99.843 Y118.559 E4.10545
G1 X100.929 Y118.842 E4.14063
G1 X101.687 Y119.61 E4.17447
G1 X101.968 Y120.663 E4.20863
G1 X101.673 Y121.719 E4.243
G1 X100.942 Y122.45 E4.27541
G1 X99.867 Y122.756 E4.31048
G1 X98.802 Y122.459 E4.34512
G1 X98.071 Y121.728 E4.37752
G1 X97.817 Y120.836 E4.40662
G1 X98.174 Y120.588 F9000
G1 F1800
G1 X98.399 Y119.782 E4.43284
G1 X99.019 Y119.173 E4.46008
G1 X99.845 Y118.95 E4.48693
G1 X100.734 Y119.181 E4.51572
G1 X101.348 Y119.804 E4.54316
G1 X101.577 Y120.661 E4.57096
G1 X101.337 Y121.522 E4.59901
G1 X100.745 Y122.114 E4.62524
G1 X99.865 Y122.364 E4.65391
G1 X98.999 Y122.122 E4.68212
G1 X98.407 Y121.531 E4.70835
G1 X98.158 Y120.646 E4.73718
G1 X98.549 Y120.65 F9000
;TYPE:External perimeter
G1 F1800
G1 X98.736 Y119.981 E4.75897
G1 X99.213 Y119.511 E4.77995
G1 X99.847 Y119.34 E4.80056
G1 X100.538 Y119.519 E4.82295
G1 X101.01 Y119.998 E4.84401
G1 X101.186 Y120.658 E4.86546
G1 X101 Y121.325 E4.88717
G1 X100.548 Y121.778 E4.90723
G1 X99.864 Y121.972 E4.9295
G1 X99.196 Y121.786 E4.95127
G1 X98.743 Y121.333 E4.97133
G1 X98.565 Y120.708 E4.99173
G1 X98.204 Y120.447 F9000
G1 E2.59173 F1800
;WIPE_START
G1 F7200
G1 X98.736 Y119.981 E2.41435
G1 X99.213 Y119.511 E2.25543
G1 X99.847 Y119.34 E2.09931
G1 X100.538 Y119.519 E1.92969
G1 X101.01 Y119.998 E1.77022
G1 X101.186 Y120.658 E1.60776
G1 X101 Y121.325 E1.44328
G1 X100.548 Y121.778 E1.29134
G1 X99.864 Y121.972 E1.12264
G1 X99.658 Y121.915 E1.07173
;WIPE_END
G1 E.99173 F1800
G92 E0
G1 Z.275 F9000
G1 X54.549 Y103.668
G1 Z.2
G1 E4 F1800
;TYPE:Perimeter
G1 X54.513 Y103.542 E4.00411
G1 X54.811 Y102.474 E4.03888
G1 X55.573 Y101.725 E4.07237
G1 X56.591 Y101.45 E4.10546
G1 X57.679 Y101.733 E4.14069
G1 X58.435 Y102.502 E4.17451
G1 X58.716 Y103.553 E4.20864
G1 X58.421 Y104.609 E4.24301
G1 X57.69 Y105.34 E4.27541
G1 X56.614 Y105.646 E4.31048
G1 X55.55 Y105.349 E4.34511
G1 X54.819 Y104.618 E4.37752
G1 X54.565 Y103.726 E4.40662
G1 X54.922 Y103.478 F9000
G1 F1800
G1 X55.147 Y102.672 E4.43285
G1 X55.766 Y102.063 E4.46008
G1 X56.593 Y101.84 E4.48693
G1 X57.483 Y102.072 E4.51576
G1 X58.096 Y102.695 E4.5432
G1 X58.325 Y103.551 E4.57097
G1 X58.084 Y104.412 E4.59901
G1 X57.493 Y105.004 E4.62524
G1 X56.613 Y105.254 E4.6539
G1 X55.747 Y105.013 E4.68211
G1 X55.155 Y104.421 E4.70834
G1 X54.906 Y103.536 E4.73717
G1 X55.296 Y103.54 F9000
;TYPE:External perimeter
G1 F1800
G1 X55.483 Y102.871 E4.75897
G1 X55.96 Y102.401 E4.77995
G1 X56.595 Y102.23 E4.80056
G1 X57.287 Y102.41 E4.82298
M73 P1 R76
G1 X57.758 Y102.889 E4.84403
G1 X57.934 Y103.549 E4.86545
G1 X57.748 Y104.216 E4.88716
G1 X57.295 Y104.668 E4.90722
G1 X56.612 Y104.862 E4.92949
G1 X55.943 Y104.676 E4.95126
G1 X55.491 Y104.224 E4.97132
G1 X55.313 Y103.598 E4.99172
G1 X54.952 Y103.337 F9000
G1 E2.59172 F1800
;WIPE_START
G1 F7200
G1 X55.483 Y102.871 E2.4143
G1 X55.96 Y102.401 E2.25538
G1 X56.595 Y102.23 E2.09926
G1 X57.287 Y102.41 E1.92941
G1 X57.758 Y102.889 E1.76996
G1 X57.934 Y103.549 E1.60772
G1 X57.748 Y104.216 E1.44326
G1 X57.295 Y104.668 E1.29134
G1 X56.612 Y104.862 E1.12265
G1 X56.406 Y104.805 E1.07172
;WIPE_END
G1 E.99172 F1800
G92 E0
G1 Z.275 F9000
G1 X54.557 Y84.401
G1 Z.2
G1 E4 F1800
;TYPE:Perimeter
G1 X54.82 Y83.459 E4.03066
G1 X55.581 Y82.71 E4.06415
G1 X56.6 Y82.434 E4.09724
G1 X57.687 Y82.718 E4.13247
G1 X58.444 Y83.487 E4.16629
G1 X58.724 Y84.538 E4.20041
G1 X58.43 Y85.594 E4.23478
G1 X57.699 Y86.325 E4.26718
G1 X56.623 Y86.631 E4.30226
G1 X55.559 Y86.334 E4.33689
G1 X54.828 Y85.603 E4.3693
G1 X54.522 Y84.527 E4.40439
G1 X54.541 Y84.459 E4.40661
G1 X54.931 Y84.589 F9000
G1 F1800
G1 X54.913 Y84.526 E4.40867
G1 X55.156 Y83.657 E4.43695
G1 X55.775 Y83.048 E4.46418
G1 X56.602 Y82.825 E4.49104
G1 X57.491 Y83.056 E4.51986
G1 X58.105 Y83.68 E4.5473
G1 X58.333 Y84.536 E4.57506
G1 X58.093 Y85.397 E4.6031
G1 X57.502 Y85.989 E4.62933
G1 X56.622 Y86.239 E4.65801
G1 X55.756 Y85.997 E4.68621
G1 X55.164 Y85.406 E4.71245
G1 X54.948 Y84.647 E4.73719
G1 X55.305 Y84.525 F9000
;TYPE:External perimeter
G1 F1800
G1 X55.492 Y83.856 E4.75898
G1 X55.969 Y83.386 E4.77996
G1 X56.604 Y83.215 E4.80058
G1 X57.296 Y83.395 E4.823
G1 X57.767 Y83.874 E4.84405
G1 X57.943 Y84.534 E4.86547
G1 X57.756 Y85.201 E4.88717
G1 X57.304 Y85.653 E4.90723
G1 X56.621 Y85.847 E4.9295
G1 X55.952 Y85.661 E4.95127
G1 X55.5 Y85.208 E4.97134
G1 X55.322 Y84.583 E4.99173
G1 X54.96 Y84.322 F9000
G1 E2.59173 F1800
;WIPE_START
G1 F7200
G1 X55.492 Y83.856 E2.41433
G1 X55.969 Y83.386 E2.25543
G1 X56.604 Y83.215 E2.09929
G1 X57.296 Y83.395 E1.92945
G1 X57.767 Y83.874 E1.76999
G1 X57.943 Y84.534 E1.60777
G1 X57.756 Y85.201 E1.44334
G1 X57.304 Y85.653 E1.29139
G1 X56.621 Y85.847 E1.1227
G1 X56.414 Y85.79 E1.07173
;WIPE_END
G1 E.99173 F1800
G92 E0
G1 Z.275 F9000
G1 X134.713 Y80.791
G1 Z.2
G1 E4 F1800
;TYPE:Perimeter
G1 X134.746 Y80.916 E4.00405
G1 X134.451 Y81.972 E4.03842
G1 X133.72 Y82.702 E4.07082
G1 X132.645 Y83.009 E4.10588
G1 X131.582 Y82.712 E4.14049
G1 X130.851 Y81.982 E4.17289
G1 X130.543 Y80.906 E4.20799
G1 X130.841 Y79.837 E4.24278
G1 X131.603 Y79.088 E4.27627
G1 X132.622 Y78.812 E4.30936
G1 X133.709 Y79.095 E4.34459
G1 X134.466 Y79.864 E4.37843
G1 X134.697 Y80.733 E4.40662
G1 X134.339 Y80.851 F9000
G1 F1800
G1 X134.355 Y80.914 E4.40865
G1 X134.115 Y81.775 E4.43668
G1 X133.523 Y82.366 E4.46292
G1 X132.644 Y82.617 E4.49158
G1 X131.778 Y82.376 E4.51975
G1 X131.187 Y81.784 E4.54598
G1 X130.935 Y80.904 E4.57468
G1 X131.178 Y80.035 E4.60298
G1 X131.797 Y79.426 E4.63021
G1 X132.623 Y79.202 E4.65706
G1 X133.513 Y79.434 E4.68589
G1 X134.127 Y80.058 E4.71334
G1 X134.323 Y80.793 E4.7372
G1 X133.965 Y80.911 F9000
;TYPE:External perimeter
G1 F1800
G1 X133.778 Y81.578 E4.75891
G1 X133.326 Y82.031 E4.77897
G1 X132.643 Y82.225 E4.80124
G1 X131.975 Y82.039 E4.82298
G1 X131.522 Y81.587 E4.84304
G1 X131.327 Y80.903 E4.86533
G1 X131.514 Y80.233 E4.88714
G1 X131.991 Y79.764 E4.90812
G1 X132.625 Y79.592 E4.92873
G1 X133.317 Y79.773 E4.95115
G1 X133.788 Y80.251 E4.97221
G1 X133.949 Y80.853 E4.99175
G1 X134.309 Y81.115 F9000
G1 E2.59175 F1800
;WIPE_START
G1 F7200
G1 X133.778 Y81.578 E2.4149
G1 X133.326 Y82.031 E2.26293
G1 X132.643 Y82.225 E2.09428
G1 X131.975 Y82.039 E1.9296
G1 X131.522 Y81.587 E1.77765
G1 X131.327 Y80.903 E1.60877
G1 X131.514 Y80.233 E1.44361
G1 X131.991 Y79.764 E1.2847
G1 X132.625 Y79.592 E1.12859
G1 X132.857 Y79.653 E1.07175
;WIPE_END
G1 E.99175 F1800
G92 E0
G1 Z.275 F9000
G1 X147.325 Y126.564
G1 Z.2
G1 E4 F1800
;TYPE:Perimeter
G1 X147.451 Y126.597 E4.00407
G1 X148.208 Y127.366 E4.03791
G1 X148.488 Y128.418 E4.07203
G1 X148.194 Y129.473 E4.10639
G1 X147.462 Y130.204 E4.13881
G1 X146.387 Y130.51 E4.17387
G1 X145.322 Y130.213 E4.20854
G1 X144.591 Y129.482 E4.24094
G1 X144.286 Y128.407 E4.276
G1 X144.583 Y127.339 E4.31075
G1 X145.344 Y126.589 E4.34424
G1 X146.364 Y126.314 E4.37736
G1 X147.267 Y126.549 E4.40662
G1 X147.192 Y126.919 F9000
G1 F1800
G1 X147.255 Y126.936 E4.40865
G1 X147.869 Y127.56 E4.4361
G1 X148.097 Y128.415 E4.46387
G1 X147.857 Y129.277 E4.4919
G1 X147.265 Y129.868 E4.51815
G1 X146.386 Y130.119 E4.54681
G1 X145.518 Y129.877 E4.57504
G1 X144.927 Y129.285 E4.60127
G1 X144.677 Y128.406 E4.62993
G1 X144.92 Y127.537 E4.6582
G1 X145.538 Y126.928 E4.68543
G1 X146.366 Y126.704 E4.7123
G1 X147.134 Y126.904 E4.7372
G1 X147.059 Y127.274 F9000
;TYPE:External perimeter
G1 F1800
G1 X147.531 Y127.753 E4.75826
G1 X147.706 Y128.413 E4.77967
G1 X147.52 Y129.08 E4.80138
G1 X147.068 Y129.532 E4.82145
G1 X146.385 Y129.727 E4.84371
G1 X145.715 Y129.54 E4.86551
G1 X145.263 Y129.088 E4.88556
G1 X145.069 Y128.405 E4.90782
G1 X145.256 Y127.735 E4.92961
G1 X145.732 Y127.266 E4.95058
G1 X146.367 Y127.094 E4.97121
G1 X147.001 Y127.259 E4.99175
G1 X147.407 Y127.077 F9000
G1 E2.59175 F1800
;WIPE_START
G1 F7200
G1 X147.531 Y127.753 E2.41983
G1 X147.706 Y128.413 E2.25761
G1 X147.52 Y129.08 E2.0932
G1 X147.068 Y129.532 E1.94118
G1 X146.385 Y129.727 E1.77254
G1 X145.715 Y129.54 E1.60746
G1 X145.263 Y129.088 E1.4556
G1 X145.069 Y128.405 E1.28693
G1 X145.256 Y127.735 E1.12187
G1 X145.406 Y127.587 E1.07175
;WIPE_END
G1 E.99175 F1800
G92 E0
G1 Z.275 F9000
G1 X150.941 Y66.679
G1 Z.2
G1 E4 F1800
;TYPE:Perimeter
G1 X151.448 Y66.876 E4.01706
G1 X170.916 Y66.876 E4.62745
G1 X170.916 Y125.307 E6.4595
G1 X170.826 Y125.966 E6.48036
G1 X170.634 Y126.584 E6.50066
G1 X170.317 Y127.212 E6.52273
G1 X157.174 Y150.087 E7.34991
G1 X142.339 Y141.563 E7.88636
G1 X142.111 Y141.49 E7.89389
G1 X141.846 Y141.43 E7.9024
G1 X105.145 Y135.974 E9.06577
G1 X94.675 Y121.624 E9.62274
G1 X94.36 Y121.382 E9.63519
G1 X94.005 Y121.236 E9.64722
G1 X93.687 Y121.194 E9.65728
G1 X39.084 Y121.194 E11.36932
G1 X39.084 Y66.868 E13.07266
G1 X75.751 Y66.868 E14.22233
G1 X76.375 Y66.699 E14.2426
G1 X76.918 Y66.156 E14.26667
G1 X77.087 Y65.532 E14.28694
G1 X77.087 Y62.117 E14.39399
G1 X94.752 Y62.117 E14.94789
G1 X95.377 Y61.948 E14.96816
G1 X95.919 Y61.405 E14.99223
G1 X96.088 Y60.781 E15.01251
G1 X96.088 Y59.868 E15.04116
G1 X112.161 Y59.869 E15.54511
G1 X112.161 Y60.781 E15.5737
G1 X112.33 Y61.406 E15.59398
G1 X112.873 Y61.949 E15.61806
G1 X113.497 Y62.117 E15.63834
G1 X131.162 Y62.117 E16.19221
G1 X131.162 Y63.282 E16.22873
G1 X131.331 Y63.906 E16.249
G1 X131.874 Y64.449 E16.27307
G1 X132.499 Y64.618 E16.29334
G1 X150.164 Y64.618 E16.84723
G1 X150.164 Y65.546 E16.87635
G1 X150.366 Y66.146 E16.89619
G1 X150.839 Y66.639 E16.9176
G1 X150.885 Y66.657 E16.91917
G1 X151.104 Y66.338 F9000
G1 F1800
G1 X151.519 Y66.499 E16.93311
G1 X171.293 Y66.499 E17.55311
G1 X171.293 Y125.332 E19.39779
G1 X171.195 Y126.048 E19.42043
G1 X170.985 Y126.726 E19.44269
G1 X170.649 Y127.391 E19.46607
G1 X157.467 Y150.334 E20.29572
G1 X157.306 Y150.47 E20.30232
G1 X157.181 Y150.492 E20.30627
G1 X156.947 Y150.406 E20.3141
G1 X142.186 Y141.91 E20.8481
G1 X142.011 Y141.854 E20.85385
G1 X141.776 Y141.801 E20.86141
G1 X104.932 Y136.321 E22.02936
G1 X94.402 Y121.89 E22.58948
G1 X94.17 Y121.712 E22.59866
G1 X93.907 Y121.603 E22.60757
G1 X93.662 Y121.571 E22.6153
G1 X38.707 Y121.571 E24.33839
G1 X38.707 Y66.491 E26.06538
G1 X75.701 Y66.491 E27.2253
G1 X76.18 Y66.361 E27.24085
G1 X76.58 Y65.96 E27.25861
G1 X76.71 Y65.482 E27.27416
G1 X76.71 Y61.74 E27.39147
G1 X94.702 Y61.74 E27.95561
G1 X95.181 Y61.611 E27.97116
G1 X95.581 Y61.21 E27.98893
G1 X95.711 Y60.731 E28.00448
G1 X95.711 Y59.49 E28.04338
G1 X112.538 Y59.492 E28.57098
G1 X112.538 Y60.731 E28.60982
G1 X112.668 Y61.21 E28.62538
G1 X113.069 Y61.611 E28.64315
G1 X113.547 Y61.74 E28.65871
G1 X131.539 Y61.74 E29.22283
G1 X131.539 Y63.232 E29.26959
G1 X131.669 Y63.71 E29.28514
G1 X132.07 Y64.111 E29.30291
G1 X132.549 Y64.241 E29.31846
G1 X150.541 Y64.241 E29.8826
G1 X150.541 Y65.485 E29.9216
G1 X150.697 Y65.946 E29.93686
G1 X151.05 Y66.314 E29.95286
G1 X151.268 Y65.997 F9000
;TYPE:External perimeter
G1 F1800
G1 X151.59 Y66.122 E29.9637
G1 X171.352 Y66.122 E30.58333
G1 X171.523 Y66.168 E30.58889
G1 X171.624 Y66.268 E30.59335
G1 X171.67 Y66.439 E30.5989
G1 X171.67 Y125.358 E32.44625
G1 X171.564 Y126.13 E32.47067
G1 X171.336 Y126.867 E32.49489
G1 X170.981 Y127.57 E32.51958
G1 X157.761 Y150.58 E33.35163
G1 X157.47 Y150.824 E33.36353
G1 X157.146 Y150.88 E33.37383
G1 X156.787 Y150.749 E33.38583
G1 X142.033 Y142.257 E33.91958
G1 X141.912 Y142.218 E33.92357
G1 X141.707 Y142.171 E33.93017
G1 X104.911 Y136.702 E35.09655
G1 X104.732 Y136.648 E35.10241
G1 X104.673 Y136.606 E35.10467
G1 X94.129 Y122.156 E35.66554
G1 X93.98 Y122.041 E35.67146
G1 X93.808 Y121.97 E35.67726
G1 X93.638 Y121.948 E35.68266
G1 X38.648 Y121.948 E37.40683
G1 X38.476 Y121.901 E37.4124
M73 P2 R76
G1 X38.376 Y121.801 E37.41684
G1 X38.33 Y121.63 E37.42241
G1 X38.33 Y66.432 E39.15311
G1 X38.376 Y66.26 E39.15867
G1 X38.476 Y66.16 E39.16311
G1 X38.648 Y66.114 E39.16868
G1 X75.651 Y66.114 E40.32888
G1 X75.984 Y66.024 E40.3397
G1 X76.242 Y65.765 E40.35117
G1 X76.333 Y65.432 E40.362
G1 X76.333 Y61.681 E40.47959
G1 X76.379 Y61.51 E40.48515
G1 X76.479 Y61.41 E40.48959
G1 X76.65 Y61.363 E40.49516
G1 X94.652 Y61.363 E41.05958
G1 X94.985 Y61.273 E41.07041
G1 X95.244 Y61.015 E41.08187
G1 X95.334 Y60.681 E41.0927
G1 X95.334 Y59.431 E41.13189
G1 X95.38 Y59.26 E41.13746
G1 X95.48 Y59.16 E41.1419
G1 X95.652 Y59.113 E41.14746
G1 X112.605 Y59.115 E41.67901
G1 X112.769 Y59.16 E41.68434
G1 X112.869 Y59.26 E41.68877
G1 X112.915 Y59.431 E41.69434
G1 X112.915 Y60.681 E41.73353
G1 X113.005 Y61.015 E41.74436
G1 X113.264 Y61.273 E41.75583
G1 X113.598 Y61.363 E41.76666
G1 X131.599 Y61.363 E42.33108
G1 X131.77 Y61.41 E42.33664
G1 X131.87 Y61.51 E42.34108
G1 X131.916 Y61.681 E42.34664
G1 X131.916 Y63.182 E42.39369
G1 X132.007 Y63.515 E42.40451
G1 X132.265 Y63.773 E42.41598
G1 X132.599 Y63.864 E42.42681
G1 X150.6 Y63.864 E42.99123
G1 X150.771 Y63.91 E42.99679
G1 X150.872 Y64.01 E43.00125
G1 X150.918 Y64.182 E43.00681
G1 X150.918 Y65.423 E43.04572
G1 X151.027 Y65.746 E43.05641
G1 X151.226 Y65.953 E43.06543
G1 X151.245 Y66.341 F9000
G1 E40.66543 F1800
;WIPE_START
G1 F7200
G1 X151.59 Y66.122 E40.57026
G1 X157.589 Y66.122 E39.14543
;WIPE_END
G1 E39.06543 F1800
G92 E0
G1 Z.275 F9000
G1 X130.582 Y62.231
G1 Z.2
G1 E4 F1800
;TYPE:Solid infill
;WIDTH:0.420394
G1 X130.879 Y62.528 E4.01318
G1 X130.879 Y63.061 E4.02994
G1 X130.049 Y62.231 E4.06682
G1 E1.66682
;WIPE_START
G1 F7200
G1 X130.879 Y63.061 E1.38776
G1 X130.879 Y62.528 E1.26098
G1 X130.582 Y62.231 E1.16122
;WIPE_END
G1 E.06682 F1800
G92 E0
G1 Z.275 F9000
G1 X149.631 Y64.731
G1 Z.2
G1 E4 F1800
G1 X149.881 Y64.981 E4.01108
G1 X149.881 Y65.514 E4.02784
G1 X149.098 Y64.731 E4.06262
G1 E1.66262
;WIPE_START
G1 F7200
G1 X149.881 Y65.514 E1.39945
G1 X149.881 Y64.981 E1.27266
G1 X149.631 Y64.731 E1.18879
;WIPE_END
G1 E.06262 F1800
