; generated by PrusaSlicer 2.5.0+linux-x64-GTK3 on 2023-03-12 at 20:43:12 UTC


;
;

;
;
; 

; external perimeters extrusion width = 0.45mm
; perimeters extrusion width = 0.45mm
; infill extrusion width = 0.45mm
; solid infill extrusion width = 0.45mm
; top infill extrusion width = 0.40mm
; support material extrusion width = 0.35mm
; first layer extrusion width = 0.42mm

M73 P0 R39
M107
;TYPE:Custom
G90 ; use absolute coordinates
M82 ; extruder absolute mode

M204 S1250 T1250
M104 S210 ; set extruder temp
M140 S60 ; set bed temp
G28 ; home all

G1 Y1.0 Z0.3 F1000 ; move print head up

M190 S60 ; wait for bed temp
M109 S210 ; wait for extruder temp
G92 E0.0

; initial load
G1 X205.0 E19 F1000
G1 Y1.6
G1 X5.0 E19 F1000
G92 E0.0

; intro line
G1 Y2.0 Z0.2 F1000
M73 P1 R39
G1 X65.0 E9.0 F1000
G1 X105.0 E12.5 F1000
G92 E0.0
G21 ; set units to millimeters
G90 ; use absolute coordinates
M82 ; use absolute distances for extrusion
G92 E0
; Filament gcode
M107
;LAYER_CHANGE
;Z:0.2
;HEIGHT:0.2
;BEFORE_LAYER_CHANGE
; G92 E0.0
;0.2
G1 E-4 F1800
G92 E0
G1 Z.075 F9000
G1 Z.2
;AFTER_LAYER_CHANGE
;0.2
G1 Z.275
G1 X48.962 Y58.376
G1 Z.2
G1 E4 F1800
;TYPE:Skirt/Brim
;WIDTH:0.42
G1 X51.422 Y57.206 E4.08539
G1 X51.854 Y57.124 E4.09919
G1 X54.134 Y57.182 E4.17069
G1 X172.655 Y86.119 E7.99601
G1 X173.029 Y86.218 E8.00812
M73 P1 R38
G1 X175.365 Y87.546 E8.09236
G1 X175.552 Y87.727 E8.10055
G1 X177.003 Y90.188 E8.19009
G1 X177.257 Y91.843 E8.2426
G1 X177.257 Y147.097 E9.97504
G1 X177.003 Y148.752 E10.02756
G1 X175.614 Y151.151 E10.11448
G1 X175.435 Y151.33 E10.12243
G1 X173.035 Y152.719 E10.20934
G1 X171.389 Y152.971 E10.26156
G1 X38.62 Y152.966 E14.42445
G1 X36.97 Y152.713 E14.47679
G1 X34.644 Y151.393 E14.56063
G1 X34.455 Y151.212 E14.56884
G1 X32.996 Y148.741 E14.65881
G1 X32.743 Y147.089 E14.71121
G1 X32.743 Y88.128 E16.55989
G1 X32.903 Y86.595 E16.60821
G1 X33.333 Y84.962 E16.66116
G1 X34.172 Y83.151 E16.72372
G1 X47.414 Y60.105 E17.55713
G1 X48.612 Y58.671 E17.61572
G1 X48.916 Y58.414 E17.6282
; printing object corne_flat_magnets.stl id:0 copy 0
G1 E15.2282
;WIPE_START
G1 F7200
G1 X51.422 Y57.206 E14.56757
G1 X51.854 Y57.124 E14.46308
G1 X54.134 Y57.182 E13.92145
G1 X55.006 Y57.395 E13.7082
;WIPE_END
G1 E13.6282 F1800
G92 E0
G1 Z.275 F9000
G1 X52.826 Y63.413
G1 Z.2
G1 E4 F1800
;TYPE:Perimeter
G1 X54.916 Y64.603 E4.07539
G1 X54.916 Y111.307 E5.53977
G1 X156.844 Y111.307 E8.73566
M73 P2 R38
G1 X156.844 Y92.307 E9.33139
G1 X170.916 Y92.307 E9.7726
G1 X170.916 Y146.632 E11.47594
G1 X156.844 Y146.632 E11.91714
G1 X156.844 Y129.378 E12.45813
G1 X54.916 Y129.378 E15.65402
G1 X54.916 Y146.625 E16.19476
G1 X39.084 Y146.625 E16.69115
G1 X39.084 Y88.194 E18.52321
G1 X39.174 Y87.535 E18.54407
G1 X39.366 Y86.916 E18.56436
G1 X39.683 Y86.288 E18.58643
G1 X52.796 Y63.465 E19.41173
G1 X52.694 Y63.03 F9000
G1 F1800
G1 X52.819 Y63.009 E19.41568
G1 X53.039 Y63.089 E19.42304
G1 X55.293 Y64.384 E19.50455
G1 X55.293 Y110.93 E20.96394
G1 X156.467 Y110.93 E24.13618
G1 X156.467 Y91.93 E24.73192
G1 X171.293 Y91.93 E25.19677
G1 X171.293 Y147.009 E26.92376
G1 X156.467 Y147.009 E27.38861
M73 P3 R38
G1 X156.467 Y129.755 E27.92959
G1 X55.293 Y129.755 E31.10184
G1 X55.293 Y147.002 E31.64258
G1 X38.707 Y147.002 E32.16262
G1 X38.707 Y88.168 E34.0073
G1 X38.805 Y87.453 E34.02994
G1 X39.015 Y86.775 E34.0522
G1 X39.351 Y86.109 E34.07558
G1 X52.533 Y63.166 E34.90523
G1 X52.649 Y63.069 E34.90995
G1 X52.53 Y62.676 F9000
;TYPE:External perimeter
G1 F1800
G1 X52.854 Y62.62 E34.92025
G1 X53.199 Y62.746 E34.93178
G1 X55.67 Y64.166 E35.02114
G1 X55.67 Y110.552 E36.47555
G1 X156.09 Y110.552 E39.62415
G1 X156.09 Y91.552 E40.21988
G1 X171.352 Y91.552 E40.69842
G1 X171.524 Y91.599 E40.70398
G1 X171.624 Y91.699 E40.70843
G1 X171.67 Y91.871 E40.714
G1 X171.67 Y147.069 E42.44469
G1 X171.624 Y147.24 E42.45026
G1 X171.524 Y147.34 E42.4547
G1 X171.352 Y147.386 E42.46026
G1 X156.09 Y147.386 E42.9388
G1 X156.09 Y130.132 E43.47978
G1 X55.67 Y130.132 E46.62838
G1 X55.67 Y147.379 E47.16912
G1 X38.648 Y147.379 E47.70284
G1 X38.477 Y147.332 E47.7084
M73 P3 R37
G1 X38.376 Y147.232 E47.71286
G1 X38.33 Y147.061 E47.71841
G1 X38.33 Y88.142 E49.56576
G1 X38.436 Y87.371 E49.59018
M73 P4 R37
G1 X38.664 Y86.633 E49.6144
G1 X39.019 Y85.93 E49.63908
G1 X52.24 Y62.92 E50.47115
G1 X52.484 Y62.715 E50.48116
G1 X52.804 Y62.857 F9000
G1 E48.08116 F1800
;WIPE_START
G1 F7200
G1 X52.854 Y62.62 E47.99053
G1 X53.199 Y62.746 E47.90325
G1 X55.67 Y64.166 E47.22634
G1 X55.67 Y66.967 E46.56116
;WIPE_END
G1 E46.48116 F1800
G92 E0
G1 Z.275 F9000
G1 X170.803 Y93.183
G1 Z.2
G1 E4 F1800
;TYPE:Solid infill
;WIDTH:0.420394
G1 X170.209 Y92.589 E4.02634
G1 X169.675 Y92.589 E4.0431
G1 X170.633 Y93.547 E4.0856
G1 X170.633 Y94.081 E4.10236
G1 X169.142 Y92.589 E4.16856
G1 X168.608 Y92.589 E4.18531
G1 X170.633 Y94.615 E4.27521
G1 X170.633 Y95.148 E4.29196
G1 X168.074 Y92.589 E4.40555
G1 X167.54 Y92.589 E4.42231
G1 X170.633 Y95.682 E4.5596
G1 X170.633 Y96.216 E4.57635
G1 X167.006 Y92.589 E4.73733
G1 X166.473 Y92.589 E4.75409
G1 X170.633 Y96.75 E4.93877
G1 X170.633 Y97.284 E4.95552
G1 X165.939 Y92.589 E5.1639
G1 X165.405 Y92.589 E5.18065
G1 X170.633 Y97.818 E5.41272
G1 X170.633 Y98.351 E5.42948
G1 X164.871 Y92.589 E5.68524
G1 X164.337 Y92.589 E5.702
G1 X170.633 Y98.885 E5.98146
G1 X170.633 Y99.419 E5.99821
G1 X163.803 Y92.589 E6.30137
G1 X163.27 Y92.589 E6.31812
G1 X170.633 Y99.953 E6.64498
G1 X170.633 Y100.487 E6.66173
G1 X162.736 Y92.589 E7.01228
G1 X162.202 Y92.589 E7.02903
G1 X170.633 Y101.021 E7.40328
G1 X170.633 Y101.554 E7.42003
G1 X161.668 Y92.589 E7.81797
G1 X161.134 Y92.589 E7.83473
G1 X170.633 Y102.088 E8.25636
G1 X170.633 Y102.622 E8.27312
G1 X160.6 Y92.589 E8.71845
G1 X160.067 Y92.589 E8.7352
G1 X170.633 Y103.156 E9.20423
G1 X170.633 Y103.69 E9.22098
G1 X159.533 Y92.589 E9.7137
G1 X158.999 Y92.589 E9.73046
G1 X170.633 Y104.224 E10.24688
G1 X170.633 Y104.757 E10.26363
G1 X158.465 Y92.589 E10.80374
G1 X157.931 Y92.589 E10.8205
G1 X170.633 Y105.291 E11.38431
G1 X170.633 Y105.825 E11.40106
G1 X157.397 Y92.589 E11.98857
G1 X157.127 Y92.589 E11.99706
G1 X157.127 Y92.853 E12.00532
G1 X170.633 Y106.359 E12.60483
G1 X170.633 Y106.893 E12.62159
G1 X157.127 Y93.387 E13.2211
G1 X157.127 Y93.92 E13.23785
G1 X170.633 Y107.427 E13.83736
G1 X170.633 Y107.96 E13.85412
G1 X157.127 Y94.454 E14.45362
G1 X157.127 Y94.988 E14.47038
G1 X170.633 Y108.494 E15.06989
G1 X170.633 Y109.028 E15.08664
G1 X157.127 Y95.522 E15.68615
G1 X157.127 Y96.056 E15.70291
G1 X170.633 Y109.562 E16.30242
G1 X170.633 Y110.096 E16.31917
G1 X157.127 Y96.59 E16.91868
G1 X157.127 Y97.123 E16.93544
G1 X170.633 Y110.63 E17.53495
G1 X170.633 Y111.163 E17.5517
G1 X157.127 Y97.657 E18.15121
G1 X157.127 Y98.191 E18.16797
G1 X170.633 Y111.697 E18.76747
G1 X170.633 Y112.231 E18.78423
G1 X157.127 Y98.725 E19.38374
G1 X157.127 Y99.259 E19.40049
G1 X170.633 Y112.765 E20
G1 X170.633 Y113.299 E20.01676
G1 X157.127 Y99.793 E20.61627
G1 X157.127 Y100.326 E20.63302
G1 X170.633 Y113.832 E21.23253
G1 X170.633 Y114.366 E21.24929
G1 X157.127 Y100.86 E21.8488
G1 X157.127 Y101.394 E21.86555
G1 X170.633 Y114.9 E22.46506
G1 X170.633 Y115.434 E22.48182
G1 X157.127 Y101.928 E23.08132
M73 P5 R37
G1 X157.127 Y102.462 E23.09808
G1 X170.633 Y115.968 E23.69759
G1 X170.633 Y116.502 E23.71434
G1 X157.127 Y102.996 E24.31385
G1 X157.127 Y103.529 E24.33061
G1 X170.633 Y117.035 E24.93012
G1 X170.633 Y117.569 E24.94687
G1 X157.127 Y104.063 E25.54638
G1 X157.127 Y104.597 E25.56314
G1 X170.633 Y118.103 E26.16265
G1 X170.633 Y118.637 E26.1794
G1 X157.127 Y105.131 E26.77891
G1 X157.127 Y105.665 E26.79566
G1 X170.633 Y119.171 E27.39517
G1 X170.633 Y119.705 E27.41193
G1 X157.127 Y106.199 E28.01144
G1 X157.127 Y106.732 E28.02819
G1 X170.633 Y120.238 E28.6277
G1 X170.633 Y120.772 E28.64446
G1 X157.127 Y107.266 E29.24397
G1 X157.127 Y107.8 E29.26072
G1 X170.633 Y121.306 E29.86023
G1 X170.633 Y121.84 E29.87699
G1 X157.127 Y108.334 E30.47649
G1 X157.127 Y108.868 E30.49325
G1 X170.633 Y122.374 E31.09276
G1 X170.633 Y122.908 E31.10951
G1 X157.127 Y109.401 E31.70902
G1 X157.127 Y109.935 E31.72578
G1 X170.633 Y123.441 E32.32529
G1 X170.633 Y123.975 E32.34204
G1 X157.127 Y110.469 E32.94155
G1 X157.127 Y111.003 E32.95831
G1 X170.633 Y124.509 E33.55782
G1 X170.633 Y125.043 E33.57457
G1 X157.127 Y111.537 E34.17408
G1 X157.127 Y111.589 E34.17573
G1 X156.646 Y111.589 E34.19084
G1 X170.633 Y125.577 E34.8117
G1 X170.633 Y126.111 E34.82846
G1 X156.112 Y111.589 E35.47302
G1 X155.578 Y111.589 E35.48978
G1 X170.633 Y126.644 E36.15804
G1 X170.633 Y127.178 E36.17479
G1 X155.044 Y111.589 E36.86675
G1 X154.51 Y111.589 E36.88351
G1 X170.633 Y127.712 E37.59916
G1 X170.633 Y128.246 E37.61591
G1 X153.977 Y111.589 E38.35526
G1 X153.443 Y111.589 E38.37201
G1 X170.633 Y128.78 E39.13506
G1 X170.633 Y129.314 E39.15181
G1 X152.909 Y111.589 E39.93855
G1 X152.375 Y111.589 E39.9553
G1 X170.633 Y129.847 E40.76574
G1 X170.633 Y130.381 E40.78249
G1 X151.841 Y111.589 E41.61662
G1 X151.307 Y111.589 E41.63338
G1 X170.633 Y130.915 E42.4912
G1 X170.633 Y131.449 E42.50796
G1 X150.774 Y111.589 E43.38948
G1 X150.24 Y111.589 E43.40623
G1 X170.633 Y131.983 E44.31145
G1 X170.633 Y132.516 E44.32821
M73 P6 R37
G1 X149.706 Y111.589 E45.25712
G1 X149.172 Y111.589 E45.27387
G1 X170.633 Y133.05 E46.22648
G1 X170.633 Y133.584 E46.24324
G1 X148.638 Y111.589 E47.21954
G1 X148.104 Y111.589 E47.23629
G1 X170.633 Y134.118 E48.23629
G1 X170.633 Y134.652 E48.25305
G1 X147.571 Y111.589 E49.27674
G1 X147.037 Y111.589 E49.2935
G1 X170.633 Y135.186 E50.34089
G1 X170.633 Y135.719 E50.35764
G1 X146.503 Y111.589 E51.42873
G1 X145.969 Y111.589 E51.44548
G1 X170.633 Y136.253 E52.54026
G1 X170.633 Y136.787 E52.55702
G1 X145.435 Y111.589 E53.6755
G1 X144.902 Y111.589 E53.69225
G1 X170.633 Y137.321 E54.83442
G1 X170.633 Y137.855 E54.85118
M73 P6 R36
G1 X144.368 Y111.589 E56.01705
G1 X143.834 Y111.589 E56.0338
G1 X170.633 Y138.389 E57.22337
G1 X170.633 Y138.922 E57.24012
G1 X143.3 Y111.589 E58.45338
G1 X142.766 Y111.589 E58.47014
G1 X170.633 Y139.456 E59.70709
G1 X170.633 Y139.99 E59.72385
G1 X142.232 Y111.589 E60.9845
G1 X141.699 Y111.589 E61.00125
G1 X170.633 Y140.524 E62.2856
G1 X170.633 Y141.058 E62.30235
G1 X141.165 Y111.589 E63.6104
G1 X140.631 Y111.589 E63.62715
G1 X170.633 Y141.592 E64.95889
G1 X170.633 Y142.125 E64.97564
G1 X140.097 Y111.589 E66.33108
G1 X139.563 Y111.589 E66.34783
M73 P7 R36
G1 X170.633 Y142.659 E67.72696
G1 X170.633 Y143.193 E67.74372
G1 X157.127 Y129.687 E68.34322
G1 X157.127 Y130.221 E68.35998
G1 X170.633 Y143.727 E68.95949
G1 X170.633 Y144.261 E68.97624
G1 X157.127 Y130.755 E69.57575
G1 X157.127 Y131.288 E69.59251
G1 X170.633 Y144.795 E70.19202
G1 X170.633 Y145.328 E70.20877
G1 X157.127 Y131.822 E70.80828
G1 X157.127 Y132.356 E70.82504
G1 X170.633 Y145.862 E71.42455
G1 X170.633 Y146.349 E71.43984
G1 X170.586 Y146.349 E71.4413
G1 X157.127 Y132.89 E72.03874
G1 X157.127 Y133.424 E72.05549
G1 X170.053 Y146.349 E72.62924
G1 X169.519 Y146.349 E72.64599
G1 X157.127 Y133.958 E73.19604
G1 X157.127 Y134.491 E73.2128
G1 X168.985 Y146.349 E73.73915
G1 X168.451 Y146.349 E73.7559
G1 X157.127 Y135.025 E74.25856
G1 X157.127 Y135.559 E74.27532
G1 X167.917 Y146.349 E74.75428
G1 X167.383 Y146.349 E74.77103
G1 X157.127 Y136.093 E75.2263
G1 X157.127 Y136.627 E75.24305
G1 X166.85 Y146.349 E75.67462
G1 X166.316 Y146.349 E75.69138
G1 X157.127 Y137.161 E76.09925
G1 X157.127 Y137.694 E76.11601
G1 X165.782 Y146.349 E76.50019
G1 X165.248 Y146.349 E76.51694
G1 X157.127 Y138.228 E76.87742
G1 X157.127 Y138.762 E76.89418
G1 X164.714 Y146.349 E77.23097
G1 X164.18 Y146.349 E77.24772
G1 X157.127 Y139.296 E77.56081
G1 X157.127 Y139.83 E77.57757
G1 X163.647 Y146.349 E77.86696
G1 X163.113 Y146.349 E77.88372
G1 X157.127 Y140.364 E78.14942
G1 X157.127 Y140.897 E78.16617
G1 X162.579 Y146.349 E78.40818
G1 X162.045 Y146.349 E78.42493
G1 X157.127 Y141.431 E78.64324
G1 X157.127 Y141.965 E78.66
G1 X161.511 Y146.349 E78.85461
G1 X160.977 Y146.349 E78.87137
G1 X157.127 Y142.499 E79.04229
G1 X157.127 Y143.033 E79.05904
G1 X160.444 Y146.349 E79.20626
G1 X159.91 Y146.349 E79.22302
G1 X157.127 Y143.567 E79.34654
G1 X157.127 Y144.1 E79.3633
G1 X159.376 Y146.349 E79.46313
G1 X158.842 Y146.349 E79.47989
G1 X157.127 Y144.634 E79.55602
G1 X157.127 Y145.168 E79.57278
G1 X158.308 Y146.349 E79.62522
G1 X157.775 Y146.349 E79.64197
G1 X157.127 Y145.702 E79.67072
G1 X157.127 Y146.236 E79.68747
G1 X157.41 Y146.519 E79.70005
G1 E77.30005
;WIPE_START
G1 F7200
G1 X157.127 Y146.236 E77.20486
G1 X157.127 Y145.702 E77.07807
G1 X157.775 Y146.349 E76.86057
G1 X158.308 Y146.349 E76.73379
G1 X157.127 Y145.168 E76.33699
G1 X157.127 Y144.634 E76.2102
G1 X158.408 Y145.915 E75.78005
;WIPE_END
G1 E75.70005 F1800
G92 E0
G1 Z.275 F9000
G1 X156.705 Y129.265
G1 Z.2
G1 E4 F1800
G1 X139.029 Y111.589 E4.78459
G1 X138.496 Y111.589 E4.80135
G1 X156.002 Y129.096 E5.57841
G1 X155.468 Y129.096 E5.59516
G1 X137.962 Y111.589 E6.37223
G1 X137.428 Y111.589 E6.38898
G1 X154.934 Y129.096 E7.16604
G1 X154.4 Y129.096 E7.1828
G1 X136.894 Y111.589 E7.95986
G1 X136.36 Y111.589 E7.97661
G1 X153.866 Y129.096 E8.75368
G1 X153.333 Y129.096 E8.77043
G1 X135.826 Y111.589 E9.54749
G1 X135.293 Y111.589 E9.56425
G1 X152.799 Y129.096 E10.34131
G1 X152.265 Y129.096 E10.35806
G1 X134.759 Y111.589 E11.13512
G1 X134.225 Y111.589 E11.15188
G1 X151.731 Y129.096 E11.92894
G1 X151.197 Y129.096 E11.9457
M73 P8 R36
G1 X133.691 Y111.589 E12.72276
G1 X133.157 Y111.589 E12.73951
G1 X150.663 Y129.096 E13.51657
G1 X150.13 Y129.096 E13.53333
G1 X132.623 Y111.589 E14.31039
G1 X132.09 Y111.589 E14.32715
G1 X149.596 Y129.096 E15.10421
G1 X149.062 Y129.096 E15.12096
G1 X131.556 Y111.589 E15.89802
G1 X131.022 Y111.589 E15.91478
G1 X148.528 Y129.096 E16.69184
G1 X147.994 Y129.096 E16.7086
G1 X130.488 Y111.589 E17.48566
G1 X129.954 Y111.589 E17.50241
G1 X147.46 Y129.096 E18.27947
G1 X146.927 Y129.096 E18.29623
G1 X129.42 Y111.589 E19.07329
G1 X128.887 Y111.589 E19.09004
G1 X146.393 Y129.096 E19.86711
G1 X145.859 Y129.096 E19.88386
G1 X128.353 Y111.589 E20.66092
G1 X127.819 Y111.589 E20.67768
G1 X145.325 Y129.096 E21.45474
G1 X144.791 Y129.096 E21.47149
G1 X127.285 Y111.589 E22.24855
G1 X126.751 Y111.589 E22.26531
G1 X144.257 Y129.096 E23.04237
G1 X143.724 Y129.096 E23.05913
G1 X126.218 Y111.589 E23.83619
G1 X125.684 Y111.589 E23.85294
G1 X143.19 Y129.096 E24.63
G1 X142.656 Y129.096 E24.64676
G1 X125.15 Y111.589 E25.42382
G1 X124.616 Y111.589 E25.44058
G1 X142.122 Y129.096 E26.21764
G1 X141.588 Y129.096 E26.23439
G1 X124.082 Y111.589 E27.01145
G1 X123.548 Y111.589 E27.02821
G1 X141.054 Y129.096 E27.80527
G1 X140.521 Y129.096 E27.82203
G1 X123.015 Y111.589 E28.59909
G1 X122.481 Y111.589 E28.61584
G1 X139.987 Y129.096 E29.3929
G1 X139.453 Y129.096 E29.40966
G1 X121.947 Y111.589 E30.18672
G1 X121.413 Y111.589 E30.20347
G1 X138.919 Y129.096 E30.98054
G1 X138.385 Y129.096 E30.99729
G1 X120.879 Y111.589 E31.77435
G1 X120.345 Y111.589 E31.79111
G1 X137.851 Y129.096 E32.56817
G1 X137.318 Y129.096 E32.58492
G1 X119.812 Y111.589 E33.36199
G1 X119.278 Y111.589 E33.37874
M73 P8 R35
G1 X136.784 Y129.096 E34.1558
G1 X136.25 Y129.096 E34.17256
M73 P9 R35
G1 X118.744 Y111.589 E34.94962
G1 X118.21 Y111.589 E34.96637
G1 X135.716 Y129.096 E35.74343
G1 X135.182 Y129.096 E35.76019
G1 X117.676 Y111.589 E36.53725
G1 X117.142 Y111.589 E36.55401
G1 X134.649 Y129.096 E37.33107
G1 X134.115 Y129.096 E37.34782
G1 X116.609 Y111.589 E38.12488
G1 X116.075 Y111.589 E38.14164
G1 X133.581 Y129.096 E38.9187
G1 X133.047 Y129.096 E38.93546
G1 X115.541 Y111.589 E39.71252
G1 X115.007 Y111.589 E39.72927
G1 X132.513 Y129.096 E40.50633
G1 X131.979 Y129.096 E40.52309
G1 X114.473 Y111.589 E41.30015
G1 X113.939 Y111.589 E41.31691
G1 X131.446 Y129.096 E42.09397
G1 X130.912 Y129.096 E42.11072
G1 X113.406 Y111.589 E42.88778
G1 X112.872 Y111.589 E42.90454
G1 X130.378 Y129.096 E43.6816
G1 X129.844 Y129.096 E43.69835
G1 X112.338 Y111.589 E44.47542
G1 X111.804 Y111.589 E44.49217
G1 X129.31 Y129.096 E45.26923
G1 X128.776 Y129.096 E45.28599
G1 X111.27 Y111.589 E46.06305
G1 X110.736 Y111.589 E46.0798
