; generated by PrusaSlicer 2.6.0-alpha6+linux-x64-GTK3 on 2023-04-29 at 14:31:28 UTC


;
;

;
;
; 

; external perimeters extrusion width = 0.45mm
; perimeters extrusion width = 0.45mm
; infill extrusion width = 0.45mm
; solid infill extrusion width = 0.45mm
; top infill extrusion width = 0.40mm
; first layer extrusion width = 0.42mm

M73 P0 R72
;TYPE:Custom
G90 ; use absolute coordinates
M82 ; extruder absolute mode

M204 S1250 T1250
M104 S210 ; set extruder temp
M140 S60 ; set bed temp
G28 ; home all

G1 Y1.0 Z0.3 F1000 ; move print head up

M190 S60 ; wait for bed temp
M109 S210 ; wait for extruder temp
G92 E0.0

; initial load
G1 X205.0 E19 F1000
G1 Y1.6
G1 X5.0 E19 F1000
G92 E0.0

; intro line
G1 Y2.0 Z0.2 F1000
G1 X65.0 E9.0 F1000
G1 X105.0 E12.5 F1000
G92 E0.0
G21 ; set units to millimeters
G90 ; use absolute coordinates
M82 ; use absolute distances for extrusion
G92 E0
; Filament gcode
M107
;LAYER_CHANGE
;Z:0.2
;HEIGHT:0.2
;BEFORE_LAYER_CHANGE
; G92 E0.0
;0.2
G1 E-4 F1800
G92 E0
M73 P0 R71
G1 Z.075 F9000
G1 Z.2
;AFTER_LAYER_CHANGE
;0.2
G1 Z.275
G1 X38.164 Y82.709
G1 Z.2
G1 E4 F1800
;TYPE:Skirt/Brim
;WIDTH:0.42
G1 X39.279 Y82.412 E4.03618
G1 X155.947 Y53.887 E7.80197
G1 X158.624 Y53.919 E7.88591
G1 X159.624 Y54.189 E7.91839
G1 X162.033 Y55.585 E8.00569
G1 X162.748 Y56.303 E8.03746
G1 X163.6 Y57.418 E8.08146
G1 X175.908 Y78.824 E8.85567
G1 X176.578 Y80.809 E8.92136
G1 X176.776 Y82.324 E8.96927
G1 X176.559 Y84.678 E9.04339
G1 X156.411 Y146.798 E11.091
G1 X155.098 Y148.941 E11.1698
G1 X154.366 Y149.673 E11.20226
G1 X151.956 Y151.065 E11.28952
G1 X150.304 Y151.465 E11.34281
G1 X132.195 Y153.979 E11.91605
G1 X113.194 Y156.229 E12.51598
G1 X96.56 Y156.266 E13.03753
G1 X39.889 Y149.224 E14.82808
G1 X38.498 Y148.857 E14.87319
G1 X37.084 Y148.271 E14.92118
M73 P1 R71
G1 X35.364 Y147.129 E14.98591
G1 X34.174 Y145.361 E15.05273
G1 X33.588 Y143.946 E15.10075
G1 X33.179 Y141.889 E15.16651
G1 X33.179 Y89.635 E16.8049
G1 X33.362 Y88.243 E16.84892
G1 X33.624 Y87.265 E16.88067
G1 X34.161 Y85.969 E16.92466
G1 X35.038 Y84.816 E16.97008
G1 X35.754 Y84.101 E17.00181
G1 X38.112 Y82.739 E17.08719
; printing object keyplate.stl id:0 copy 0
G1 E14.68719
;WIPE_START
G1 F7200
G1 X39.279 Y82.412 E14.39935
G1 X44.646 Y81.1 E13.08719
;WIPE_END
G92 E0
G1 Z.275 F9000
G1 X131.417 Y128.382
G1 Z.2
G1 E4 F1800
;TYPE:External perimeter
G1 X115.697 Y128.382 E4.49289
G1 X115.697 Y112.662 E4.98578
G1 X131.417 Y112.662 E5.47867
G1 X131.417 Y128.322 E5.96968
G1 X131.521 Y128.768 F9000
G1 X131.628 Y128.749
G1 F1800
G1 X131.72 Y128.388 E5.98136
G1 X131.9 Y128.062 E5.99304
G1 X132.029 Y127.906 E5.99939
G1 X132.311 Y127.673 E6.01086
G1 X132.665 Y127.506 E6.02313
G1 X133.024 Y127.437 E6.03459
G1 X133.227 Y127.437 E6.04095
G1 X133.593 Y127.507 E6.05263
G1 X133.936 Y127.668 E6.06451
G1 X134.216 Y127.9 E6.07591
G1 X134.352 Y128.062 E6.08254
G1 X134.531 Y128.388 E6.0942
G1 X134.624 Y128.749 E6.10589
G1 X134.624 Y129.141 E6.11818
G1 X134.533 Y129.495 E6.12964
G1 X134.442 Y129.686 E6.13627
G1 X134.231 Y129.974 E6.14746
G1 X134.084 Y130.113 E6.1538
G1 X133.769 Y130.313 E6.1655
G1 X133.415 Y130.428 E6.17717
G1 X133.214 Y130.453 E6.18352
G1 X132.842 Y130.43 E6.19521
G1 X132.482 Y130.313 E6.20708
G1 X132.168 Y130.113 E6.21875
G1 X132.02 Y129.974 E6.22512
G1 X131.805 Y129.678 E6.23659
G1 X131.719 Y129.495 E6.24293
G1 X131.628 Y129.141 E6.25439
G1 X131.624 Y128.809 E6.2648
G1 X131.331 Y128.523 F9000
G1 E3.8648 F1800
;WIPE_START
G1 F7200
G1 X131.72 Y128.388 E3.76225
G1 X131.9 Y128.062 E3.67381
G1 X132.029 Y127.906 E3.62573
G1 X132.311 Y127.673 E3.53885
G1 X132.665 Y127.506 E3.44589
G1 X133.024 Y127.437 E3.35907
G1 X133.227 Y127.437 E3.31086
G1 X133.593 Y127.507 E3.22236
G1 X133.936 Y127.668 E3.13237
G1 X134.216 Y127.9 E3.04601
G1 X134.352 Y128.062 E2.99577
G1 X134.531 Y128.388 E2.90744
G1 X134.624 Y128.749 E2.8189
G1 X134.624 Y129.141 E2.7258
G1 X134.533 Y129.495 E2.63899
G1 X134.442 Y129.686 E2.58874
G1 X134.231 Y129.974 E2.50395
G1 X134.084 Y130.113 E2.4559
G1 X133.769 Y130.313 E2.36728
G1 X133.415 Y130.428 E2.27888
G1 X133.356 Y130.435 E2.2648
;WIPE_END
G92 E0
G1 Z.275 F9000
G1 X134.698 Y129.288
G1 Z.2
G1 E4 F1800
G1 X150.418 Y129.288 E4.49289
G1 X150.418 Y145.008 E4.98578
G1 X134.698 Y145.008 E5.47867
G1 X134.698 Y129.348 E5.96968
G1 X134.595 Y128.902 F9000
G1 E3.56968 F1800
;WIPE_START
G1 F7200
G1 X141.435 Y129.322 E1.96968
;WIPE_END
G92 E0
G1 Z.275 F9000
G1 X93.414 Y147.383
G1 Z.2
G1 E4 F1800
G1 X77.694 Y147.383 E4.49289
G1 X77.694 Y131.663 E4.98578
G1 X93.414 Y131.663 E5.47867
G1 X93.414 Y147.323 E5.96968
G1 X93.518 Y147.77 F9000
G1 E3.56968 F1800
;WIPE_START
G1 F7200
G1 X86.677 Y147.349 E1.96968
;WIPE_END
G92 E0
G1 Z.275 F9000
G1 X58.693 Y104.63
G1 Z.2
G1 E4 F1800
G1 X58.693 Y88.91 E4.49289
G1 X74.413 Y88.91 E4.98578
G1 X74.413 Y104.63 E5.47867
G1 X58.753 Y104.63 E5.96968
G1 X58.307 Y104.734 F9000
G1 E3.56968 F1800
;WIPE_START
G1 F7200
G1 X58.727 Y97.893 E1.96968
;WIPE_END
G92 E0
G1 Z.275 F9000
G1 X55.935 Y107.29
G1 Z.2
G1 E4 F1800
G1 X55.8 Y107.128 E4.00661
G1 X55.623 Y106.807 E4.0181
G1 X55.559 Y106.605 E4.02474
G1 X55.514 Y106.245 E4.03612
G1 X55.561 Y105.875 E4.04781
G1 X55.622 Y105.688 E4.05398
G1 X55.71 Y105.504 E4.06038
G1 X55.924 Y105.21 E4.07178
G1 X56.211 Y104.973 E4.08345
G1 X56.388 Y104.875 E4.08979
G1 X56.727 Y104.764 E4.10097
G1 X56.937 Y104.736 E4.10761
G1 X57.302 Y104.759 E4.11908
G1 X57.492 Y104.808 E4.12523
G1 X57.675 Y104.881 E4.13141
G1 X57.989 Y105.08 E4.14307
G1 X58.244 Y105.351 E4.15474
G1 X58.353 Y105.523 E4.16112
G1 X58.487 Y105.863 E4.17258
G1 X58.525 Y106.062 E4.17893
G1 X58.525 Y106.428 E4.19041
G1 X58.487 Y106.627 E4.19676
G1 X58.353 Y106.967 E4.20822
G1 X58.238 Y107.145 E4.21486
G1 X57.989 Y107.41 E4.22626
G1 X57.669 Y107.612 E4.23813
G1 X57.324 Y107.725 E4.24951
G1 X57.115 Y107.753 E4.25612
G1 X56.749 Y107.73 E4.26762
G1 X56.553 Y107.68 E4.27396
G1 X56.216 Y107.521 E4.28564
G1 X55.982 Y107.328 E4.29515
G1 X55.732 Y107.348 F9000
G1 E1.89515 F1800
;WIPE_START
G1 F7200
G1 X55.8 Y107.128 E1.83093
G1 X55.623 Y106.807 E1.74387
G1 X55.559 Y106.605 E1.69354
G1 X55.514 Y106.245 E1.60737
G1 X55.561 Y105.875 E1.51879
G1 X55.622 Y105.688 E1.47207
G1 X55.71 Y105.504 E1.42363
G1 X55.924 Y105.21 E1.33727
G1 X56.211 Y104.973 E1.24887
G1 X56.388 Y104.875 E1.20082
G1 X56.727 Y104.764 E1.1161
G1 X56.937 Y104.736 E1.06578
G1 X57.302 Y104.759 E.97892
G1 X57.492 Y104.808 E.93232
G1 X57.675 Y104.881 E.88553
G1 X57.989 Y105.08 E.79724
G1 X58.244 Y105.351 E.70886
G1 X58.353 Y105.523 E.6605
G1 X58.487 Y105.863 E.5737
G1 X58.525 Y106.062 E.52558
G1 X58.525 Y106.428 E.43866
G1 X58.487 Y106.627 E.39054
G1 X58.353 Y106.967 E.30374
G1 X58.333 Y106.997 E.29515
;WIPE_END
G92 E0
G1 Z.275 F9000
G1 X58.693 Y107.912
G1 Z.2
G1 E4 F1800
G1 X74.413 Y107.912 E4.49289
G1 X74.413 Y123.632 E4.98578
G1 X58.693 Y123.632 E5.47867
G1 X58.693 Y107.972 E5.96968
G1 X58.59 Y107.525 F9000
G1 E3.56968 F1800
;WIPE_START
G1 F7200
G1 X65.43 Y107.946 E1.96968
;WIPE_END
G92 E0
G1 Z.275 F9000
G1 X56.476 Y124.081
G1 Z.2
G1 E4 F1800
G1 X56.665 Y124.006 E4.00638
G1 X57.024 Y123.937 E4.01784
G1 X57.227 Y123.937 E4.0242
G1 X57.593 Y124.007 E4.03588
G1 X57.93 Y124.166 E4.04756
G1 X58.094 Y124.285 E4.05391
G1 X58.344 Y124.551 E4.06536
G1 X58.45 Y124.718 E4.07156
G1 X58.536 Y124.903 E4.07796
G1 X58.625 Y125.255 E4.08934
G1 X58.625 Y125.634 E4.10122
G1 X58.533 Y125.995 E4.1129
G1 X58.442 Y126.186 E4.11953
G1 X58.231 Y126.474 E4.13072
G1 X58.084 Y126.613 E4.13706
G1 X57.769 Y126.813 E4.14876
G1 X57.415 Y126.928 E4.16043
G1 X57.214 Y126.953 E4.16678
G1 X56.849 Y126.93 E4.17825
G1 X56.659 Y126.881 E4.1844
G1 X56.476 Y126.809 E4.19057
G1 X56.168 Y126.613 E4.20202
G1 X56.02 Y126.474 E4.20839
G1 X55.805 Y126.178 E4.21986
G1 X55.716 Y125.986 E4.2265
G1 X55.626 Y125.634 E4.23789
G1 X55.626 Y125.262 E4.24955
G1 X55.664 Y125.063 E4.2559
G1 X55.799 Y124.722 E4.2674
G1 X55.913 Y124.544 E4.27403
G1 X56.162 Y124.28 E4.28541
G1 X56.426 Y124.113 E4.2952
G1 X56.485 Y123.878 F9000
G1 E1.8952 F1800
;WIPE_START
G1 F7200
G1 X56.665 Y124.006 E1.83301
G1 X57.024 Y123.937 E1.74619
G1 X57.227 Y123.937 E1.69798
G1 X57.593 Y124.007 E1.60948
G1 X57.93 Y124.166 E1.52098
G1 X58.094 Y124.285 E1.47286
G1 X58.344 Y124.551 E1.38616
G1 X58.45 Y124.718 E1.33918
G1 X58.536 Y124.903 E1.29073
G1 X58.625 Y125.255 E1.2045
G1 X58.625 Y125.634 E1.11449
G1 X58.533 Y125.995 E1.02601
G1 X58.442 Y126.186 E.97576
G1 X58.231 Y126.474 E.89097
G1 X58.084 Y126.613 E.84292
G1 X57.769 Y126.813 E.7543
G1 X57.415 Y126.928 E.6659
G1 X57.214 Y126.953 E.61779
G1 X56.849 Y126.93 E.53093
G1 X56.659 Y126.881 E.48433
G1 X56.476 Y126.809 E.43762
G1 X56.168 Y126.613 E.35091
G1 X56.02 Y126.474 E.30269
G1 X56.001 Y126.448 E.2952
;WIPE_END
G92 E0
G1 Z.275 F9000
G1 X58.693 Y126.913
G1 Z.2
G1 E4 F1800
G1 X74.413 Y126.913 E4.49289
G1 X74.413 Y142.633 E4.98578
G1 X58.693 Y142.633 E5.47867
G1 X58.693 Y126.973 E5.96968
G1 X58.59 Y126.527 F9000
G1 E3.56968 F1800
;WIPE_START
G1 F7200
G1 X65.43 Y126.947 E1.96968
;WIPE_END
G92 E0
G1 Z.275 F9000
G1 X55.411 Y126.913
G1 Z.2
G1 E4 F1800
G1 X55.411 Y142.633 E4.49289
G1 X39.691 Y142.633 E4.98578
G1 X39.691 Y126.913 E5.47867
G1 X55.351 Y126.913 E5.96968
G1 X55.798 Y126.809 F9000
G1 E3.56968 F1800
;WIPE_START
G1 F7200
G1 X55.377 Y133.65 E1.96968
;WIPE_END
G92 E0
G1 Z.275 F9000
G1 X55.411 Y123.632
G1 Z.2
G1 E4 F1800
G1 X39.691 Y123.632 E4.49289
G1 X39.691 Y107.912 E4.98578
G1 X55.411 Y107.912 E5.47867
G1 X55.411 Y123.572 E5.96968
G1 X55.515 Y124.018 F9000
G1 E3.56968 F1800
;WIPE_START
G1 F7200
G1 X48.674 Y123.598 E1.96968
;WIPE_END
G92 E0
G1 Z.275 F9000
G1 X54.955 Y107.157
G1 Z.2
G1 E4 F1800
;TYPE:Perimeter
G1 X39.52 Y107.157 E4.48395
G1 X39.52 Y105.384 E4.53954
G1 X54.931 Y105.384 E5.02274
G1 X54.821 Y105.71 E5.03353
G1 X54.754 Y106.244 E5.0504
G1 X54.819 Y106.768 E5.06696
G1 X54.927 Y107.105 E5.07806
G1 E2.67806
;WIPE_START
G1 F7200
G1 X48.19 Y107.128 E1.07806
;WIPE_END
G92 E0
G1 Z.275 F9000
G1 X56.19 Y123.383
G1 Z.2
G1 E4 F1800
G1 X56.165 Y123.393 E4.00084
G1 X56.165 Y108.331 E4.4731
G1 X56.296 Y108.392 E4.47763
G1 X56.631 Y108.478 E4.48847
G1 X57.141 Y108.51 E4.50449
G1 X57.492 Y108.464 E4.51559
G1 X57.939 Y108.318 E4.53033
G1 X57.939 Y123.336 E5.00121
G1 X57.828 Y123.284 E5.00505
G1 X57.298 Y123.183 E5.02197
G1 X56.953 Y123.183 E5.03279
G1 X56.454 Y123.278 E5.04872
G1 X56.246 Y123.361 E5.05574
G1 E2.65574
;WIPE_START
G1 F7200
G1 X56.165 Y123.393 E2.63506
G1 X56.165 Y116.743 E1.05574
;WIPE_END
G92 E0
G1 Z.275 F9000
G1 X55.121 Y124.386
G1 Z.2
G1 E4 F1800
G1 X54.937 Y124.851 E4.01568
G1 X54.872 Y125.191 E4.02653
G1 X54.872 Y125.729 E4.0434
G1 X54.981 Y126.159 E4.05731
G1 X39.52 Y126.159 E4.54208
G1 X39.52 Y124.386 E4.59767
G1 X55.061 Y124.386 E5.08495
G1 E2.68495
;WIPE_START
G1 F7200
G1 X54.937 Y124.851 E2.57065
G1 X54.872 Y125.191 E2.48844
G1 X54.872 Y125.729 E2.36067
G1 X54.981 Y126.159 E2.25531
G1 X50.053 Y126.159 E1.08495
;WIPE_END
G92 E0
G1 Z.275 F9000
G1 X55.648 Y107.535
G1 Z.2
G1 E4 F1800
G1 X39.314 Y107.535 E4.51214
G1 X39.314 Y124.009 E5.02867
G1 X55.788 Y124.009 E5.5452
G1 X55.788 Y107.657 E6.05791
G1 X56.012 Y107.842 E6.06702
G1 X56.424 Y108.036 E6.0813
G1 X56.69 Y108.104 E6.08991
G1 X57.128 Y108.132 E6.10367
G1 X57.408 Y108.095 E6.11253
G1 X57.832 Y107.956 E6.12652
G1 X58.231 Y107.703 E6.14133
G1 X58.316 Y107.613 E6.14521
G1 X58.316 Y123.98 E6.65839
G1 X58.122 Y123.84 E6.66589
G1 X57.71 Y123.646 E6.68017
G1 X57.263 Y123.56 E6.69444
G1 X56.989 Y123.56 E6.70303
G1 X56.559 Y123.642 E6.71676
G1 X56.304 Y123.743 E6.72536
G1 X55.92 Y123.987 E6.73963
G1 X55.615 Y124.311 E6.75358
G1 X55.462 Y124.549 E6.76245
G1 X55.3 Y124.957 E6.77621
G1 X55.249 Y125.226 E6.78479
G1 X55.249 Y125.681 E6.79906
G1 X55.359 Y126.113 E6.81304
G1 X55.478 Y126.37 E6.82192
G1 X55.599 Y126.536 E6.82836
G1 X39.314 Y126.536 E7.33896
G1 X39.314 Y142.185 E7.82962
G1 X39.143 Y141.772 E7.84364
G1 X39.143 Y89.712 E9.47594
G1 X39.314 Y89.074 E9.49665
G1 X39.314 Y105.007 E9.99622
G1 X55.605 Y105.007 E10.50701
G1 X55.385 Y105.31 E10.51875
G1 X55.271 Y105.548 E10.52702
G1 X55.191 Y105.793 E10.5351
G1 X55.134 Y106.244 E10.54935
G1 X55.189 Y106.686 E10.56332
G1 X55.275 Y106.956 E10.5722
G1 X55.487 Y107.342 E10.58601
G1 X55.61 Y107.489 E10.59202
G1 E8.19202
;WIPE_START
G1 F7200
G1 X48.873 Y107.508 E6.59202
;WIPE_END
G92 E0
G1 Z.275 F9000
G1 X55.411 Y104.63
G1 Z.2
G1 E4 F1800
;TYPE:External perimeter
G1 X39.691 Y104.63 E4.49289
G1 X39.691 Y88.91 E4.98578
G1 X55.411 Y88.91 E5.47867
G1 X55.411 Y104.57 E5.96968
M73 P2 R71
G1 X55.515 Y105.017 F9000
G1 E3.56968 F1800
;WIPE_START
G1 F7200
G1 X48.674 Y104.596 E1.96968
;WIPE_END
G92 E0
G1 Z.275 F9000
G1 X131.794 Y147.76
G1 Z.2
G1 E4 F1800
;TYPE:Perimeter
G1 X115.32 Y147.76 E4.51653
G1 X115.32 Y131.286 E5.03306
G1 X131.794 Y131.286 E5.54959
M73 P2 R70
G1 X131.794 Y147.7 E6.06424
G1 X131.417 Y147.383 F9000
;TYPE:External perimeter
G1 F1800
G1 X115.697 Y147.383 E6.55713
G1 X115.697 Y131.663 E7.05002
G1 X131.417 Y131.663 E7.54291
G1 X131.417 Y147.323 E8.03392
G1 X131.521 Y147.77 F9000
G1 E5.63392 F1800
;WIPE_START
G1 F7200
G1 X124.68 Y147.349 E4.03392
;WIPE_END
G92 E0
G1 Z.275 F9000
G1 X132.171 Y131.005
G1 Z.2
G1 E4 F1800
;TYPE:Perimeter
G1 X132.7 Y131.176 E4.01743
G1 X133.238 Y131.21 E4.03433
G1 X133.581 Y131.167 E4.04517
G1 X133.944 Y131.049 E4.05714
G1 X133.944 Y145.175 E4.50005
G1 X133.436 Y145.175 E4.51598
G1 X132.564 Y145.408 E4.54428
G1 X132.171 Y145.801 E4.56171
G1 X132.171 Y131.065 E5.02375
G1 E2.62375
;WIPE_START
G1 F7200
G1 X132.7 Y131.176 E2.49538
G1 X133.238 Y131.21 E2.36735
G1 X133.581 Y131.167 E2.28525
G1 X133.944 Y131.049 E2.1946
G1 X133.944 Y135.979 E1.02375
;WIPE_END
G92 E0
G1 Z.275 F9000
G1 X134.321 Y126.384
G1 Z.2
G1 E4 F1800
G1 X134.321 Y109.91 E4.51653
G1 X150.795 Y109.91 E5.03306
G1 X150.795 Y126.384 E5.54959
G1 X134.381 Y126.384 E6.06424
G1 X134.698 Y126.007 F9000
;TYPE:External perimeter
G1 F1800
G1 X134.698 Y110.287 E6.55713
G1 X150.418 Y110.287 E7.05002
G1 X150.418 Y126.007 E7.54291
G1 X134.758 Y126.007 E8.03392
G1 X134.312 Y126.11 F9000
G1 E5.63392 F1800
;WIPE_START
G1 F7200
G1 X134.732 Y119.27 E4.03392
;WIPE_END
G92 E0
G1 Z.275 F9000
G1 X134.321 Y107.382
G1 Z.2
G1 E4 F1800
;TYPE:Perimeter
G1 X134.321 Y90.908 E4.51653
G1 X150.795 Y90.908 E5.03306
G1 X150.795 Y107.382 E5.54959
G1 X134.381 Y107.382 E6.06424
G1 X134.698 Y107.005 F9000
;TYPE:External perimeter
G1 F1800
G1 X134.698 Y91.285 E6.55713
G1 X150.418 Y91.285 E7.05002
G1 X150.418 Y107.005 E7.54291
G1 X134.758 Y107.005 E8.03392
G1 X134.312 Y107.109 F9000
G1 E5.63392 F1800
;WIPE_START
G1 F7200
G1 X134.732 Y100.268 E4.03392
;WIPE_END
G92 E0
G1 Z.275 F9000
G1 X122.293 Y90.131
G1 Z.2
G1 E4 F1800
;TYPE:Perimeter
G1 X105.819 Y90.131 E4.51653
G1 X105.819 Y73.657 E5.03306
G1 X122.293 Y73.657 E5.54959
G1 X122.293 Y90.071 E6.06424
G1 X121.916 Y89.754 F9000
;TYPE:External perimeter
G1 F1800
G1 X106.196 Y89.754 E6.55713
G1 X106.196 Y74.034 E7.05002
G1 X121.916 Y74.034 E7.54291
G1 X121.916 Y89.694 E8.03392
G1 X122.02 Y90.141 F9000
G1 E5.63392 F1800
;WIPE_START
G1 F7200
G1 X115.179 Y89.72 E4.03392
;WIPE_END
G92 E0
G1 Z.275 F9000
G1 X113.17 Y114.283
G1 Z.2
G1 E4 F1800
;TYPE:Perimeter
G1 X113.17 Y131.511 E4.54017
G1 X95.942 Y131.511 E5.08034
G1 X95.942 Y114.283 E5.62051
G1 X113.11 Y114.283 E6.1588
G1 X112.793 Y114.66 F9000
G1 F1800
G1 X112.793 Y131.134 E6.67533
G1 X96.319 Y131.134 E7.19186
G1 X96.319 Y114.66 E7.70839
G1 X112.733 Y114.66 E8.22304
G1 X112.416 Y115.037 F9000
;TYPE:External perimeter
G1 F1800
G1 X112.416 Y130.757 E8.71593
G1 X96.696 Y130.757 E9.20882
G1 X96.696 Y115.037 E9.70171
G1 X112.356 Y115.037 E10.19272
G1 X112.802 Y114.934 F9000
G1 E7.79272 F1800
;WIPE_START
G1 F7200
G1 X112.382 Y121.774 E6.19272
;WIPE_END
G92 E0
G1 Z.275 F9000
G1 X113.17 Y112.51
G1 Z.2
G1 E4 F1800
;TYPE:Perimeter
G1 X95.942 Y112.51 E4.54017
G1 X95.942 Y95.282 E5.08034
G1 X113.17 Y95.282 E5.62051
G1 X113.17 Y112.45 E6.1588
G1 X112.793 Y112.133 F9000
G1 F1800
G1 X96.319 Y112.133 E6.67533
G1 X96.319 Y95.659 E7.19186
G1 X112.793 Y95.659 E7.70839
G1 X112.793 Y112.073 E8.22304
G1 X112.416 Y111.756 F9000
;TYPE:External perimeter
G1 F1800
